;FLAVOR:Marlin
;TIME:3918
;Filament used: 19.968m
;Layer height: 0.52
;MINX:20.826
;MINY:56.953
;MINZ:0.52
;MAXX:279.15
;MAXY:243.047
;MAXZ:16.64
;EOFFSETPROCESSED
;Generated with Cura_SteamEngine mb-master-20200424
M82 ;absolute extrusion mode
;
; Crashspace Printer Farm MP10 (C. Nicks Start Code + John Gwinner Probe Code)
;______________________________________________
;Sliced at: Thu 30-04-2020 23:52:26
;Layer Height: 0.52
;Line Width: 0.74
;Flow: 100
;Z-Hop: False
;______________________________________________
;
M140 S50 ; set bed temp
M104 S160.0 T0 ; set extruder park temp to warm but not ooze during bed probing
M190 S50 ; wait for bed temp
; Try to grab the ooze off the nozzle here before probing around
G28 ; home all axis
;G29 P1; probes mesh
;G29 P3; fill in mesh that can't be reached is good
;G29 S0 ; save mesh
;G29 F 10.0 ;prints linear above this height
;G29 A ; use UBL
M104 S240 T0 ; set extruder temp
G92 E0;(Reset the extruder to 0)
G0 X0 Y30 Z2 F1500; (set into park)
M109 S240 T0 ; wait for extruder temp
G92 E0
G1 E7 F300; (Unretract from last ending code, plus add some for ooze)
;PRIME
G0 X0 Y30 Z0.2 F1500; (Knock off ooze)
G0 X2 Y30 Z0.4 F1500; (Knock off ooze)
G0 X3 Y30 Z1.0 F1500; (Knock off ooze)
G0 X5 Y30 Z0.52 F1000; (Lower into prime)
G91
G1 X5 Y+20 F1000 E5  ;PRIME
G1 X+0.74 ;PRIME
G1 Y-20 F1000 E5  ;PRIME
G90
G92 E0
G0 X0 Y20 F1500; (Knock off ooze)
G0 X0 Y20 Z0.2 F1500; (Knock off ooze)
G0 X2 Y20 Z0.4 F1500; (Knock off ooze)
G0 X3 Y20 Z1.0 F1500; (Knock off ooze)
G92 E0
;AND GO!!!!
G92 E0
G92 E0
G1 F2400 E-5
;LAYER_COUNT:32
;LAYER:0
M107
G1 F600 Z1.52
;MESH:Object 1
G0 F7200 X24.517 Y73.955 Z1.52
;TYPE:WALL-OUTER
G1 F600 Z0.52
G1 F2400 E0.0
G1 F1800 X24.905 Y73.863 E0.05459
G1 X25.298 Y73.817 E0.10876
G1 X42.484 Y73.81 E2.46144
G1 X42.903 Y73.835 E2.5189
G1 X43.286 Y73.902 E2.57213
G1 X43.68 Y74.019 E2.6284
G1 X44.042 Y74.176 E2.68241
G1 X44.393 Y74.378 E2.73785
G1 X44.701 Y74.608 E2.79047
G1 X45.006 Y74.896 E2.8479
G1 X45.262 Y75.201 E2.90241
G1 X45.477 Y75.527 E2.95587
G1 X45.656 Y75.884 E3.01054
G1 X45.795 Y76.267 E3.06632
G1 X45.887 Y76.655 E3.12091
G1 X45.933 Y77.048 E3.17507
G1 X45.94 Y92.736 E5.32269
G1 X45.915 Y93.153 E5.37988
G1 X45.848 Y93.534 E5.43284
G1 X45.731 Y93.93 E5.48936
G1 X45.574 Y94.292 E5.54338
G1 X45.372 Y94.643 E5.59882
G1 X45.142 Y94.951 E5.65144
G1 X44.854 Y95.256 E5.70887
G1 X44.549 Y95.512 E5.76338
G1 X44.223 Y95.727 E5.81684
G1 X43.866 Y95.906 E5.87151
G1 X43.483 Y96.045 E5.92729
G1 X43.103 Y96.135 E5.98075
G1 X42.66 Y96.185 E6.04178
G1 X25.516 Y96.19 E8.38871
G1 X25.097 Y96.165 E8.44617
G1 X24.714 Y96.098 E8.4994
G1 X24.32 Y95.981 E8.55567
G1 X23.958 Y95.824 E8.60968
G1 X23.607 Y95.622 E8.66512
G1 X23.299 Y95.392 E8.71774
G1 X22.994 Y95.104 E8.77517
G1 X22.738 Y94.799 E8.82968
G1 X22.523 Y94.473 E8.88314
G1 X22.344 Y94.116 E8.93781
G1 X22.205 Y93.733 E8.99359
G1 X22.113 Y93.345 E9.04818
G1 X22.067 Y92.952 E9.10234
G1 X22.06 Y77.264 E11.24996
G1 X22.085 Y76.847 E11.30715
G1 X22.152 Y76.464 E11.36038
G1 X22.269 Y76.07 E11.41664
G1 X22.426 Y75.708 E11.47066
G1 X22.628 Y75.357 E11.5261
G1 X22.858 Y75.049 E11.57872
G1 X23.146 Y74.744 E11.63615
G1 X23.451 Y74.488 E11.69066
G1 X23.777 Y74.273 E11.74412
G1 X24.134 Y74.094 E11.79879
G1 X24.517 Y73.955 E11.85456
G0 F7200 X24.809 Y73.886
G0 X24.907 Y75.166
G1 F1800 X24.36 Y75.408 E11.93645
G1 X23.898 Y75.79 E12.01851
G1 X23.561 Y76.284 E12.10038
G1 X23.368 Y76.861 E12.18367
G1 X23.34 Y78.511 E12.40958
G1 X23.34 Y79.41 E12.53265
G1 X44.66 Y79.41 E15.45126
G1 X44.66 Y77.204 E15.75325
G1 X44.584 Y76.657 E15.82885
G1 X44.342 Y76.11 E15.91073
G1 X43.96 Y75.648 E15.9928
G1 X43.466 Y75.311 E16.07466
G1 X42.914 Y75.127 E16.15432
G1 X42.531 Y75.09 E16.20699
G1 X25.454 Y75.09 E18.54476
G1 X24.907 Y75.166 E18.62036
G0 F7200 X24.633 Y75.287
G0 X25.454 Y80.09
G1 E18.621 ;Adjusted e by 0.00064mm
G1 F1800 X24.907 Y80.166 E18.6966
G1 X24.36 Y80.408 E18.77848
G1 X23.898 Y80.79 E18.86055
G1 X23.561 Y81.284 E18.94241
G1 X23.368 Y81.861 E19.0257
G1 X23.34 Y83.511 E19.25161
G1 X23.34 Y84.41 E19.37468
G1 X44.66 Y84.41 E22.29329
G1 X44.66 Y82.204 E22.59528
G1 X44.584 Y81.657 E22.67089
G1 X44.342 Y81.11 E22.75277
G1 X43.96 Y80.648 E22.83483
G1 X43.466 Y80.311 E22.9167
G1 X42.914 Y80.127 E22.99635
G1 X42.531 Y80.09 E23.04903
G1 X25.454 Y80.09 E25.38679
G0 F7200 X25.157 Y80.131
G1 F2400 E20.38679
G0 F7200 X23.34 Y85.59
G1 F2400 E25.38755 ;Adjusted e by 0.00076mm
G1 F1800 X23.34 Y87.522 E25.65203
G1 X23.347 Y87.97 E25.71337
G1 X23.48 Y88.534 E25.7927
G1 X23.771 Y89.056 E25.87451
G1 X24.194 Y89.479 E25.9564
G1 X24.716 Y89.77 E26.03822
G1 X25.285 Y89.904 E26.11824
G1 X42.546 Y89.91 E28.48119
G1 X43.093 Y89.834 E28.55679
G1 X43.64 Y89.592 E28.63868
G1 X44.102 Y89.21 E28.72074
G1 X44.439 Y88.716 E28.80261
G1 X44.632 Y88.139 E28.8859
G1 X44.66 Y86.489 E29.11181
G1 X44.66 Y85.59 E29.23488
G1 X23.34 Y85.59 E32.15349
G0 F7200 X23.34 Y85.89
G0 X23.34 Y90.59
G1 E32.15409 ;Adjusted e by 0.0006mm
G1 F1800 X23.34 Y92.522 E32.41857
G1 X23.347 Y92.97 E32.47991
G1 X23.48 Y93.534 E32.55923
G1 X23.771 Y94.056 E32.64105
G1 X24.194 Y94.479 E32.72294
G1 X24.716 Y94.77 E32.80475
G1 X25.285 Y94.904 E32.88478
G1 X42.546 Y94.91 E35.24773
G1 X43.093 Y94.834 E35.32333
G1 X43.64 Y94.592 E35.40522
G1 X44.102 Y94.21 E35.48728
G1 X44.439 Y93.716 E35.56914
G1 X44.632 Y93.139 E35.65243
G1 X44.66 Y91.489 E35.87834
G1 X44.66 Y90.59 E36.00141
G1 X23.34 Y90.59 E38.92003
G0 F7200 X23.34 Y90.89
G0 X22.702 Y92.912
;TYPE:WALL-INNER
G1 E38.92011 ;Adjusted e by 8e-05mm
G1 F1800 X22.702 Y92.527 E38.97178
G1 X22.702 Y89.955 E39.31697
G1 X22.702 Y89.443 E39.38569
G1 X22.701 Y88.767 E39.47641
G1 X22.7 Y88.05 E39.57264
G1 X22.7 Y87.527 E39.64283
G1 X22.7 Y83.507 E40.18236
G1 X22.699 Y81.753 E40.41777
G1 X22.698 Y81 E40.51883
G1 X22.697 Y80.046 E40.64687
G1 X22.696 Y78.507 E40.85342
G1 X22.695 Y77.285 E41.01743
G1 X22.717 Y76.923 E41.0661
G1 X22.734 Y76.826 E41.07932
G0 F7200 X22.705 Y80.045
G1 E41.07957 ;Adjusted e by 0.00025mm
G1 F1800 X23.424 Y80.045 E41.17607
G1 X23.803 Y80.045 E41.22693
G1 X23.424 Y80.358 E41.25162
G1 X22.987 Y80.999 E41.35574
G1 X22.735 Y81.752 E41.38845
G1 F2400 E36.38845
G0 F7200 X22.962 Y81.71
G0 X22.882 Y88.766
G1 F2400 E41.38951 ;Adjusted e by 0.00106mm
G1 F1800 X23.259 Y89.442 E41.45016
G1 X23.772 Y89.955 E41.54753
G0 F7200 X23.259 Y89.955
G1 F1800 X22.705 Y89.955 E41.62188
G0 F7200 X22.702 Y92.912
G0 X22.723 Y93.091
G1 E41.62211 ;Adjusted e by 0.00023mm
G1 F900 X22.755 Y93.231 E41.64139
G1 X22.83 Y93.547 E41.68498
G1 X22.862 Y93.682 E41.7036
G0 F7200 X22.723 Y93.091
G0 X22.913 Y93.821
G1 F900 X23.094 Y94.146 E41.75353
G1 X23.235 Y94.399 E41.7924
G0 F7200 X22.913 Y93.821
G0 X23.308 Y94.491
G1 F900 X23.466 Y94.649 E41.82239
G1 X23.715 Y94.898 E41.86965
G1 X23.762 Y94.945 E41.87857
G0 F7200 X23.308 Y94.491
G0 X23.87 Y95.025
G1 F900 X23.966 Y95.078 E41.89329
G1 X24.247 Y95.235 E41.93649
G1 X24.415 Y95.329 E41.96232
G0 F7200 X23.87 Y95.025
G0 X24.527 Y95.378
G1 F900 X24.863 Y95.458 E42.00868
G1 X25.173 Y95.533 E42.05149
G0 F7200 X24.527 Y95.378
G0 X25.269 Y95.539
G1 F1800 X25.537 Y95.539 E42.08745
G1 X42.59 Y95.545 E44.37616
G1 X42.991 Y95.49 E44.43048
G1 X43.189 Y95.462 E44.45732
G1 F2400 E39.45732
G0 F7200 X43.202 Y95.728
G0 X25.269 Y95.539
G0 X25.299 Y95.275
G0 X43.32 Y95.428
G1 F2400 E44.46426 ;Adjusted e by 0.00694mm
G1 F900 X43.603 Y95.303 E44.50578
G1 X43.937 Y95.155 E44.55481
G0 F7200 X43.32 Y95.428
G0 X44.028 Y95.094
G1 F900 X44.161 Y94.985 E44.57789
G1 X44.403 Y94.786 E44.61994
G1 X44.504 Y94.702 E44.63757
G0 F7200 X44.028 Y95.094
G0 X44.617 Y94.581
G1 F900 X44.647 Y94.537 E44.64472
G1 X44.823 Y94.279 E44.68664
G1 X44.988 Y94.038 E44.72583
G0 F7200 X44.617 Y94.581
G0 X45.032 Y93.945
G1 F900 X45.113 Y93.703 E44.76008
G1 X45.22 Y93.382 E44.8055
G1 X45.242 Y93.318 E44.81458
G0 F7200 X45.032 Y93.945
G0 X44.197 Y89.955
G1 E44.81513 ;Adjusted e by 0.00055mm
G1 F1800 X44.576 Y89.642 E44.8811
G1 X45.013 Y89.001 E44.98522
G1 X45.265 Y88.248 E45.09179
G1 X45.295 Y86.494 E45.32723
G1 X45.295 Y82.16 E45.9089
G1 X45.201 Y81.481 E46.0009
G1 X44.887 Y80.773 E46.10485
G1 X44.392 Y80.174 E46.20914
G1 X44.203 Y80.045 E46.23985
G0 F7200 X44.392 Y80.045
G1 F1800 X45.295 Y80.045 E46.36104
G1 X45.295 Y77.16 E46.74824
G1 X45.286 Y77.09 E46.75772
G1 X45.241 Y76.768 E46.80135
G1 X45.212 Y76.563 E46.82914
G0 F7200 X45.298 Y80.045
G1 E46.82944 ;Adjusted e by 0.0003mm
G1 F1800 X45.298 Y80.772 E46.92701
G1 X45.299 Y81.48 E46.96233
G1 F2400 E41.96233
G0 F7200 X45.415 Y81.312
G0 X45.302 Y89
G1 F2400 E46.96352 ;Adjusted e by 0.00119mm
G1 F1800 X45.303 Y89.954 E47.09155
G1 X45.304 Y91.493 E47.29811
G1 X45.305 Y92.715 E47.46211
G1 X45.283 Y93.083 E47.51159
G1 X45.266 Y93.178 E47.52454
G0 F7200 X45.295 Y89.955
G1 E47.52479 ;Adjusted e by 0.00025mm
G1 F1800 X44.576 Y89.955 E47.62129
G0 F7200 X44.197 Y89.955
G1 F2400 E42.62129
G0 F7200 X44.495 Y90.052
G0 X45.178 Y76.43
G1 F2400 E47.6237 ;Adjusted e by 0.00241mm
G1 F900 X45.053 Y76.147 E47.66522
G1 X44.904 Y75.812 E47.71443
G0 F7200 X45.178 Y76.43
G0 X44.452 Y75.246
G1 E47.71444 ;Adjusted e by 1e-05mm
G1 F900 X44.547 Y75.337 E47.7321
G1 X44.749 Y75.577 E47.7742
G1 X44.844 Y75.722 E47.79746
G0 F7200 X44.452 Y75.246
G0 X43.788 Y74.762
G1 F900 X44.041 Y74.908 E47.83667
G1 X44.291 Y75.095 E47.87857
G1 X44.331 Y75.133 E47.88597
G0 F7200 X43.788 Y74.762
G0 X43.068 Y74.509
G1 F900 X43.141 Y74.522 E47.89592
G1 X43.461 Y74.617 E47.94072
G1 X43.696 Y74.719 E47.97511
G0 F7200 X43.068 Y74.509
G1 F2400 E42.97511
G0 F7200 X43.188 Y74.269
G0 X24.813 Y74.538
G1 F2400 E47.97846 ;Adjusted e by 0.00335mm
G1 F1800 X25.015 Y74.49 E48.00632
G1 X25.338 Y74.452 E48.04997
G1 X25.409 Y74.452 E48.0595
G1 X42.463 Y74.445 E50.34834
G1 X42.562 Y74.45 E50.36164
G1 X42.827 Y74.467 E50.39728
G1 X43.005 Y74.498 E50.42153
G1 F2400 E45.42153
G0 F7200 X43.008 Y74.769
G0 X24.813 Y74.538
G0 X24.063 Y74.845
G1 F2400 E50.42501 ;Adjusted e by 0.00348mm
G1 F900 X24.388 Y74.678 E50.47405
G1 X24.68 Y74.572 E50.51574
G0 F7200 X24.063 Y74.845
G0 X23.496 Y75.298
G1 F900 X23.587 Y75.203 E50.5334
G1 X23.827 Y75.001 E50.5755
G1 X23.972 Y74.906 E50.59877
G0 F7200 X23.496 Y75.298
G0 X23.013 Y75.961
G1 F900 X23.158 Y75.709 E50.63779
G1 X23.345 Y75.459 E50.67969
G1 X23.383 Y75.419 E50.68709
G0 F7200 X23.013 Y75.961
G0 X22.759 Y76.679
G1 F900 X22.772 Y76.609 E50.69665
G1 X22.867 Y76.289 E50.74145
G1 X22.968 Y76.055 E50.77565
G0 F7200 X22.759 Y76.679
G1 F2400 E45.77565
G0 F7200 X23.028 Y76.688
G0 X23.28 Y85
;TYPE:SKIN
G1 F2400 E50.77698 ;Adjusted e by 0.00133mm
G1 F1800 X44.72 Y85 E53.64099
G0 F7200 X44.72 Y85.21
G1 F2400 E48.64099
;MESH:Object 5
G0 F7200 X44.72 Y85.31
G0 X42.903 Y99.835
;TYPE:WALL-OUTER
G1 F2400 E53.64355 ;Adjusted e by 0.00256mm
G1 F1800 X43.286 Y99.902 E53.69677
G1 X43.68 Y100.019 E53.75304
G1 X44.042 Y100.176 E53.80705
G1 X44.393 Y100.378 E53.86249
G1 X44.701 Y100.608 E53.91512
G1 X45.006 Y100.896 E53.97254
G1 X45.262 Y101.201 E54.02705
G1 X45.477 Y101.527 E54.08051
G1 X45.656 Y101.884 E54.13518
G1 X45.795 Y102.267 E54.19096
G1 X45.887 Y102.655 E54.24555
G1 X45.933 Y103.048 E54.29972
G1 X45.94 Y118.736 E56.44733
G1 X45.915 Y119.153 E56.50452
G1 X45.848 Y119.534 E56.55748
G1 X45.731 Y119.93 E56.61401
G1 X45.574 Y120.292 E56.66802
G1 X45.372 Y120.643 E56.72346
G1 X45.142 Y120.951 E56.77608
G1 X44.854 Y121.256 E56.83351
G1 X44.549 Y121.512 E56.88802
G1 X44.223 Y121.727 E56.94148
G1 X43.866 Y121.906 E56.99615
G1 X43.483 Y122.045 E57.05193
G1 X43.103 Y122.135 E57.10539
G1 X42.66 Y122.185 E57.16642
G1 X25.516 Y122.19 E59.51336
G1 X25.097 Y122.165 E59.57082
G1 X24.714 Y122.098 E59.62404
G1 X24.32 Y121.981 E59.68031
G1 X23.958 Y121.824 E59.73432
G1 X23.607 Y121.622 E59.78976
G1 X23.299 Y121.392 E59.84239
G1 X22.994 Y121.104 E59.89981
G1 X22.738 Y120.799 E59.95432
G1 X22.523 Y120.473 E60.00778
G1 X22.344 Y120.116 E60.06245
G1 X22.205 Y119.733 E60.11823
G1 X22.113 Y119.345 E60.17282
G1 X22.067 Y118.952 E60.22699
G1 X22.06 Y103.264 E62.3746
G1 X22.085 Y102.847 E62.43179
G1 X22.152 Y102.464 E62.48502
G1 X22.269 Y102.07 E62.54128
G1 X22.426 Y101.708 E62.5953
G1 X22.628 Y101.357 E62.65074
G1 X22.858 Y101.049 E62.70336
G1 X23.146 Y100.744 E62.76079
G1 X23.451 Y100.488 E62.8153
G1 X23.777 Y100.273 E62.86876
G1 X24.134 Y100.094 E62.92343
G1 X24.517 Y99.955 E62.97921
G1 X24.905 Y99.863 E63.0338
G1 X25.298 Y99.817 E63.08796
G1 X42.484 Y99.81 E65.44065
G1 X42.903 Y99.835 E65.49811
G0 F7200 X43.199 Y99.886
G0 X42.914 Y101.127
G1 F1800 X42.531 Y101.09 E65.55079
G1 X25.454 Y101.09 E67.88855
G1 X24.907 Y101.166 E67.96415
G1 X24.36 Y101.408 E68.04603
G1 X23.898 Y101.79 E68.1281
G1 X23.561 Y102.284 E68.20996
G1 X23.368 Y102.861 E68.29325
G1 X23.34 Y104.511 E68.51916
G1 X23.34 Y105.41 E68.64223
G1 X44.66 Y105.41 E71.56085
G1 X44.66 Y103.204 E71.86284
G1 X44.584 Y102.657 E71.93844
G1 X44.342 Y102.11 E72.02032
G1 X43.96 Y101.648 E72.10239
G1 X43.466 Y101.311 E72.18425
G1 X42.914 Y101.127 E72.2639
G0 F7200 X42.615 Y101.099
G0 X42.531 Y106.09
G1 E72.26456 ;Adjusted e by 0.00066mm
G1 F1800 X25.454 Y106.09 E74.60233
G1 X24.907 Y106.166 E74.67793
G1 X24.36 Y106.408 E74.75981
G1 X23.898 Y106.79 E74.84188
G1 X23.561 Y107.284 E74.92374
G1 X23.368 Y107.861 E75.00703
G1 X23.34 Y109.511 E75.23294
G1 X23.34 Y110.41 E75.35601
G1 X44.66 Y110.41 E78.27462
G1 X44.66 Y108.204 E78.57662
G1 X44.584 Y107.657 E78.65222
G1 X44.342 Y107.11 E78.7341
G1 X43.96 Y106.648 E78.81616
G1 X43.466 Y106.311 E78.89803
G1 X42.914 Y106.127 E78.97768
G1 X42.531 Y106.09 E79.03036
G0 F7200 X42.231 Y106.09
G1 F2400 E74.03036
G0 F7200 X44.66 Y111.59
G1 F2400 E79.03117 ;Adjusted e by 0.00081mm
G1 F1800 X23.34 Y111.59 E81.94978
G1 X23.34 Y113.522 E82.21426
G1 X23.347 Y113.97 E82.2756
G1 X23.48 Y114.534 E82.35493
G1 X23.771 Y115.056 E82.43674
G1 X24.194 Y115.479 E82.51863
G1 X24.716 Y115.77 E82.60044
G1 X25.285 Y115.904 E82.68047
G1 X42.546 Y115.91 E85.04342
G1 X43.093 Y115.834 E85.11902
G1 X43.64 Y115.592 E85.20091
G1 X44.102 Y115.21 E85.28297
G1 X44.439 Y114.716 E85.36484
G1 X44.632 Y114.139 E85.44813
G1 X44.66 Y112.489 E85.67404
G1 X44.66 Y111.59 E85.7971
G0 F7200 X44.36 Y111.59
G1 F2400 E80.7971
G0 F7200 X44.36 Y111.31
G0 X44.66 Y116.59
G1 F2400 E85.79782 ;Adjusted e by 0.00072mm
G1 F1800 X23.34 Y116.59 E88.71644
G1 X23.34 Y118.522 E88.98092
G1 X23.347 Y118.97 E89.04226
G1 X23.48 Y119.534 E89.12158
G1 X23.771 Y120.056 E89.2034
G1 X24.194 Y120.479 E89.28529
G1 X24.716 Y120.77 E89.3671
G1 X25.285 Y120.904 E89.44713
G1 X42.546 Y120.91 E91.81008
G1 X43.093 Y120.834 E91.88568
G1 X43.64 Y120.592 E91.96756
G1 X44.102 Y120.21 E92.04963
G1 X44.439 Y119.716 E92.13149
G1 X44.632 Y119.139 E92.21478
G1 X44.66 Y117.489 E92.44069
G1 X44.66 Y116.59 E92.56376
G0 F7200 X44.36 Y116.59
G0 X44.36 Y115.886
G0 X45.305 Y118.715
;TYPE:WALL-INNER
G1 E92.56416 ;Adjusted e by 0.0004mm
G1 F1800 X45.283 Y119.083 E92.61364
G1 X45.266 Y119.178 E92.62659
G0 F7200 X45.273 Y118.715
G1 F1800 X45.295 Y117.494 E92.79049
G1 X45.295 Y115.955 E92.99704
G1 X44.576 Y115.955 E93.09354
G1 X44.197 Y115.955 E93.14441
G1 X44.576 Y115.642 E93.1691
G1 X45.013 Y115.001 E93.27322
G1 X45.265 Y114.248 E93.37979
G1 X45.295 Y112.494 E93.61523
G1 X45.295 Y108.16 E94.1969
G1 X45.201 Y107.481 E94.2889
G1 X44.887 Y106.773 E94.39285
G1 X44.392 Y106.174 E94.49714
G1 X44.203 Y106.045 E94.52785
G0 F7200 X44.392 Y106.045
G1 F1800 X45.295 Y106.045 E94.64904
G1 X45.295 Y103.16 E95.03624
G1 X45.286 Y103.09 E95.04571
G1 X45.241 Y102.768 E95.08935
G1 X45.212 Y102.563 E95.11714
G0 F7200 X45.298 Y106.045
G1 E95.11744 ;Adjusted e by 0.0003mm
G1 F1800 X45.298 Y106.772 E95.21501
G1 X45.299 Y107.48 E95.25032
G1 F2400 E90.25032
G0 F7200 X45.415 Y107.312
G0 X45.302 Y115
G1 F2400 E95.25151 ;Adjusted e by 0.00119mm
G1 F1800 X45.303 Y115.954 E95.37955
G0 F7200 X45.305 Y118.715
G0 X45.242 Y119.318
G1 E95.37983 ;Adjusted e by 0.00028mm
G1 F900 X45.23 Y119.385 E95.38897
G1 X45.134 Y119.709 E95.43432
G1 X45.032 Y119.945 E95.46883
G0 F7200 X45.242 Y119.318
G0 X44.988 Y120.038
G1 F900 X44.842 Y120.291 E95.50803
G1 X44.655 Y120.541 E95.54993
G1 X44.617 Y120.581 E95.55734
G0 F7200 X44.988 Y120.038
