;FLAVOR:Marlin
;TIME:3093
;Filament used: 9.78963m
;Layer height: 0.4
;MINX:78.62
;MINY:56.953
;MINZ:0.4
;MAXX:220.15
;MAXY:243.047
;MAXZ:16.8
;EOFFSETPROCESSED
;Generated with Cura_SteamEngine mb-master-20200328
M82 ;absolute extrusion mode
; Crashspace Printer Farm MP10 (C. Nicks Start Code + John Gwinner Probe Code)
M140 S45 ; set bed temp
M104 S170.0 T0 ; set extruder park temp to warm but not ooze during bed probing ;Adjusted temp by 10
G28 ; home all axis
M190 S45 ; wait for bed temp
G29 P1; probes mesh
G29 P3; fill in mesh that can't be reached is good
G29 S0 ; save mesh
G29 F 10.0 ;prints linear above this height
G29 A ; use UBL
M104 S250.0 T0 ; set extruder temp ;Adjusted temp by 10
G92 E0;(Reset the extruder to 0)
G0 X0 Y30 Z2 F1500; (set into park)
M109 S250.0 T0 ; wait for extruder temp ;Adjusted temp by 10
;PRIME
G0 X0 Y30 Z0.5 F1500; (Lower into park)
G92 E0
G1 E5 F300; (Unretract)
G92 E0;
G1 E10 F100; (prime in place)
G0 X5 Y30 Z0.7 F1500; (Knock off prime)
G1 E8 F500; (Small retract)
G92 E0; (Zero Extruder)
;AND GO!!!!
G92 E0
G92 E0
G1 F1800 E-5
;LAYER_COUNT:42
;LAYER:0
M107
G1 F600 Z1.4
;MESH:Object 10
G0 F7200 X85.2 Y78.85 Z1.4
;TYPE:WALL-INNER
G1 F600 Z0.4
G1 F1800 E0.0
G1 F600 X85.464 Y78.85 E0.02994
G1 X85.829 Y78.85 E0.07134
G0 F1020 X85.974 Y78.85
G0 F7200 X85.464 Y79.135
G1 F600 X85.2 Y79.399 E0.09698
G0 F7200 X85.2 Y78.85
G1 F1800 E-4.90302
G0 F7200 X94.077 Y78.85
G1 F1800 E0.09836 ;Adjusted e by 0.00138mm
G1 F600 X94.748 Y78.85 E0.17446
G1 X94.8 Y78.85 E0.18036
G1 X94.8 Y79.309 E0.23241
G1 X94.8 Y79.372 E0.23734
G0 F7200 X94.077 Y78.85
G1 F1800 E-4.76266
G0 F7200 X94.016 Y101.15
G1 F1800 E0.24143 ;Adjusted e by 0.00409mm
G1 F600 X94.308 Y101.021 E0.27763
G1 X94.536 Y100.832 E0.31122
G1 X94.8 Y100.614 E0.35005
G1 X94.8 Y101.021 E0.36435
G1 X94.8 Y101.15 E0.37155
G1 X94.308 Y101.15 E0.40196
G0 F7200 X94.016 Y101.15
G1 F1800 E-4.59804
G0 F7200 X85.2 Y100.628
G1 F1800 E0.40334 ;Adjusted e by 0.00138mm
G1 F600 X85.252 Y100.691 E0.4126
G1 X85.43 Y100.813 E0.43707
G1 X85.923 Y101.15 E0.5048
G1 X85.252 Y101.15 E0.52863
G1 X85.2 Y101.15 E0.53177
G1 X85.2 Y100.691 E0.5641
G0 F7200 X85.2 Y100.628
G0 X85.756 Y100.139
;TYPE:WALL-OUTER
G1 F1200 X86.262 Y100.485 E0.63362
G1 X86.826 Y100.672 E0.70101
G1 X87.216 Y100.71 E0.74545
G1 X89.46 Y100.71 E0.99995
G1 X89.46 Y79.29 E3.42929
G1 X87.423 Y79.29 E3.66032
G1 X87.023 Y79.298 E3.70569
G1 X86.448 Y79.433 E3.77268
G1 X85.914 Y79.731 E3.84203
G1 X85.481 Y80.164 E3.91148
G1 X85.183 Y80.698 E3.98084
G1 X85.049 Y81.265 E4.04692
G1 X85.04 Y81.486 E4.072
G1 X85.04 Y98.55 E6.0073
G1 X85.118 Y99.106 E6.07098
G1 X85.196 Y99.283 E6.09292
G1 X85.34 Y99.61 E6.13344
G0 F1020 X85.365 Y99.666
G0 X85.756 Y100.139
G0 F7200 X86.004 Y100.308
G0 X85.544 Y100.981
G0 X84.46 Y100.71
G1 E6.13362 ;Adjusted e by 0.00018mm
G1 F1200 X84.46 Y99.3 E6.29353
G1 X84.46 Y99.106 E6.31426
G1 X84.46 Y98.55 E6.36676
G1 X84.46 Y81.486 E7.88362
G1 X84.46 Y81.265 E7.90343
G1 X84.46 Y80.683 E7.96128
G1 X84.46 Y79.29 E8.11926
G1 X82.423 Y79.29 E8.35029
G1 X82.023 Y79.298 E8.39566
G1 X81.448 Y79.433 E8.46265
G1 X80.914 Y79.731 E8.532
G1 X80.481 Y80.164 E8.60145
G1 X80.183 Y80.698 E8.67081
G1 X80.049 Y81.265 E8.73689
G1 X80.04 Y81.486 E8.76197
G1 X80.04 Y98.55 E10.69728
G1 X80.118 Y99.106 E10.76095
G1 X80.365 Y99.666 E10.83037
G1 X80.756 Y100.139 E10.89997
G1 X81.262 Y100.485 E10.96949
G1 X81.826 Y100.672 E11.03688
G1 X82.216 Y100.71 E11.08132
G1 X83.785 Y100.71 E11.25927
G0 F1020 X84.46 Y100.71
G0 F7200 X84.46 Y100.41
G1 F1800 E6.25927
G0 F7200 X90.54 Y100.71
G1 F1800 E11.26009 ;Adjusted e by 0.00082mm
G1 F1200 X92.8 Y100.71 E11.5164
G1 X93.356 Y100.632 E11.58008
G1 X93.916 Y100.385 E11.6495
G1 X94.389 Y99.994 E11.7191
G1 X94.735 Y99.488 E11.78862
G1 X94.804 Y99.281 E11.81336
G1 X94.922 Y98.924 E11.85601
G1 X94.96 Y98.534 E11.90045
G1 X94.96 Y81.45 E13.83802
G1 X94.882 Y80.894 E13.9017
G1 X94.804 Y80.717 E13.92363
G1 X94.635 Y80.334 E13.97111
G1 X94.244 Y79.861 E14.04071
G1 X93.738 Y79.515 E14.11023
G1 X93.174 Y79.328 E14.17762
G1 X92.784 Y79.29 E14.22207
G1 X90.54 Y79.29 E14.47657
G1 X90.54 Y100.035 E16.82935
G0 F1020 X90.54 Y100.71
G0 F7200 X90.84 Y100.71
G0 X95.54 Y100.71
G1 E16.83009 ;Adjusted e by 0.00074mm
G1 F1200 X97.8 Y100.71 E17.08641
G1 X98.356 Y100.632 E17.15008
G1 X98.916 Y100.385 E17.2195
G1 X99.389 Y99.994 E17.2891
G1 X99.735 Y99.488 E17.35862
G1 X99.922 Y98.924 E17.42601
G1 X99.96 Y98.534 E17.47045
G1 X99.96 Y81.45 E19.40802
G1 X99.882 Y80.894 E19.4717
G1 X99.635 Y80.334 E19.54111
G1 X99.244 Y79.861 E19.61071
G1 X98.738 Y79.515 E19.68024
G1 X98.174 Y79.328 E19.74763
G1 X97.784 Y79.29 E19.79207
G1 X95.54 Y79.29 E20.04657
G1 X95.54 Y80.7 E20.20648
G1 X95.54 Y80.894 E20.22721
G1 X95.54 Y81.45 E20.27971
G1 X95.54 Y98.534 E21.79834
G1 X95.54 Y98.924 E21.83409
G1 X95.54 Y99.301 E21.87322
G1 X95.54 Y100.71 E22.03302
G0 F7200 X95.84 Y100.71
G0 X97.732 Y101.89
G1 E22.03313 ;Adjusted e by 0.00011mm
G1 F1200 X82.269 Y101.89 E23.78686
G1 X81.85 Y101.865 E23.83447
G1 X81.477 Y101.8 E23.87741
G1 X81.088 Y101.684 E23.92345
G1 X80.727 Y101.528 E23.96805
G1 X80.387 Y101.331 E24.01261
G1 X80.078 Y101.101 E24.0563
G1 X79.781 Y100.821 E24.10259
G1 X79.53 Y100.521 E24.14696
G1 X79.317 Y100.199 E24.19074
G1 X79.14 Y99.846 E24.23553
G1 X79.004 Y99.47 E24.28088
G1 X78.911 Y99.079 E24.32646
G1 X78.867 Y98.702 E24.36951
G1 X78.86 Y98.5 E24.39243
G1 X78.86 Y81.514 E26.31889
G1 X78.885 Y81.1 E26.36593
G1 X78.95 Y80.727 E26.40887
G1 X79.066 Y80.338 E26.4549
G1 X79.222 Y79.977 E26.49951
G1 X79.419 Y79.637 E26.54407
G1 X79.649 Y79.328 E26.58776
G1 X79.929 Y79.031 E26.63405
G1 X80.229 Y78.78 E26.67842
G1 X80.551 Y78.567 E26.7222
G1 X80.904 Y78.39 E26.76699
G1 X81.28 Y78.254 E26.81234
G1 X81.671 Y78.161 E26.85792
G1 X82.049 Y78.117 E26.90108
G1 X82.268 Y78.11 E26.92593
G1 X97.731 Y78.11 E28.67966
G1 X98.15 Y78.135 E28.72726
G1 X98.523 Y78.2 E28.7702
G1 X98.912 Y78.316 E28.81624
G1 X99.273 Y78.472 E28.86084
G1 X99.613 Y78.669 E28.90541
G1 X99.922 Y78.899 E28.9491
G1 X100.219 Y79.179 E28.99539
G1 X100.47 Y79.479 E29.03975
G1 X100.683 Y79.801 E29.08354
G1 X100.86 Y80.154 E29.12832
G1 X100.996 Y80.53 E29.17367
G1 X101.089 Y80.92 E29.21914
G1 X101.133 Y81.295 E29.26197
G1 X101.14 Y81.5 E29.28523
G1 X101.14 Y98.486 E31.21169
G1 X101.115 Y98.9 E31.25872
G1 X101.05 Y99.273 E31.30167
G1 X100.934 Y99.662 E31.3477
G1 X100.778 Y100.023 E31.39231
G1 X100.581 Y100.363 E31.43687
G1 X100.351 Y100.672 E31.48056
G1 X100.071 Y100.969 E31.52685
G1 X99.771 Y101.22 E31.57122
G1 X99.449 Y101.433 E31.615
G1 X99.096 Y101.61 E31.65979
G1 X98.72 Y101.746 E31.70514
G1 X98.403 Y101.822 E31.74211
G0 F1020 X98.329 Y101.839
G0 X97.951 Y101.883
G0 X97.732 Y101.89
G0 F7200 X97.432 Y101.89
G0 X97.914 Y101.291
;TYPE:SKIN
G1 F1200 X97.717 Y101.3 E31.75677
G1 X95.375 Y101.3 E31.93013
G0 F7200 X97.838 Y101.298
G1 E31.93022 ;Adjusted e by 9e-05mm
G1 F1200 X98.516 Y101.195 E31.97973
G1 X99.222 Y100.885 E32.03456
G1 X99.82 Y100.387 E32.08978
G1 X100.261 Y99.747 E32.14505
G1 X100.496 Y99.046 E32.19809
G1 X100.547 Y98.56 E32.23359
G1 X100.548 Y81.411 E33.48991
G1 X100.446 Y80.734 E33.53934
G1 X100.135 Y80.027 E33.59426
G1 X99.637 Y79.429 E33.64949
G1 X98.997 Y78.988 E33.70476
G1 X98.296 Y78.754 E33.75776
G1 X97.81 Y78.703 E33.79326
G1 X95.375 Y78.7 E33.9724
G0 F7200 X93.858 Y79.142
G1 F1200 X93.581 Y78.932 E33.98385
G1 X93.303 Y78.722 E34.00724
G1 X92.811 Y78.7 E34.04566
G1 X89.95 Y78.7 E34.25745
G1 X89.975 Y79.152 E34.28749
G1 X90 Y79.605 E34.31419
G1 X90 Y100.395 E35.53774
G1 X89.975 Y100.847 E35.56438
G1 X89.95 Y101.3 E35.59449
G1 X92.838 Y101.3 E35.80828
G1 X93.185 Y101.278 E35.83535
G1 X93.533 Y101.256 E35.86528
G1 X93.456 Y101.218 E35.87215
G0 F7200 X89.932 Y101.282
G1 E35.87246 ;Adjusted e by 0.00031mm
G1 F1200 X86.502 Y101.283 E36.14529
G0 F7200 X86.422 Y100.977
G1 F1200 X86.348 Y100.952 E36.14723
G1 X86.147 Y100.846 E36.1512
G1 F1800 E31.1512
G0 F7200 X90.05 Y78.7
G1 F1800 E36.15532 ;Adjusted e by 0.00412mm
G1 F1200 X87.416 Y78.7 E36.3503
G1 X86.948 Y78.704 E36.38531
G1 X86.505 Y78.78 E36.4212
G0 F7200 X84.625 Y78.7
G1 F1200 X82.416 Y78.7 E36.58472
G1 X81.949 Y78.716 E36.61881
G1 X81.235 Y78.888 E36.67115
G1 X80.561 Y79.262 E36.72585
G1 X80.014 Y79.812 E36.78089
G1 X79.637 Y80.484 E36.83545
G1 X79.466 Y81.184 E36.88725
G1 X79.451 Y81.475 E36.90855
G1 X79.452 Y98.588 E38.16486
G1 X79.554 Y99.266 E38.21436
G1 X79.865 Y99.972 E38.26922
G1 X80.362 Y100.57 E38.3244
G1 X81.002 Y101.011 E38.37967
G1 X81.704 Y101.246 E38.43277
G1 X82.189 Y101.297 E38.46819
G1 X84.625 Y101.3 E38.6474
G1 F1800 E33.6474
;MESH:Object 11
G0 F7200 X110.2 Y101.15
;TYPE:WALL-INNER
G1 F1800 E38.65215 ;Adjusted e by 0.00475mm
G1 F600 X110.2 Y100.691 E38.70421
G1 X110.2 Y100.628 E38.71135
G0 F7200 X110.43 Y100.813
G1 F600 X110.923 Y101.15 E38.77908
G1 X110.252 Y101.15 E38.80291
G1 X110.2 Y101.15 E38.80605
G1 F1800 E33.80605
G0 F7200 X119.016 Y101.15
G1 F1800 E38.80742 ;Adjusted e by 0.00137mm
G1 F600 X119.308 Y101.021 E38.84363
G1 X119.536 Y100.832 E38.87722
G1 X119.8 Y100.614 E38.91605
G1 X119.8 Y101.021 E38.93035
G1 X119.8 Y101.15 E38.93754
G1 X119.308 Y101.15 E38.96795
G0 F7200 X119.016 Y101.15
G1 F1800 E33.96795
G0 F7200 X119.077 Y78.85
G1 F1800 E38.97204 ;Adjusted e by 0.00409mm
G1 F600 X119.748 Y78.85 E39.04814
G1 X119.8 Y78.85 E39.05404
G1 X119.8 Y79.309 E39.1061
G1 X119.8 Y79.372 E39.11102
G0 F7200 X119.077 Y78.85
G1 F1800 E34.11102
G0 F7200 X110.2 Y79.399
G1 F1800 E39.11241 ;Adjusted e by 0.00139mm
G1 F600 X110.2 Y79.135 E39.14235
G1 X110.2 Y78.85 E39.17467
G1 X110.464 Y78.85 E39.18833
G1 X110.974 Y78.85 E39.24617
G0 F7200 X110.464 Y79.135
G1 F600 X110.2 Y79.399 E39.26233
G0 F7200 X109.46 Y79.29
;TYPE:WALL-OUTER
G1 F1200 X107.423 Y79.29 E39.49336
G1 X107.023 Y79.298 E39.53873
G1 X106.448 Y79.433 E39.60572
G1 X105.914 Y79.731 E39.67508
G1 X105.481 Y80.164 E39.74453
G1 X105.183 Y80.698 E39.81388
G1 X105.049 Y81.265 E39.87996
G1 X105.04 Y81.486 E39.90504
G1 X105.04 Y98.55 E41.84035
G1 X105.118 Y99.106 E41.90402
G1 X105.365 Y99.666 E41.97344
G1 X105.756 Y100.139 E42.04304
G1 X106.262 Y100.485 E42.11256
G1 X106.826 Y100.672 E42.17995
G1 X107.216 Y100.71 E42.22439
G1 X109.46 Y100.71 E42.47889
G1 X109.46 Y99.3 E42.63881
G1 X109.46 Y99.106 E42.66081
G1 X109.46 Y98.55 E42.72387
G1 X109.46 Y81.486 E44.65917
G1 X109.46 Y81.265 E44.68424
G1 X109.46 Y80.683 E44.75025
G1 X109.46 Y79.965 E44.83168
G0 F1020 X109.46 Y79.29
G0 F7200 X109.16 Y79.29
G0 X110.481 Y80.164
G1 E44.83179 ;Adjusted e by 0.00011mm
G1 F1200 X110.183 Y80.698 E44.90114
G1 X110.049 Y81.265 E44.95972
G1 X110.04 Y81.486 E44.97953
G1 X110.04 Y98.55 E46.49639
G1 X110.118 Y99.106 E46.54949
G1 X110.196 Y99.283 E46.57016
G1 X110.365 Y99.666 E46.61763
G1 X110.756 Y100.139 E46.68723
G1 X111.262 Y100.485 E46.75676
G1 X111.826 Y100.672 E46.82415
G1 X112.216 Y100.71 E46.86859
G1 X114.46 Y100.71 E47.12309
G1 X114.46 Y79.29 E49.55243
G1 X112.423 Y79.29 E49.78345
G1 X112.023 Y79.298 E49.82883
G1 X111.448 Y79.433 E49.89581
G1 X110.969 Y79.701 E49.95806
G0 F1020 X110.914 Y79.731
G0 X110.481 Y80.164
G0 F7200 X110.335 Y80.426
G1 F1800 E44.95806
G0 F7200 X115.54 Y79.29
G1 F1800 E49.95873 ;Adjusted e by 0.00067mm
G1 F1200 X115.54 Y100.71 E52.38807
G1 X117.8 Y100.71 E52.64439
G1 X118.356 Y100.632 E52.70806
G1 X118.916 Y100.385 E52.77748
G1 X119.389 Y99.994 E52.84708
G1 X119.735 Y99.488 E52.9166
G1 X119.804 Y99.281 E52.94135
G1 X119.922 Y98.924 E52.98399
G1 X119.96 Y98.534 E53.02843
G1 X119.96 Y81.45 E54.966
G1 X119.882 Y80.894 E55.02968
G1 X119.804 Y80.717 E55.05162
G1 X119.635 Y80.334 E55.09909
G1 X119.244 Y79.861 E55.16869
G1 X118.738 Y79.515 E55.23822
G1 X118.174 Y79.328 E55.30561
G1 X117.784 Y79.29 E55.35005
G1 X116.215 Y79.29 E55.52799
G0 F1020 X115.54 Y79.29
G0 F7200 X115.54 Y79.59
G1 F1800 E50.52799
G0 F7200 X120.54 Y79.29
G1 F1800 E55.5286 ;Adjusted e by 0.00061mm
G1 F1200 X120.54 Y80.7 E55.68852
G1 X120.54 Y80.894 E55.70925
G1 X120.54 Y81.45 E55.76174
G1 X120.54 Y98.534 E57.28038
G1 X120.54 Y98.924 E57.31612
G1 X120.54 Y99.301 E57.35526
G1 X120.54 Y100.71 E57.51506
G1 X122.8 Y100.71 E57.77138
G1 X123.356 Y100.632 E57.83505
G1 X123.916 Y100.385 E57.90447
G1 X124.389 Y99.994 E57.97407
G1 X124.735 Y99.488 E58.04359
G1 X124.922 Y98.924 E58.11098
G1 X124.96 Y98.534 E58.15542
G1 X124.96 Y81.45 E60.09299
G1 X124.882 Y80.894 E60.15667
G1 X124.635 Y80.334 E60.22608
G1 X124.244 Y79.861 E60.29568
G1 X123.738 Y79.515 E60.36521
G1 X123.174 Y79.328 E60.4326
G1 X122.784 Y79.29 E60.47704
G1 X121.215 Y79.29 E60.65498
G0 F1020 X120.54 Y79.29
G0 F7200 X120.54 Y79.59
G0 X122.731 Y78.11
G1 E60.65531 ;Adjusted e by 0.00033mm
G1 F1200 X123.15 Y78.135 E60.70292
G1 X123.523 Y78.2 E60.74586
G1 X123.912 Y78.316 E60.7919
G1 X124.273 Y78.472 E60.8365
G1 X124.613 Y78.669 E60.88107
G1 X124.922 Y78.899 E60.92475
G1 X125.219 Y79.179 E60.97105
G1 X125.47 Y79.479 E61.01541
G1 X125.683 Y79.801 E61.0592
G1 X125.86 Y80.154 E61.10398
G1 X125.996 Y80.53 E61.14933
G1 X126.089 Y80.92 E61.1948
G1 X126.133 Y81.295 E61.23762
G1 X126.14 Y81.5 E61.26089
G1 X126.14 Y98.486 E63.18734
G1 X126.115 Y98.9 E63.23438
G1 X126.05 Y99.273 E63.27732
G1 X125.934 Y99.662 E63.32336
G1 X125.778 Y100.023 E63.36796
G1 X125.581 Y100.363 E63.41253
G1 X125.351 Y100.672 E63.45622
G1 X125.071 Y100.969 E63.50251
G1 X124.771 Y101.22 E63.54687
G1 X124.449 Y101.433 E63.59066
G1 X124.096 Y101.61 E63.63545
G1 X123.72 Y101.746 E63.68079
G1 X123.329 Y101.839 E63.72638
G1 X122.951 Y101.883 E63.76954
G1 X122.732 Y101.89 E63.79439
G1 X107.269 Y101.89 E65.54811
G1 X106.85 Y101.865 E65.59572
G1 X106.477 Y101.8 E65.63866
G1 X106.088 Y101.684 E65.6847
G1 X105.727 Y101.528 E65.7293
G1 X105.387 Y101.331 E65.77387
G1 X105.078 Y101.101 E65.81755
G1 X104.781 Y100.821 E65.86385
G1 X104.53 Y100.521 E65.90821
G1 X104.317 Y100.199 E65.952
G1 X104.14 Y99.846 E65.99678
G1 X104.004 Y99.47 E66.04213
G1 X103.911 Y99.079 E66.08771
G1 X103.867 Y98.702 E66.13076
G1 X103.86 Y98.5 E66.15368
G1 X103.86 Y81.514 E68.08014
G1 X103.885 Y81.1 E68.12718
G1 X103.95 Y80.727 E68.17012
G1 X104.066 Y80.338 E68.21616
G1 X104.222 Y79.977 E68.26076
G1 X104.419 Y79.637 E68.30533
G1 X104.649 Y79.328 E68.34901
G1 X104.929 Y79.031 E68.39531
G1 X105.229 Y78.78 E68.43967
G1 X105.551 Y78.567 E68.48345
G1 X105.904 Y78.39 E68.52824
G1 X106.28 Y78.254 E68.57359
G1 X106.671 Y78.161 E68.61917
G1 X107.049 Y78.117 E68.66233
G1 X107.268 Y78.11 E68.68718
G1 X122.056 Y78.11 E70.36435
G0 F1020 X122.731 Y78.11
G0 F7200 X123.031 Y78.127
G0 X122.719 Y78.7
;TYPE:SKIN
G1 F1200 X123.08 Y78.724 E70.39125
G1 X123.384 Y78.776 E70.41422
G1 X123.711 Y78.878 E70.43994
G1 X124.008 Y78.994 E70.4636
G1 X124.282 Y79.166 E70.48754
G1 X124.545 Y79.354 E70.51172
G1 X124.787 Y79.587 E70.53675
G1 X124.993 Y79.835 E70.56101
G1 X125.171 Y80.093 E70.58435
G1 X125.311 Y80.39 E70.60891
G1 X125.436 Y80.702 E70.63389
G1 X125.501 Y81.023 E70.65819
G1 X125.541 Y81.333 E70.68171
G1 X125.55 Y81.503 E70.69437
G1 X125.55 Y98.479 E71.95103
G1 X125.526 Y98.83 E71.97718
G1 X125.474 Y99.134 E72.00015
G1 X125.372 Y99.461 E72.02588
G1 X125.255 Y99.758 E72.04956
G1 X125.084 Y100.032 E72.07346
G1 X124.896 Y100.294 E72.09758
G1 X124.662 Y100.537 E72.12271
G1 X124.414 Y100.743 E72.14697
G1 X124.157 Y100.921 E72.17026
G1 X123.86 Y101.061 E72.19482
G1 X123.556 Y101.182 E72.21914
G1 X123.218 Y101.253 E72.24476
G1 X122.914 Y101.291 E72.26776
G1 X122.717 Y101.3 E72.28242
G1 X120.375 Y101.3 E72.45579
G1 F1800 E67.45579
G0 F7200 X122.81 Y78.703
G1 F1800 E72.45996 ;Adjusted e by 0.00417mm
G1 F1200 X120.375 Y78.7 E72.6391
G0 F7200 X118.858 Y79.142
G1 F1200 X118.581 Y78.932 E72.65055
G1 X118.303 Y78.722 E72.67394
G1 X117.811 Y78.7 E72.71236
G1 X114.95 Y78.7 E72.92414
G1 X114.975 Y79.152 E72.95419
G1 X115 Y79.605 E72.98089
G1 X115 Y100.395 E74.20444
G1 X114.975 Y100.847 E74.23108
G1 X114.95 Y101.3 E74.26119
G1 X117.838 Y101.3 E74.47498
G1 X118.185 Y101.278 E74.50205
G1 X118.533 Y101.256 E74.53197
G1 X118.456 Y101.218 E74.53884
G0 F7200 X114.932 Y101.282
G1 E74.53915 ;Adjusted e by 0.00031mm
G1 F1200 X111.502 Y101.283 E74.81199
G0 F7200 X111.422 Y100.977
G1 F1200 X111.348 Y100.952 E74.81393
