;FLAVOR:Marlin
;TIME:7013
;Filament used: 9.16852m
;Layer height: 0.3
;MINX:20.2
;MINY:13.45
;MINZ:0.3
;MAXX:179.8
;MAXY:186.55
;MAXZ:1.5
;Generated with Cura_SteamEngine mb-master-20200525
M82 ;absolute extrusion mode
;
; Crashspace Printer Farm MP10 Mini (C. Nicks Start Code + John Gwinner Probe Code)
;______________________________________________
;Sliced at: Mon 22-06-2020 22:16:38
;Layer Height: 0.3
;Line Width: 0.4
;Flow: 108
;Z-Hop: False
;______________________________________________
;
M140 S60 ; set bed temp
M104 S165.0 T0 ; set extruder park temp to warm but not ooze during bed probing ;Adjusted temp by 5
M190 S60 ; wait for bed temp
G28 ; home all axis
;G29 P1; probes mesh
;G29 P3; fill in mesh that can't be reached is good
;G29 S0 ; save mesh
;G29 F 10.0 ;prints linear above this height
;G29 A ; use UBL
M104 S245.0 T0 ; set extruder temp ;Adjusted temp by 5
G92 E0;(Reset the extruder to 0)
G0 X0 Y0 Z2 F1500; (set into park)
M109 S245.0 T0 ; wait for extruder temp ;Adjusted temp by 5
G92 E0
G1 E7 F300; (Unretract from last ending code, plus add some for ooze)
;PRIME
G0 X0 Y0 Z0.2 F1500; (Knock off ooze)
G0 X2 Y0 Z0.4 F1500; (Knock off ooze)
G0 X3 Y0 Z1.0 F1500; (Knock off ooze)
G0 X5 Y0 Z0.3 F1000; (Lower into prime)
G91
G1 X5 Y+20 F1000 E5  ;PRIME
G1 X+0.4 ;PRIME
G1 Y-20 F1000 E5  ;PRIME
G90
; Mini nozzle can't hang over edge to catch ooze
;G0 X0 F1500; (Knock off ooze)
;G0 X0 Z0.2 F1500; (Knock off ooze)
;G0 X2 Z0.4 F1500; (Knock off ooze)
;G0 X3 Z1.0 F1500; (Knock off ooze)
G92 E0
;AND GO!!!!
G92 E0
G92 E0
G1 F2400 E-5
;LAYER_COUNT:5
;LAYER:0
M107
;MESH:PLA_04_72Xstrap_lock_MP10.3mf(23)
G0 F7200 X22.102 Y36.041 Z0.3
;TYPE:WALL-OUTER
G1 F2400 E0
G1 F1200 X21.554 Y35.657 E0.03678
G1 X21.093 Y35.196 E0.07261
G1 X20.709 Y34.648 E0.10938
G1 X20.429 Y34.049 E0.14572
G1 X20.258 Y33.409 E0.18213
G1 X20.2 Y32.75 E0.21849
G1 X20.2 Y17.25 E1.07035
G1 X20.258 Y16.591 E1.10671
G1 X20.429 Y15.951 E1.14312
G1 X20.709 Y15.352 E1.17946
G1 X21.093 Y14.804 E1.21623
G1 X21.554 Y14.343 E1.25206
G1 X22.102 Y13.959 E1.28884
G1 X22.701 Y13.679 E1.32518
G1 X23.341 Y13.508 E1.36159
G1 X24.006 Y13.45 E1.39827
G1 X40.994 Y13.45 E2.33192
G1 X41.659 Y13.508 E2.3686
G1 X42.299 Y13.679 E2.40501
G1 X42.898 Y13.959 E2.44135
G1 X43.446 Y14.343 E2.47813
G1 X43.907 Y14.804 E2.51396
G1 X44.291 Y15.352 E2.55073
G1 X44.571 Y15.951 E2.58707
G1 X44.742 Y16.591 E2.62348
G1 X44.8 Y17.25 E2.65984
G1 X44.8 Y32.75 E3.5117
G1 X44.742 Y33.409 E3.54806
G1 X44.571 Y34.049 E3.58447
G1 X44.291 Y34.648 E3.62081
G1 X43.907 Y35.196 E3.65759
G1 X43.446 Y35.657 E3.69342
G1 X42.898 Y36.041 E3.73019
G1 X42.305 Y36.318 E3.76616
G1 X41.191 Y36.545 E3.82865
G1 X24.006 Y36.55 E4.77312
G1 X23.341 Y36.492 E4.8098
G1 X22.701 Y36.321 E4.84621
G1 X22.102 Y36.041 E4.88255
G0 F7200 X21.939 Y35.927
G0 X22.192 Y35.568
G1 F2400 E-0.11745
G0 F7200 X22.285 Y35.438
G0 X22.199 Y19.05
G1 F2400 E4.88255
G1 F1200 X22.399 Y19.05 E4.89354
G1 X42.8 Y19.05 E6.01476
G1 X42.8 Y17.223 E6.11517
G1 X42.684 Y16.598 E6.15011
G1 X42.334 Y16.033 E6.18664
G1 X41.805 Y15.634 E6.22305
G1 X41.18 Y15.456 E6.25877
G1 X23.973 Y15.45 E7.20445
G1 X23.348 Y15.566 E7.23938
G1 X22.783 Y15.916 E7.27591
G1 X22.384 Y16.445 E7.31233
G1 X22.206 Y17.07 E7.34804
G1 X22.199 Y18.85 E7.44587
G0 F7200 X22.199 Y19.05
G0 X22.399 Y19.05
G0 X21.998 Y19.45
;TYPE:WALL-INNER
G1 F1200 X43.2 Y19.45 E8.61111
G1 X43.2 Y17.186 E8.73554
G1 X43.064 Y16.451 E8.77662
G1 X42.635 Y15.759 E8.82137
G1 X41.986 Y15.27 E8.86603
G1 X41.236 Y15.056 E8.90889
G1 X23.936 Y15.05 E9.85968
G1 X23.201 Y15.186 E9.90076
G1 X22.509 Y15.615 E9.94551
G1 X22.02 Y16.264 E9.99017
G1 X21.806 Y17.013 E10.03298
G1 X21.798 Y19.25 E10.15593
G1 X21.798 Y19.45 E10.16692
G0 F7200 X21.998 Y19.45
G1 F2400 E5.16692
G0 F7200 X21.715 Y19.532
G0 X22.199 Y24.05
;TYPE:WALL-OUTER
G1 F2400 E10.16692
G1 F1200 X22.399 Y24.05 E10.17791
G1 X42.8 Y24.05 E11.29913
G1 X42.8 Y22.223 E11.39954
G1 X42.684 Y21.598 E11.43447
G1 X42.334 Y21.033 E11.471
G1 X41.805 Y20.634 E11.50742
G1 X41.18 Y20.456 E11.54313
G1 X23.973 Y20.45 E12.48881
G1 X23.348 Y20.566 E12.52375
G1 X22.783 Y20.916 E12.56028
G1 X22.384 Y21.445 E12.59669
G1 X22.206 Y22.07 E12.63241
G1 X22.199 Y23.85 E12.73024
G0 F7200 X22.199 Y24.05
G0 X22.399 Y24.05
G0 X21.998 Y24.45
;TYPE:WALL-INNER
G1 F1200 X43.2 Y24.45 E13.89548
G1 X43.2 Y22.186 E14.0199
G1 X43.064 Y21.451 E14.06099
G1 X42.635 Y20.759 E14.10573
G1 X41.986 Y20.27 E14.15039
G1 X41.236 Y20.056 E14.19326
G1 X23.936 Y20.05 E15.14405
G1 X23.201 Y20.186 E15.18513
G1 X22.509 Y20.615 E15.22988
G1 X22.02 Y21.264 E15.27454
G1 X21.806 Y22.013 E15.31735
G1 X21.798 Y24.25 E15.44029
G1 X21.798 Y24.45 E15.45128
G0 F7200 X21.998 Y24.45
G0 X21.597 Y24.85
G1 F1200 X43.6 Y24.85 E16.66055
G1 X43.6 Y22.149 E16.80899
G1 X43.444 Y21.304 E16.85622
G1 X42.936 Y20.485 E16.90918
G1 X42.576 Y20.214 E16.93395
G1 X42.167 Y19.906 E16.96209
G1 X41.971 Y19.85 E16.97329
G0 F7200 X42.167 Y19.85
G1 F1200 X42.679 Y19.85 E16.98775
G1 X43.6 Y19.85 E17.03836
G1 X43.6 Y17.149 E17.18681
G1 X43.46 Y16.393 E17.22906
G1 X43.444 Y16.304 E17.23403
G1 X43.313 Y16.092 E17.24773
G1 X42.936 Y15.485 E17.287
G1 X42.167 Y14.906 E17.33991
G1 X41.292 Y14.656 E17.38992
G1 X41.031 Y14.656 E17.40426
G1 X23.899 Y14.65 E18.34582
G1 X23.143 Y14.79 E18.38808
G1 X23.054 Y14.806 E18.39305
G1 X22.844 Y14.936 E18.40662
G1 X22.235 Y15.314 E18.44601
G1 X21.656 Y16.083 E18.49892
G1 X21.406 Y16.956 E18.54883
G1 X21.397 Y19.65 E18.69689
G1 X21.397 Y19.85 E18.70788
G0 F7200 X21.597 Y19.85
G1 F1200 X22.283 Y19.85 E18.74558
G1 X22.983 Y19.85 E18.78405
G1 X22.388 Y20.219 E18.80184
G1 X22.235 Y20.314 E18.81174
G1 X21.656 Y21.083 E18.86465
G1 X21.406 Y21.956 E18.91455
G1 X21.397 Y24.65 E19.06261
G1 X21.397 Y24.85 E19.07361
G0 F7200 X21.597 Y24.85
G1 F2400 E14.07361
G0 F7200 X22.2 Y25.95
;TYPE:WALL-OUTER
G1 F2400 E19.07361
G1 F1200 X22.2 Y27.63 E19.16594
G1 X22.264 Y28.245 E19.19992
G1 X22.56 Y28.838 E19.23634
G1 X23.049 Y29.285 E19.27276
G1 X23.668 Y29.524 E19.30922
G1 X41.027 Y29.55 E20.26326
G1 X41.652 Y29.434 E20.29819
G1 X42.217 Y29.084 E20.33472
G1 X42.616 Y28.555 E20.37114
G1 X42.794 Y27.93 E20.40685
G1 X42.801 Y26.15 E20.50468
G1 X42.801 Y25.95 E20.51567
G0 F7200 X42.601 Y25.95
G1 F1200 X22.2 Y25.95 E21.63689
G0 F7200 X22.2 Y26.15
G0 X21.8 Y25.55
;TYPE:WALL-INNER
G1 F1200 X21.8 Y27.651 E21.75236
G1 X21.874 Y28.359 E21.79148
G1 X22.235 Y29.083 E21.83595
G1 X22.835 Y29.631 E21.88061
G1 X23.593 Y29.924 E21.92527
G1 X41.064 Y29.95 E22.88546
G1 X41.799 Y29.814 E22.92654
G1 X42.491 Y29.385 E22.97129
G1 X42.98 Y28.736 E23.01595
G1 X43.194 Y27.987 E23.05876
G1 X43.202 Y25.75 E23.1817
G1 X43.202 Y25.55 E23.19269
G0 F7200 X43.002 Y25.55
G1 F1200 X21.8 Y25.55 E24.35794
G1 F2400 E19.35794
G0 F7200 X21.718 Y25.468
G0 X22.2 Y30.95
;TYPE:WALL-OUTER
G1 F2400 E24.35794
G1 F1200 X22.2 Y32.63 E24.45027
G1 X22.264 Y33.245 E24.48425
G1 X22.56 Y33.838 E24.52067
G1 X23.049 Y34.285 E24.55709
G1 X23.668 Y34.524 E24.59355
G1 X41.027 Y34.55 E25.54759
G1 X41.652 Y34.434 E25.58252
G1 X42.217 Y34.084 E25.61905
G1 X42.616 Y33.555 E25.65547
G1 X42.794 Y32.93 E25.69118
G1 X42.801 Y31.15 E25.78901
G1 X42.801 Y30.95 E25.8
G0 F7200 X42.601 Y30.95
G1 F1200 X22.2 Y30.95 E26.92122
G0 F7200 X22.2 Y31.15
G0 X21.8 Y30.55
;TYPE:WALL-INNER
G1 F1200 X21.8 Y32.651 E27.03669
G1 X21.874 Y33.359 E27.07581
G1 X22.235 Y34.083 E27.12028
G1 X22.835 Y34.631 E27.16494
G1 X23.593 Y34.924 E27.2096
G1 X41.064 Y34.95 E28.16979
G1 X41.799 Y34.814 E28.21087
G1 X42.491 Y34.385 E28.25562
G1 X42.98 Y33.736 E28.30028
G1 X43.194 Y32.987 E28.34309
G1 X43.202 Y30.75 E28.46603
G1 X43.202 Y30.55 E28.47702
G0 F7200 X43.002 Y30.55
G1 F1200 X21.8 Y30.55 E29.64227
G0 F7200 X22.33 Y30.15
G1 F1200 X21.4 Y30.15 E29.69338
G1 X21.4 Y32.672 E29.83198
G1 X21.464 Y33.278 E29.86547
G1 X21.484 Y33.473 E29.87625
G1 X21.91 Y34.328 E29.92875
G1 X22.02 Y34.428 E29.93692
G1 X22.449 Y34.82 E29.96886
G1 X22.621 Y34.977 E29.98165
G1 X22.73 Y35.019 E29.98807
G1 X23.307 Y35.243 E30.02209
G1 X23.518 Y35.324 E30.03451
G1 X23.577 Y35.324 E30.03776
G1 X41.1 Y35.35 E31.0008
G1 X41.946 Y35.194 E31.04808
G1 X42.147 Y35.069 E31.06109
G1 X42.765 Y34.686 E31.10105
G1 X43.344 Y33.917 E31.15395
G1 X43.594 Y33.044 E31.20386
G1 X43.603 Y30.35 E31.35192
G1 X43.603 Y30.15 E31.36291
G0 F7200 X43.403 Y30.15
G1 F1200 X42.717 Y30.15 E31.40062
G1 X42.017 Y30.15 E31.43909
G1 X42.612 Y29.781 E31.45688
G1 X42.765 Y29.686 E31.46678
G1 X43.344 Y28.917 E31.51968
G1 X43.594 Y28.044 E31.56959
G1 X43.603 Y25.35 E31.71765
G1 X43.603 Y25.15 E31.72864
G0 F7200 X43.403 Y25.15
G1 F1200 X21.4 Y25.15 E32.93791
G1 X21.4 Y27.672 E33.07651
G1 X21.484 Y28.473 E33.12078
G1 X21.91 Y29.328 E33.17328
G1 X22.406 Y29.781 E33.21019
G1 X22.621 Y29.977 E33.22618
G1 X23.068 Y30.15 E33.25253
G0 F7200 X22.33 Y30.15
G1 F2400 E28.25253
G0 F7200 X22.308 Y35.697
G1 F2400 E33.25253
G1 F1200 X21.811 Y35.348 E33.2859
G1 X21.402 Y34.939 E33.31769
G1 X21.053 Y34.442 E33.35107
G1 X20.806 Y33.912 E33.3832
G1 X20.653 Y33.34 E33.41575
G1 X20.6 Y32.738 E33.44896
G1 X20.6 Y17.262 E34.2995
G1 X20.653 Y16.66 E34.33272
G1 X20.806 Y16.088 E34.36526
G1 X21.053 Y15.558 E34.3974
G1 X21.402 Y15.061 E34.43077
G1 X21.811 Y14.652 E34.46256
G1 X22.308 Y14.303 E34.49594
G1 X22.838 Y14.056 E34.52807
G1 X23.41 Y13.903 E34.56062
G1 X24.018 Y13.85 E34.59416
G1 X40.982 Y13.85 E35.52648
G1 X41.59 Y13.903 E35.56002
G1 X42.162 Y14.056 E35.59257
G1 X42.692 Y14.303 E35.6247
G1 X43.189 Y14.652 E35.65808
G1 X43.598 Y15.061 E35.68987
G1 X43.947 Y15.558 E35.72324
G1 X44.194 Y16.088 E35.75538
G1 X44.347 Y16.66 E35.78792
G1 X44.4 Y17.262 E35.82114
G1 X44.4 Y32.738 E36.67168
G1 X44.347 Y33.34 E36.7049
G1 X44.194 Y33.912 E36.73744
G1 X43.947 Y34.442 E36.76957
G1 X43.598 Y34.939 E36.80295
G1 X43.189 Y35.348 E36.83474
G1 X42.692 Y35.696 E36.86808
G1 X42.181 Y35.935 E36.89909
G1 X41.15 Y36.145 E36.95691
G1 X24.018 Y36.15 E37.89847
G1 X23.41 Y36.097 E37.93201
G1 X22.838 Y35.944 E37.96456
G1 X22.308 Y35.697 E37.99669
G0 F7200 X22.506 Y35.347
G1 F1200 X22.41 Y35.28 E38.00288
G1 X22.219 Y35.146 E38.01524
G1 X22.071 Y35.042 E38.02518
G1 X21.708 Y34.679 E38.05339
G1 X21.695 Y34.661 E38.05461
G1 X21.61 Y34.539 E38.06239
G1 X21.403 Y34.244 E38.08219
G1 X21.182 Y33.77 E38.11093
G1 X21.128 Y33.569 E38.12237
G1 X21.078 Y33.38 E38.13265
G1 X21.048 Y33.271 E38.13886
G1 X21 Y32.726 E38.16893
G1 X21 Y17.274 E39.01816
G1 X21.03 Y16.923 E39.03752
G1 X21.048 Y16.729 E39.04822
G1 X21.182 Y16.23 E39.07662
G1 X21.322 Y15.928 E39.09491
G1 X21.403 Y15.756 E39.10536
G1 X21.708 Y15.321 E39.13456
G1 X21.975 Y15.054 E39.15531
G1 X22.071 Y14.958 E39.16278
G1 X22.507 Y14.652 E39.19205
G1 X22.672 Y14.575 E39.20206
G1 X22.897 Y14.471 E39.2152
G1 X22.98 Y14.432 E39.22003
G1 X23.479 Y14.298 E39.24843
G1 X24.03 Y14.25 E39.27883
G1 X40.97 Y14.25 E40.20983
G1 X41.064 Y14.258 E40.21502
G1 X41.324 Y14.28 E40.22896
G1 X41.521 Y14.298 E40.23983
G1 X42.02 Y14.432 E40.26823
G1 X42.322 Y14.572 E40.28652
G1 X42.493 Y14.652 E40.2969
G1 X42.929 Y14.958 E40.32617
G1 X43.196 Y15.225 E40.34693
G1 X43.292 Y15.321 E40.35439
G1 X43.597 Y15.756 E40.38359
G1 X43.674 Y15.921 E40.39359
G1 X43.779 Y16.147 E40.40676
G1 X43.818 Y16.23 E40.41158
G1 X43.952 Y16.729 E40.43998
G1 X44 Y17.274 E40.47005
G1 X44 Y32.726 E41.31928
G1 X43.97 Y33.077 E41.33864
G1 X43.952 Y33.271 E41.34935
G1 X43.818 Y33.77 E41.37774
G1 X43.678 Y34.072 E41.39604
G1 X43.597 Y34.244 E41.40648
G1 X43.292 Y34.679 E41.43568
G1 X43.025 Y34.946 E41.45644
G1 X42.93 Y35.041 E41.46382
G1 X42.489 Y35.35 E41.49341
G1 X42.318 Y35.43 E41.50379
G1 X42.104 Y35.53 E41.5163
G1 X42.057 Y35.552 E41.51915
G1 X41.214 Y35.723 E41.56428
G1 X41.109 Y35.745 E41.57018
G1 X24.03 Y35.75 E42.50882
G1 X23.479 Y35.702 E42.53922
G1 X23.421 Y35.687 E42.54234
G1 X23.202 Y35.628 E42.55443
G1 X22.98 Y35.568 E42.56707
G1 X22.506 Y35.347 E42.59581
G1 F2400 E37.59581
G0 F7200 X21.779 Y29.75
G1 F2400 E42.59581
G1 F600 X21.585 Y29.75 E42.60647
G1 X21.4 Y29.75 E42.61664
G1 X21.4 Y29.573 E42.62637
G1 X21.4 Y29.201 E42.64681
G0 F7200 X21.779 Y29.75
G1 F2400 E37.64681
G0 F7200 X21.4 Y20.758
G1 F2400 E42.64681
G1 F600 X21.4 Y20.25 E42.67473
G1 X21.782 Y20.25 E42.69573
G0 F7200 X21.4 Y20.758
G1 F2400 E37.69573
G0 F7200 X43.6 Y20.797
G1 F2400 E42.69573
G1 F600 X43.355 Y20.403 E42.72123
G1 X43.26 Y20.25 E42.73112
G1 X43.6 Y20.25 E42.74181
G1 X43.6 Y20.797 E42.75424
G1 F2400 E37.75424
G0 F7200 X43.218 Y29.75
G1 F2400 E42.75424
G1 F600 X43.355 Y29.567 E42.76681
G1 X43.6 Y29.242 E42.78917
G1 X43.6 Y29.75 E42.80159
G1 X43.218 Y29.75 E42.81293
G1 F2400 E37.81293
G0 F7200 X41.754 Y30.177
;TYPE:SKIN
G1 F2400 E42.81293
G1 F1200 X41.824 Y30.02 E42.81822
G0 F7200 X41.748 Y30.047
G1 F1200 X41.699 Y30.213 E42.82369
G1 X23.36 Y30.232 E43.58969
G1 F2400 E38.58969
G0 F7200 X23.245 Y19.822
G1 F2400 E43.58969
G1 F1200 X23.175 Y19.98 E43.59501
G0 F7200 X23.251 Y19.953
G1 F1200 X23.301 Y19.787 E43.60049
G1 X41.658 Y19.783 E44.40759
G1 F2400 E39.40759
;MESH:PLA_04_72Xstrap_lock_MP10.3mf(19)
G0 F7200 X22.102 Y61.041
;TYPE:WALL-OUTER
G1 F2400 E44.40759
G1 F1200 X21.554 Y60.657 E44.44437
G1 X21.093 Y60.196 E44.4802
G1 X20.709 Y59.648 E44.51698
G1 X20.429 Y59.049 E44.55332
G1 X20.258 Y58.409 E44.58972
G1 X20.2 Y57.75 E44.62608
G1 X20.2 Y42.25 E45.47795
G1 X20.258 Y41.591 E45.51431
G1 X20.429 Y40.951 E45.55071
G1 X20.709 Y40.352 E45.58705
G1 X21.093 Y39.804 E45.62383
G1 X21.554 Y39.343 E45.65966
G1 X22.102 Y38.959 E45.69643
G1 X22.701 Y38.679 E45.73277
G1 X23.341 Y38.508 E45.76918
G1 X24.006 Y38.45 E45.80587
G1 X40.994 Y38.45 E46.73951
G1 X41.659 Y38.508 E46.7762
G1 X42.299 Y38.679 E46.81261
G1 X42.898 Y38.959 E46.84895
G1 X43.446 Y39.343 E46.88572
G1 X43.907 Y39.804 E46.92155
G1 X44.291 Y40.352 E46.95833
G1 X44.571 Y40.951 E46.99467
G1 X44.742 Y41.591 E47.03108
G1 X44.8 Y42.25 E47.06743
G1 X44.8 Y57.75 E47.9193
G1 X44.742 Y58.409 E47.95566
G1 X44.571 Y59.049 E47.99206
G1 X44.291 Y59.648 E48.0284
G1 X43.907 Y60.196 E48.06518
G1 X43.446 Y60.657 E48.10101
G1 X42.898 Y61.041 E48.13779
G1 X42.305 Y61.318 E48.17376
G1 X41.191 Y61.545 E48.23624
G1 X24.006 Y61.55 E49.18071
G1 X23.341 Y61.492 E49.2174
G1 X22.701 Y61.321 E49.25381
G1 X22.102 Y61.041 E49.29015
G0 F7200 X21.939 Y60.927
G0 X22.192 Y60.568
G1 F2400 E44.29015
G0 F7200 X22.285 Y60.438
G0 X22.199 Y44.05
G1 F2400 E49.29015
G1 F1200 X22.399 Y44.05 E49.30114
G1 X42.8 Y44.05 E50.42236
G1 X42.8 Y42.223 E50.52277
G1 X42.684 Y41.598 E50.5577
G1 X42.334 Y41.033 E50.59423
G1 X41.805 Y40.634 E50.63065
G1 X41.18 Y40.456 E50.66636
G1 X23.973 Y40.45 E51.61204
G1 X23.348 Y40.566 E51.64698
G1 X22.783 Y40.916 E51.6835
G1 X22.384 Y41.445 E51.71992
G1 X22.206 Y42.07 E51.75564
G1 X22.199 Y43.85 E51.85346
G0 F7200 X22.199 Y44.05
G0 X22.399 Y44.05
G0 X21.998 Y44.45
;TYPE:WALL-INNER
G1 F1200 X43.2 Y44.45 E53.01871
G1 X43.2 Y42.186 E53.14313
G1 X43.064 Y41.451 E53.18421
G1 X42.635 Y40.759 E53.22896
G1 X41.986 Y40.27 E53.27362
G1 X41.236 Y40.056 E53.31648
G1 X23.936 Y40.05 E54.26728
G1 X23.201 Y40.186 E54.30836
G1 X22.509 Y40.615 E54.3531
G1 X22.02 Y41.264 E54.39776
G1 X21.806 Y42.013 E54.44058
G1 X21.798 Y44.25 E54.56352
G1 X21.798 Y44.45 E54.57451
G0 F7200 X21.998 Y44.45
G1 F2400 E49.57451
G0 F7200 X21.715 Y44.532
G0 X22.199 Y49.05
;TYPE:WALL-OUTER
G1 F2400 E54.57451
G1 F1200 X22.399 Y49.05 E54.5855
G1 X42.8 Y49.05 E55.70672
G1 X42.8 Y47.223 E55.80713
G1 X42.684 Y46.598 E55.84207
G1 X42.334 Y46.033 E55.8786
G1 X41.805 Y45.634 E55.91501
G1 X41.18 Y45.456 E55.95073
G1 X23.973 Y45.45 E56.89641
G1 X23.348 Y45.566 E56.93134
G1 X22.783 Y45.916 E56.96787
G1 X22.384 Y46.445 E57.00429
G1 X22.206 Y47.07 E57.04
G1 X22.199 Y48.85 E57.13783
G0 F7200 X22.199 Y49.05
G0 X22.399 Y49.05
G0 X21.998 Y49.45
;TYPE:WALL-INNER
G1 F1200 X43.2 Y49.45 E58.30307
G1 X43.2 Y47.186 E58.4275
G1 X43.064 Y46.451 E58.46858
G1 X42.635 Y45.759 E58.51333
G1 X41.986 Y45.27 E58.55799
G1 X41.236 Y45.056 E58.60085
G1 X23.936 Y45.05 E59.55164
G1 X23.201 Y45.186 E59.59272
G1 X22.509 Y45.615 E59.63747
G1 X22.02 Y46.264 E59.68213
G1 X21.806 Y47.013 E59.72494
G1 X21.798 Y49.25 E59.84789
G1 X21.798 Y49.45 E59.85888
G0 F7200 X21.998 Y49.45
G0 X21.597 Y49.85
