;FLAVOR:Marlin
;TIME:4663
;Filament used: 10.5446m
;Layer height: 0.32
;MINX:29.706
;MINY:6.831
;MINZ:0.32
;MAXX:170.278
;MAXY:193.169
;MAXZ:16.96
;EOFFSETPROCESSED
;Generated with Cura_SteamEngine mb-master-20200328
M82 ;absolute extrusion mode
; START
; Crashspace Printer Farm MP10 Mini (C. Nicks Start Code + John Gwinner Probe Code)
M140 S45 ; set bed temp
M104 S160 T0 ; set extruder park temp to warm but not ooze during bed probing
G28 ; home all axis
M190 S55 ; wait for bed temp
G29 P1; probes mesh
G29 P3; fill in mesh that can't be reached is good
G29 S0 ; save mesh
G29 F 10.0 ;prints linear above this height
G29 A ; use UBL
M104 S240 T0 ; set extruder temp
G92 E0;(Reset the extruder to 0)
G0 X0 Y190 Z2 F1500; (set into park)
M109 S240 T0 ; wait for extruder temp
;PRIME
G0 Z0.5 F1500; (Lower into park)
G92 E0
G1 E5 F300; (Unretract)
G92 E0;
;G1 E10 F100; (prime in place) Not good on mini
G0 X5 Y190 Z1 F1000; (Knock off prime)
; AND GO!!!
G92 E0
G92 E0
G1 F1800 E-5
;LAYER_COUNT:53
;LAYER:0
M107
G1 F600 Z1.32
;MESH:Object 2
G0 F7200 X30.99 Y27.34 Z1.32
;TYPE:WALL-INNER
G1 F600 Z0.32
G1 F1800 E0.0
G1 F600 X31.078 Y27.34 E0.00657
G1 X30.99 Y27.471 E0.01224
G0 F7200 X30.99 Y27.34
G1 F1800 E-4.98776
G0 F7200 X30.99 Y36.528
G1 F1800 E0.01465 ;Adjusted e by 0.00241mm
G1 F600 X31.051 Y36.616 E0.02265
G1 X31.082 Y36.66 E0.02667
G0 F7200 X30.99 Y36.528
G1 F1800 E-4.97333
G0 F7200 X53.01 Y36.529
G1 F1800 E0.03339 ;Adjusted e by 0.00672mm
G1 F600 X53.01 Y36.66 E0.04318
G1 X52.922 Y36.66 E0.04975
G0 F7200 X53.01 Y36.529
G1 F1800 E-4.95025
G0 F7200 X52.913 Y27.34
G1 F1800 E0.05216 ;Adjusted e by 0.00241mm
G1 F600 X53.01 Y27.34 E0.05941
G1 X53.01 Y27.433 E0.06636
G0 F840 X53.01 Y27.455
G0 F7200 X52.913 Y27.34
G1 F1800 E-4.93364
G0 F7200 X31.719 Y26.84
G1 F1800 E0.0728 ;Adjusted e by 0.00644mm
G1 F1200 X32.111 Y26.84 E0.10209
G1 X32.488 Y26.84 E0.13026
G0 F840 X32.578 Y26.84
G1 F1800 E-4.86974
G0 F7200 X31.563 Y27.515
G1 F1800 E0.13026
G1 F1200 X31.162 Y28.111 E0.18393
G1 X30.987 Y28.646 E0.22599
G1 X30.948 Y28.767 E0.23548
G1 X30.91 Y29.202 E0.26811
G1 X30.91 Y31.84 E0.46521
G1 X53.09 Y31.84 E2.1224
G1 X53.09 Y29.172 E2.32174
G1 X53.012 Y28.626 E2.36295
G1 X52.996 Y28.518 E2.37111
G1 X52.698 Y27.861 E2.42501
G1 X52.253 Y27.334 E2.47654
G1 X52.235 Y27.313 E2.47861
G1 X52.068 Y27.201 E2.49363
G0 F840 X51.639 Y26.912
G0 X51.418 Y26.84
G0 F7200 X51.639 Y26.84
G1 F1200 X52.235 Y26.84 E2.51438
G1 X52.263 Y26.84 E2.51641
G1 X53.09 Y26.84 E2.5782
G1 X53.09 Y24.292 E2.76858
G1 X53.09 Y24.172 E2.77754
G1 X53.036 Y23.794 E2.80607
G1 X52.996 Y23.518 E2.82691
G1 X52.938 Y23.389 E2.83748
G1 X52.729 Y22.929 E2.87523
G1 X52.698 Y22.861 E2.88081
G1 X52.476 Y22.599 E2.90647
G1 X52.235 Y22.313 E2.93441
G1 X51.759 Y21.993 E2.97727
G1 X51.639 Y21.912 E2.98808
G1 X51.404 Y21.836 E3.00654
G1 X50.983 Y21.698 E3.03964
G1 X50.548 Y21.66 E3.07226
G1 X50.458 Y21.66 E3.07899
G1 X33.542 Y21.66 E4.34288
G1 X33.422 Y21.66 E4.35184
G1 X33.044 Y21.714 E4.38037
G1 X32.768 Y21.754 E4.40121
G1 X32.639 Y21.812 E4.41178
G1 X32.179 Y22.021 E4.44953
G1 X32.111 Y22.052 E4.45511
G1 X31.849 Y22.274 E4.48077
G1 X31.563 Y22.515 E4.50871
G1 X31.243 Y22.991 E4.55157
G1 X31.162 Y23.111 E4.56238
G1 X31.086 Y23.346 E4.58084
G1 X30.948 Y23.767 E4.61394
G1 X30.91 Y24.202 E4.64656
G1 X30.91 Y24.292 E4.65329
G1 X30.91 Y26.84 E4.84366
G1 X30.969 Y26.84 E4.84807
G0 F840 X31.719 Y26.84
G0 F7200 X31.41 Y26.34
;TYPE:WALL-OUTER
G1 F1200 X52.59 Y26.34 E6.43055
G1 X52.59 Y24.208 E6.58984
G1 X52.511 Y23.66 E6.63121
G1 X52.271 Y23.131 E6.67461
G1 X51.898 Y22.689 E6.71782
G1 X51.418 Y22.366 E6.76105
G1 X50.882 Y22.191 E6.80318
G1 X50.526 Y22.16 E6.82988
G1 X33.458 Y22.16 E8.10512
G1 X32.91 Y22.239 E8.14649
G1 X32.381 Y22.479 E8.18989
G1 X31.939 Y22.852 E8.2331
G1 X31.616 Y23.332 E8.27633
G1 X31.441 Y23.868 E8.31846
G1 X31.41 Y24.224 E8.34516
G1 X31.41 Y25.59 E8.44722
G0 F840 X31.41 Y26.34
G0 F7200 X31.61 Y26.34
G0 X31.61 Y26.89
G1 F1800 E3.44722
G0 F7200 X31.41 Y31.34
G1 F1800 E8.44804 ;Adjusted e by 0.00082mm
G1 F1200 X52.59 Y31.34 E10.03052
G1 X52.59 Y29.208 E10.18981
G1 X52.511 Y28.66 E10.23118
G1 X52.271 Y28.131 E10.27458
G1 X51.898 Y27.689 E10.31779
G1 X51.418 Y27.366 E10.36102
G1 X50.882 Y27.191 E10.40315
G1 X50.526 Y27.16 E10.42985
G1 X33.458 Y27.16 E11.70509
G1 X32.91 Y27.239 E11.74646
G1 X32.381 Y27.479 E11.78986
G1 X31.939 Y27.852 E11.83307
G1 X31.616 Y28.332 E11.8763
G1 X31.441 Y28.868 E11.91843
G1 X31.41 Y29.224 E11.94513
G1 X31.41 Y30.59 E12.04719
G0 F840 X31.41 Y31.34
G0 F7200 X31.61 Y31.34
G0 X31.61 Y31.89
G0 X30.91 Y32.16
;TYPE:WALL-INNER
G1 E12.04727 ;Adjusted e by 8e-05mm
G1 F1200 X30.91 Y34.642 E12.23271
G1 X30.952 Y35.256 E12.2787
G1 X30.987 Y35.361 E12.28697
G1 X31.182 Y35.93 E12.33191
G1 X31.594 Y36.52 E12.38567
G1 X31.811 Y36.696 E12.40655
G1 X32.033 Y36.876 E12.4279
G0 F840 X32.152 Y36.972
G0 X32.587 Y37.16
G0 F7200 X31.713 Y37.16
G1 F1200 X30.91 Y37.16 E12.4879
G1 X30.91 Y39.642 E12.67334
G1 X30.952 Y40.256 E12.71932
G1 X31.085 Y40.646 E12.75011
G1 X31.182 Y40.93 E12.77253
G1 X31.234 Y41.005 E12.77935
G1 X31.538 Y41.44 E12.819
G1 X31.594 Y41.52 E12.8263
G1 X31.841 Y41.72 E12.85005
G1 X32.152 Y41.972 E12.87995
G1 X32.633 Y42.179 E12.91908
G1 X32.807 Y42.255 E12.93327
G1 X33.04 Y42.287 E12.95084
G1 X33.426 Y42.34 E12.97995
G1 X33.542 Y42.34 E12.98862
G1 X50.578 Y42.34 E14.26147
G1 X50.943 Y42.288 E14.28902
G1 X51.232 Y42.246 E14.31084
G1 X51.358 Y42.189 E14.32117
G1 X51.823 Y41.978 E14.35932
G1 X51.889 Y41.948 E14.36474
G1 X52.151 Y41.726 E14.3904
G1 X52.437 Y41.485 E14.41834
G1 X52.757 Y41.009 E14.46119
G1 X52.838 Y40.889 E14.47201
G1 X52.914 Y40.654 E14.49046
G1 X53.052 Y40.233 E14.52357
G1 X53.09 Y39.798 E14.55619
G1 X53.09 Y39.708 E14.56292
G1 X53.09 Y37.16 E14.75329
G1 X52.281 Y37.16 E14.81374
G1 X52.172 Y37.16 E14.82188
G0 F840 X51.889 Y37.16
G0 X51.422 Y37.16
G1 F1800 E9.82188
G0 F7200 X52.437 Y36.485
G1 F1800 E14.82188
G1 F1200 X52.838 Y35.889 E14.87555
G1 X53.013 Y35.354 E14.91761
G1 X53.052 Y35.233 E14.92711
G1 X53.09 Y34.798 E14.95973
G1 X53.09 Y32.16 E15.15683
G1 X30.91 Y32.16 E16.21956
G0 F7200 X31.41 Y32.66
;TYPE:WALL-OUTER
G1 F1200 X31.41 Y34.625 E16.36638
G1 X31.446 Y35.157 E16.40621
G1 X31.632 Y35.701 E16.44917
G1 X31.964 Y36.176 E16.49247
G1 X32.413 Y36.54 E16.53566
G1 X32.943 Y36.769 E16.57879
G1 X33.46 Y36.84 E16.61778
G1 X50.542 Y36.84 E17.89408
G1 X51.09 Y36.761 E17.93544
G1 X51.619 Y36.521 E17.97885
G1 X52.061 Y36.148 E18.02206
G1 X52.384 Y35.668 E18.06528
G1 X52.559 Y35.132 E18.10741
G1 X52.59 Y34.776 E18.13411
G1 X52.59 Y32.66 E18.29221
G1 X32.16 Y32.66 E19.81865
G0 F840 X31.41 Y32.66
G0 F7200 X31.41 Y32.86
G0 X30.86 Y32.86
G1 F1800 E14.81865
G0 F7200 X31.41 Y37.66
G1 F1800 E19.8196 ;Adjusted e by 0.00095mm
G1 F1200 X31.41 Y39.625 E19.96641
G1 X31.446 Y40.157 E20.00625
G1 X31.632 Y40.701 E20.04921
G1 X31.964 Y41.176 E20.09251
G1 X32.413 Y41.54 E20.1357
G1 X32.943 Y41.769 E20.17883
G1 X33.46 Y41.84 E20.21782
G1 X50.542 Y41.84 E21.49412
G1 X51.09 Y41.761 E21.53548
G1 X51.619 Y41.521 E21.57888
G1 X52.061 Y41.148 E21.6221
G1 X52.384 Y40.668 E21.66532
G1 X52.559 Y40.132 E21.70745
G1 X52.59 Y39.776 E21.73415
G1 X52.59 Y37.66 E21.89225
G1 X32.16 Y37.66 E23.41869
G0 F840 X31.41 Y37.66
G0 F7200 X31.41 Y37.86
G0 X30.86 Y37.86
G1 F1800 E18.41869
G0 F7200 X32.006 Y42.358
;TYPE:WALL-INNER
G1 F1800 E23.41958 ;Adjusted e by 0.00089mm
G1 F1200 X31.923 Y42.3 E23.42714
G1 X31.571 Y42.054 E23.45416
G1 X31.316 Y41.799 E23.4769
G1 X31.196 Y41.679 E23.48817
G1 X30.892 Y41.244 E23.52134
G1 X30.824 Y41.098 E23.53207
G1 X30.678 Y40.786 E23.55387
G1 X30.564 Y40.361 E23.58159
G1 X30.539 Y40.268 E23.58879
G1 X30.49 Y39.708 E23.62397
G1 X30.49 Y39.642 E23.6289
G1 X30.49 Y37.16 E23.78499
G1 X30.49 Y35.367 E23.91895
G1 X30.49 Y35.256 E23.92693
G1 X30.49 Y34.642 E23.96742
G1 X30.49 Y32.16 E24.12351
G1 X30.49 Y31.84 E24.14742
G1 X30.49 Y29.202 E24.31331
G1 X30.49 Y28.767 E24.34187
G1 X30.49 Y28.639 E24.35103
G1 X30.49 Y26.84 E24.48544
G1 X30.49 Y24.292 E24.64568
G1 X30.501 Y24.167 E24.65392
G1 X30.539 Y23.732 E24.68076
G1 X30.557 Y23.663 E24.68608
G1 X30.678 Y23.214 E24.71536
G1 X30.804 Y22.944 E24.73435
G1 X30.892 Y22.756 E24.74743
G1 X31.196 Y22.321 E24.78066
G1 X31.282 Y22.235 E24.78974
G1 X31.571 Y21.946 E24.81546
G1 X31.884 Y21.728 E24.83948
G1 X32.006 Y21.642 E24.84957
G1 X32.464 Y21.428 E24.88132
G1 X32.665 Y21.374 E24.89489
G1 X32.982 Y21.289 E24.91572
G1 X33.386 Y21.254 E24.94142
G1 X33.542 Y21.24 E24.95157
G1 X50.458 Y21.24 E26.01537
G1 X50.583 Y21.251 E26.02361
G1 X51.018 Y21.289 E26.05045
G1 X51.087 Y21.307 E26.05577
G1 X51.536 Y21.428 E26.08504
G1 X51.806 Y21.554 E26.10404
G1 X51.994 Y21.642 E26.11712
G1 X52.429 Y21.946 E26.15035
G1 X52.515 Y22.032 E26.15943
G1 X52.804 Y22.321 E26.18514
G1 X53.022 Y22.634 E26.20917
G1 X53.108 Y22.756 E26.21926
G1 X53.322 Y23.214 E26.25101
G1 X53.376 Y23.415 E26.26458
G1 X53.461 Y23.732 E26.28541
G1 X53.496 Y24.136 E26.31111
G1 X53.51 Y24.292 E26.32126
G1 X53.51 Y26.84 E26.4815
G1 X53.51 Y28.62 E26.61449
G1 X53.51 Y29.172 E26.65243
G1 X53.51 Y31.84 E26.82022
G1 X53.51 Y32.16 E26.84413
G1 X53.51 Y34.798 E27.01002
G1 X53.51 Y35.233 E27.03858
G1 X53.51 Y35.361 E27.04774
G1 X53.51 Y37.16 E27.18215
G1 X53.51 Y39.708 E27.34239
G1 X53.499 Y39.833 E27.35063
G1 X53.461 Y40.268 E27.37746
G1 X53.443 Y40.337 E27.38279
G1 X53.322 Y40.786 E27.41206
G1 X53.196 Y41.056 E27.43106
G1 X53.108 Y41.244 E27.44414
G1 X52.804 Y41.679 E27.47736
G1 X52.718 Y41.765 E27.48645
G1 X52.429 Y42.054 E27.51216
G1 X52.117 Y42.272 E27.53613
G1 X51.996 Y42.357 E27.54613
G1 X51.533 Y42.574 E27.57826
G1 X51.334 Y42.627 E27.59172
G1 X51.005 Y42.715 E27.61335
G1 X50.656 Y42.755 E27.63586
G1 X50.579 Y42.755 E27.64162
G1 X33.542 Y42.76 E28.70666
G1 X33.391 Y42.747 E28.7165
G1 X32.982 Y42.711 E28.74248
G1 X32.705 Y42.637 E28.76078
G1 X32.464 Y42.572 E28.77689
G1 X32.006 Y42.358 E28.80876
G0 F7200 X31.751 Y42.791
;TYPE:WALL-OUTER
G1 F1200 X31.247 Y42.438 E28.85473
G1 X30.812 Y42.003 E28.9007
G1 X30.459 Y41.499 E28.94667
G1 X30.206 Y40.957 E28.99136
G1 X30.045 Y40.355 E29.03792
G1 X29.99 Y39.729 E29.08487
G1 X29.99 Y24.271 E30.23983
G1 X30.045 Y23.645 E30.28678
G1 X30.206 Y23.043 E30.33334
G1 X30.459 Y22.501 E30.37803
G1 X30.812 Y21.997 E30.424
G1 X31.247 Y21.562 E30.46997
G1 X31.751 Y21.209 E30.51594
G1 X32.293 Y20.956 E30.56063
G1 X32.895 Y20.795 E30.60719
G1 X33.521 Y20.74 E30.65414
G1 X50.479 Y20.74 E31.92117
G1 X51.105 Y20.795 E31.96812
G1 X51.707 Y20.956 E32.01468
G1 X52.249 Y21.209 E32.05937
G1 X52.753 Y21.562 E32.10535
G1 X53.188 Y21.997 E32.15131
G1 X53.541 Y22.501 E32.19728
G1 X53.794 Y23.043 E32.24197
G1 X53.955 Y23.645 E32.28853
G1 X54.01 Y24.271 E32.33549
G1 X54.01 Y39.729 E33.49044
G1 X53.955 Y40.355 E33.53739
G1 X53.794 Y40.957 E33.58395
G1 X53.541 Y41.499 E33.62864
G1 X53.188 Y42.003 E33.67462
G1 X52.753 Y42.438 E33.72058
G1 X52.249 Y42.791 E33.76655
G1 X51.706 Y43.045 E33.81134
G1 X51.096 Y43.208 E33.85852
G1 X50.687 Y43.255 E33.88928
G1 X33.521 Y43.26 E35.17185
G1 X32.895 Y43.205 E35.2188
G1 X32.439 Y43.083 E35.25407
G0 F840 X32.293 Y43.044
G0 X31.751 Y42.791
G0 F7200 X31.588 Y42.677
G0 X31.903 Y42.227
G1 F1800 E30.25407
G0 F7200 X32.989 Y37.235
;TYPE:SKIN
G1 F1800 E35.25511 ;Adjusted e by 0.00104mm
G1 F1200 X33.037 Y37.215 E35.25852
G0 F7200 X33.276 Y37.239
G1 F1200 X33.422 Y37.249 E35.26683
G1 X50.568 Y37.25 E36.21226
G1 X51.008 Y37.206 E36.2379
G1 F1800 E31.2379
G0 F7200 X51.019 Y26.761
G1 F1800 E36.24073 ;Adjusted e by 0.00283mm
G1 F1200 X51.024 Y26.807 E36.24336
G0 F7200 X50.822 Y26.761
G1 F1200 X50.55 Y26.75 E36.25889
G1 X33.432 Y26.75 E37.20278
G1 X32.992 Y26.794 E37.22842
G1 F1800 E32.22842
;MESH:Object 3
G0 F7200 X31.078 Y54.34
;TYPE:WALL-INNER
G1 F1800 E37.23701 ;Adjusted e by 0.00859mm
G1 F600 X30.99 Y54.471 E37.2488
G0 F7200 X31.078 Y54.34
G1 F1800 E32.2488
G0 F7200 X30.99 Y63.528
G1 F1800 E37.25121 ;Adjusted e by 0.00241mm
G1 F600 X31.051 Y63.616 E37.25921
G1 X31.082 Y63.66 E37.26323
G0 F7200 X30.99 Y63.528
G1 F1800 E32.26323
G0 F7200 X53.01 Y63.529
G1 F1800 E37.26995 ;Adjusted e by 0.00672mm
G1 F600 X53.01 Y63.66 E37.27974
G1 X52.922 Y63.66 E37.28632
G0 F7200 X53.01 Y63.529
G1 F1800 E32.28632
G0 F7200 X52.913 Y54.34
G1 F1800 E37.28873 ;Adjusted e by 0.00241mm
G1 F600 X53.01 Y54.34 E37.29597
G1 X53.01 Y54.433 E37.30292
G0 F840 X53.01 Y54.455
G0 F7200 X52.913 Y54.34
G1 F1800 E32.30292
G0 F7200 X31.719 Y53.84
G1 F1800 E37.30936 ;Adjusted e by 0.00644mm
G1 F1200 X32.111 Y53.84 E37.33865
G1 X32.488 Y53.84 E37.36682
G0 F840 X32.578 Y53.84
G1 F1800 E32.36682
G0 F7200 X31.563 Y54.515
G1 F1800 E37.36682
G1 F1200 X31.162 Y55.111 E37.42049
G1 X30.987 Y55.646 E37.46255
G1 X30.948 Y55.767 E37.47205
G1 X30.91 Y56.202 E37.50467
G1 X30.91 Y58.84 E37.70177
G1 X53.09 Y58.84 E39.35896
G1 X53.09 Y56.172 E39.5583
G1 X53.012 Y55.626 E39.59951
G1 X52.996 Y55.518 E39.60767
G1 X52.698 Y54.861 E39.66157
G1 X52.253 Y54.334 E39.71311
G1 X52.235 Y54.313 E39.71517
G1 X52.068 Y54.201 E39.7302
G0 F840 X51.639 Y53.912
G0 X51.418 Y53.84
G0 F7200 X51.639 Y53.84
G1 F1200 X52.235 Y53.84 E39.75094
G1 X52.263 Y53.84 E39.75297
G1 X53.09 Y53.84 E39.81476
G1 X53.09 Y51.292 E40.00514
G1 X53.09 Y51.172 E40.0141
G1 X53.036 Y50.794 E40.04263
G1 X52.996 Y50.518 E40.06347
G1 X52.938 Y50.389 E40.07404
G1 X52.729 Y49.929 E40.11179
G1 X52.698 Y49.861 E40.11737
G1 X52.476 Y49.599 E40.14303
G1 X52.235 Y49.313 E40.17097
G1 X51.759 Y48.993 E40.21383
G1 X51.639 Y48.912 E40.22465
G1 X51.404 Y48.836 E40.2431
G1 X50.983 Y48.698 E40.2762
G1 X50.548 Y48.66 E40.30883
G1 X50.458 Y48.66 E40.31555
G1 X33.542 Y48.66 E41.57944
G1 X33.422 Y48.66 E41.5884
G1 X33.044 Y48.714 E41.61693
G1 X32.768 Y48.754 E41.63777
G1 X32.639 Y48.812 E41.64834
G1 X32.179 Y49.021 E41.68609
G1 X32.111 Y49.052 E41.69167
G1 X31.849 Y49.274 E41.71733
G1 X31.563 Y49.515 E41.74527
G1 X31.243 Y49.991 E41.78813
G1 X31.162 Y50.111 E41.79895
G1 X31.086 Y50.346 E41.8174
G1 X30.948 Y50.767 E41.8505
G1 X30.91 Y51.202 E41.88313
G1 X30.91 Y51.292 E41.88985
G1 X30.91 Y53.84 E42.08023
G1 X30.969 Y53.84 E42.08463
G0 F840 X31.719 Y53.84
G0 F7200 X31.41 Y53.34
;TYPE:WALL-OUTER
G1 F1200 X52.59 Y53.34 E43.66711
G1 X52.59 Y51.208 E43.8264
G1 X52.511 Y50.66 E43.86777
G1 X52.271 Y50.131 E43.91117
G1 X51.898 Y49.689 E43.95438
G1 X51.418 Y49.366 E43.99761
G1 X50.882 Y49.191 E44.03974
G1 X50.526 Y49.16 E44.06644
G1 X33.458 Y49.16 E45.34168
G1 X32.91 Y49.239 E45.38305
G1 X32.381 Y49.479 E45.42645
G1 X31.939 Y49.852 E45.46967
G1 X31.616 Y50.332 E45.51289
G1 X31.441 Y50.868 E45.55502
G1 X31.41 Y51.224 E45.58172
G1 X31.41 Y52.59 E45.68378
G0 F840 X31.41 Y53.34
G0 F7200 X31.61 Y53.34
G0 X31.61 Y53.89
G1 F1800 E40.68378
G0 F7200 X31.41 Y58.34
G1 F1800 E45.6846 ;Adjusted e by 0.00082mm
G1 F1200 X52.59 Y58.34 E47.26708
G1 X52.59 Y56.208 E47.42637
G1 X52.511 Y55.66 E47.46774
G1 X52.271 Y55.131 E47.51114
G1 X51.898 Y54.689 E47.55435
G1 X51.418 Y54.366 E47.59758
G1 X50.882 Y54.191 E47.63971
G1 X50.526 Y54.16 E47.66641
G1 X33.458 Y54.16 E48.94165
G1 X32.91 Y54.239 E48.98302
G1 X32.381 Y54.479 E49.02642
G1 X31.939 Y54.852 E49.06963
G1 X31.616 Y55.332 E49.11286
G1 X31.441 Y55.868 E49.15499
G1 X31.41 Y56.224 E49.18169
G1 X31.41 Y57.59 E49.28375
G0 F840 X31.41 Y58.34
G0 F7200 X31.61 Y58.34
G0 X31.61 Y58.89
G0 X30.91 Y59.16
;TYPE:WALL-INNER
G1 E49.28383 ;Adjusted e by 8e-05mm
G1 F1200 X30.91 Y61.642 E49.46927
G1 X30.952 Y62.256 E49.51526
G1 X30.987 Y62.361 E49.52353
G1 X31.182 Y62.93 E49.56847
G1 X31.594 Y63.52 E49.62223
G1 X31.811 Y63.696 E49.64311
G1 X32.033 Y63.876 E49.66446
G0 F840 X32.152 Y63.972
G0 X32.587 Y64.16
G0 F7200 X31.713 Y64.16
G1 F1200 X30.91 Y64.16 E49.72446
G1 X30.91 Y66.642 E49.9099
G1 X30.952 Y67.256 E49.95589
G1 X31.085 Y67.646 E49.98667
G1 X31.182 Y67.93 E50.0091
G1 X31.234 Y68.005 E50.01591
G1 X31.538 Y68.44 E50.05557
G1 X31.594 Y68.52 E50.06286
G1 X31.841 Y68.72 E50.08661
G1 X32.152 Y68.972 E50.11652
G1 X32.633 Y69.179 E50.15564
G1 X32.807 Y69.255 E50.16983
G1 X33.04 Y69.287 E50.1874
G1 X33.426 Y69.34 E50.21651
G1 X33.542 Y69.34 E50.22518
G1 X50.578 Y69.34 E51.49803
G1 X50.943 Y69.288 E51.52558
G1 X51.232 Y69.246 E51.5474
