;FLAVOR:Marlin
;TIME:4663
;Filament used: 10.2263m
;Layer height: 0.32
;MINX:29.706
;MINY:6.831
;MINZ:0.32
;MAXX:170.278
;MAXY:193.169
;MAXZ:16.96
;EOFFSETPROCESSED
;Generated with Cura_SteamEngine mb-master-20200328
M82 ;absolute extrusion mode
; START
; Crashspace Printer Farm MP10 Mini (C. Nicks Start Code + John Gwinner Probe Code)
M140 S45 ; set bed temp
M104 S160 T0 ; set extruder park temp to warm but not ooze during bed probing
G28 ; home all axis
M190 S55 ; wait for bed temp
G29 P1; probes mesh
G29 P3; fill in mesh that can't be reached is good
G29 S0 ; save mesh
G29 F 10.0 ;prints linear above this height
G29 A ; use UBL
M104 S240 T0 ; set extruder temp
G92 E0;(Reset the extruder to 0)
G0 X0 Y190 Z2 F1500; (set into park)
M109 S240 T0 ; wait for extruder temp
;PRIME
G0 Z0.5 F1500; (Lower into park)
G92 E0
G1 E5 F300; (Unretract)
G92 E0;
;G1 E10 F100; (prime in place) Not good on mini
G0 X5 Y190 Z1 F1000; (Knock off prime)
; AND GO!!!
G92 E0
G92 E0
G1 F1800 E-5
;LAYER_COUNT:53
;LAYER:0
M107
G1 F600 Z1.32
;MESH:Object 2
G0 F7200 X30.99 Y27.34 Z1.32
;TYPE:WALL-INNER
G1 F600 Z0.32
G1 F1800 E0.0
G1 F600 X31.078 Y27.34 E0.00627
G1 X30.99 Y27.471 E0.01167
G0 F7200 X30.99 Y27.34
G1 F1800 E-4.98833
G0 F7200 X30.99 Y36.528
G1 F1800 E0.01408 ;Adjusted e by 0.00241mm
G1 F600 X31.051 Y36.616 E0.02171
G1 X31.082 Y36.66 E0.02554
G0 F7200 X30.99 Y36.528
G1 F1800 E-4.97446
G0 F7200 X53.01 Y36.529
G1 F1800 E0.03226 ;Adjusted e by 0.00672mm
G1 F600 X53.01 Y36.66 E0.0416
G1 X52.922 Y36.66 E0.04787
G0 F7200 X53.01 Y36.529
G1 F1800 E-4.95213
G0 F7200 X52.913 Y27.34
G1 F1800 E0.05028 ;Adjusted e by 0.00241mm
G1 F600 X53.01 Y27.34 E0.05719
G1 X53.01 Y27.433 E0.06381
G0 F840 X53.01 Y27.455
G0 F7200 X52.913 Y27.34
G1 F1800 E-4.93619
G0 F7200 X31.719 Y26.84
G1 F1800 E0.07025 ;Adjusted e by 0.00644mm
G1 F1200 X32.111 Y26.84 E0.09818
G1 X32.488 Y26.84 E0.12504
G0 F840 X32.578 Y26.84
G1 F1800 E-4.87496
G0 F7200 X31.563 Y27.515
G1 F1800 E0.12504
G1 F1200 X31.162 Y28.111 E0.17622
G1 X30.987 Y28.646 E0.21632
G1 X30.948 Y28.767 E0.22538
G1 X30.91 Y29.202 E0.25648
G1 X30.91 Y31.84 E0.44442
G1 X53.09 Y31.84 E2.0246
G1 X53.09 Y29.172 E2.21468
G1 X53.012 Y28.626 E2.25397
G1 X52.996 Y28.518 E2.26175
G1 X52.698 Y27.861 E2.31314
G1 X52.253 Y27.334 E2.36228
G1 X52.235 Y27.313 E2.36425
G1 X52.068 Y27.201 E2.37858
G0 F840 X51.639 Y26.912
G0 X51.418 Y26.84
G0 F7200 X51.639 Y26.84
G1 F1200 X52.235 Y26.84 E2.39836
G1 X52.263 Y26.84 E2.4003
G1 X53.09 Y26.84 E2.45922
G1 X53.09 Y24.292 E2.64074
G1 X53.09 Y24.172 E2.64929
G1 X53.036 Y23.794 E2.6765
G1 X52.996 Y23.518 E2.69637
G1 X52.938 Y23.389 E2.70644
G1 X52.729 Y22.929 E2.74244
G1 X52.698 Y22.861 E2.74776
G1 X52.476 Y22.599 E2.77223
G1 X52.235 Y22.313 E2.79887
G1 X51.759 Y21.993 E2.83974
G1 X51.639 Y21.912 E2.85005
G1 X51.404 Y21.836 E2.86765
G1 X50.983 Y21.698 E2.89921
G1 X50.548 Y21.66 E2.93032
G1 X50.458 Y21.66 E2.93673
G1 X33.542 Y21.66 E4.14188
G1 X33.422 Y21.66 E4.15043
G1 X33.044 Y21.714 E4.17763
G1 X32.768 Y21.754 E4.1975
G1 X32.639 Y21.812 E4.20758
G1 X32.179 Y22.021 E4.24357
G1 X32.111 Y22.052 E4.2489
G1 X31.849 Y22.274 E4.27336
G1 X31.563 Y22.515 E4.30001
G1 X31.243 Y22.991 E4.34087
G1 X31.162 Y23.111 E4.35119
G1 X31.086 Y23.346 E4.36878
G1 X30.948 Y23.767 E4.40035
G1 X30.91 Y24.202 E4.43145
G1 X30.91 Y24.292 E4.43787
G1 X30.91 Y26.84 E4.61939
G1 X30.969 Y26.84 E4.6236
G0 F840 X31.719 Y26.84
G0 F7200 X31.41 Y26.34
;TYPE:WALL-OUTER
G1 F1200 X52.59 Y26.34 E6.13253
G1 X52.59 Y24.208 E6.28442
G1 X52.511 Y23.66 E6.32386
G1 X52.271 Y23.131 E6.36525
G1 X51.898 Y22.689 E6.40645
G1 X51.418 Y22.366 E6.44767
G1 X50.882 Y22.191 E6.48784
G1 X50.526 Y22.16 E6.5133
G1 X33.458 Y22.16 E7.72928
G1 X32.91 Y22.239 E7.76872
G1 X32.381 Y22.479 E7.81011
G1 X31.939 Y22.852 E7.85131
G1 X31.616 Y23.332 E7.89253
G1 X31.441 Y23.868 E7.9327
G1 X31.41 Y24.224 E7.95816
G1 X31.41 Y25.59 E8.05548
G0 F840 X31.41 Y26.34
G0 F7200 X31.61 Y26.34
G0 X31.61 Y26.89
G1 F1800 E3.05548
G0 F7200 X31.41 Y31.34
G1 F1800 E8.0563 ;Adjusted e by 0.00082mm
G1 F1200 X52.59 Y31.34 E9.56523
G1 X52.59 Y29.208 E9.71712
G1 X52.511 Y28.66 E9.75656
G1 X52.271 Y28.131 E9.79795
G1 X51.898 Y27.689 E9.83915
G1 X51.418 Y27.366 E9.88037
G1 X50.882 Y27.191 E9.92054
G1 X50.526 Y27.16 E9.946
G1 X33.458 Y27.16 E11.16198
G1 X32.91 Y27.239 E11.20142
G1 X32.381 Y27.479 E11.24281
G1 X31.939 Y27.852 E11.28401
G1 X31.616 Y28.332 E11.32523
G1 X31.441 Y28.868 E11.3654
G1 X31.41 Y29.224 E11.39086
G1 X31.41 Y30.59 E11.48818
G0 F840 X31.41 Y31.34
G0 F7200 X31.61 Y31.34
G0 X31.61 Y31.89
G0 X30.91 Y32.16
;TYPE:WALL-INNER
G1 E11.48826 ;Adjusted e by 8e-05mm
G1 F1200 X30.91 Y34.642 E11.66508
G1 X30.952 Y35.256 E11.70893
G1 X30.987 Y35.361 E11.71681
G1 X31.182 Y35.93 E11.75967
G1 X31.594 Y36.52 E11.81093
G1 X31.811 Y36.696 E11.83084
G1 X32.033 Y36.876 E11.8512
G0 F840 X32.152 Y36.972
G0 X32.587 Y37.16
G0 F7200 X31.713 Y37.16
G1 F1200 X30.91 Y37.16 E11.90841
G1 X30.91 Y39.642 E12.08523
G1 X30.952 Y40.256 E12.12908
G1 X31.085 Y40.646 E12.15844
G1 X31.182 Y40.93 E12.17982
G1 X31.234 Y41.005 E12.18632
G1 X31.538 Y41.44 E12.22413
G1 X31.594 Y41.52 E12.23108
G1 X31.841 Y41.72 E12.25373
G1 X32.152 Y41.972 E12.28224
G1 X32.633 Y42.179 E12.31955
G1 X32.807 Y42.255 E12.33308
G1 X33.04 Y42.287 E12.34983
G1 X33.426 Y42.34 E12.37759
G1 X33.542 Y42.34 E12.38586
G1 X50.578 Y42.34 E13.59955
G1 X50.943 Y42.288 E13.62582
G1 X51.232 Y42.246 E13.64663
G1 X51.358 Y42.189 E13.65648
G1 X51.823 Y41.978 E13.69286
G1 X51.889 Y41.948 E13.69802
G1 X52.151 Y41.726 E13.72249
G1 X52.437 Y41.485 E13.74913
G1 X52.757 Y41.009 E13.79
G1 X52.838 Y40.889 E13.80031
G1 X52.914 Y40.654 E13.81791
G1 X53.052 Y40.233 E13.84947
G1 X53.09 Y39.798 E13.88058
G1 X53.09 Y39.708 E13.88699
G1 X53.09 Y37.16 E14.06852
G1 X52.281 Y37.16 E14.12615
G1 X52.172 Y37.16 E14.13392
G0 F840 X51.889 Y37.16
G0 X51.422 Y37.16
G1 F1800 E9.13392
G0 F7200 X52.437 Y36.485
G1 F1800 E14.13392
G1 F1200 X52.838 Y35.889 E14.1851
G1 X53.013 Y35.354 E14.2252
G1 X53.052 Y35.233 E14.23426
G1 X53.09 Y34.798 E14.26537
G1 X53.09 Y32.16 E14.4533
G1 X30.91 Y32.16 E15.46664
G0 F7200 X31.41 Y32.66
;TYPE:WALL-OUTER
G1 F1200 X31.41 Y34.625 E15.60664
G1 X31.446 Y35.157 E15.64462
G1 X31.632 Y35.701 E15.68558
G1 X31.964 Y36.176 E15.72687
G1 X32.413 Y36.54 E15.76805
G1 X32.943 Y36.769 E15.80918
G1 X33.46 Y36.84 E15.84636
G1 X50.542 Y36.84 E17.06334
G1 X51.09 Y36.761 E17.10278
G1 X51.619 Y36.521 E17.14417
G1 X52.061 Y36.148 E17.18537
G1 X52.384 Y35.668 E17.22659
G1 X52.559 Y35.132 E17.26676
G1 X52.59 Y34.776 E17.29222
G1 X52.59 Y32.66 E17.44297
G1 X32.16 Y32.66 E18.89847
G0 F840 X31.41 Y32.66
G0 F7200 X31.41 Y32.86
G0 X30.86 Y32.86
G1 F1800 E13.89847
G0 F7200 X31.41 Y37.66
G1 F1800 E18.89942 ;Adjusted e by 0.00095mm
G1 F1200 X31.41 Y39.625 E19.03941
G1 X31.446 Y40.157 E19.0774
G1 X31.632 Y40.701 E19.11836
G1 X31.964 Y41.176 E19.15964
G1 X32.413 Y41.54 E19.20082
G1 X32.943 Y41.769 E19.24196
G1 X33.46 Y41.84 E19.27914
G1 X50.542 Y41.84 E20.49611
G1 X51.09 Y41.761 E20.53556
G1 X51.619 Y41.521 E20.57694
G1 X52.061 Y41.148 E20.61815
G1 X52.384 Y40.668 E20.65936
G1 X52.559 Y40.132 E20.69953
G1 X52.59 Y39.776 E20.72499
G1 X52.59 Y37.66 E20.87574
G1 X32.16 Y37.66 E22.33124
G0 F840 X31.41 Y37.66
G0 F7200 X31.41 Y37.86
G0 X30.86 Y37.86
G1 F1800 E17.33124
G0 F7200 X32.006 Y42.358
;TYPE:WALL-INNER
G1 F1800 E22.33213 ;Adjusted e by 0.00089mm
G1 F1200 X31.923 Y42.3 E22.33935
G1 X31.571 Y42.054 E22.36511
G1 X31.316 Y41.799 E22.38679
G1 X31.196 Y41.679 E22.39754
G1 X30.892 Y41.244 E22.42916
G1 X30.824 Y41.098 E22.43939
G1 X30.678 Y40.786 E22.46018
G1 X30.564 Y40.361 E22.48662
G1 X30.539 Y40.268 E22.49348
G1 X30.49 Y39.708 E22.52703
G1 X30.49 Y39.642 E22.53173
G1 X30.49 Y37.16 E22.68056
G1 X30.49 Y35.367 E22.8083
G1 X30.49 Y35.256 E22.8159
G1 X30.49 Y34.642 E22.85452
G1 X30.49 Y32.16 E23.00335
G1 X30.49 Y31.84 E23.02614
G1 X30.49 Y29.202 E23.18433
G1 X30.49 Y28.767 E23.21156
G1 X30.49 Y28.639 E23.22029
G1 X30.49 Y26.84 E23.34846
G1 X30.49 Y24.292 E23.50125
G1 X30.501 Y24.167 E23.50911
G1 X30.539 Y23.732 E23.5347
G1 X30.557 Y23.663 E23.53978
G1 X30.678 Y23.214 E23.56769
G1 X30.804 Y22.944 E23.5858
G1 X30.892 Y22.756 E23.59827
G1 X31.196 Y22.321 E23.62995
G1 X31.282 Y22.235 E23.63862
G1 X31.571 Y21.946 E23.66314
G1 X31.884 Y21.728 E23.68605
G1 X32.006 Y21.642 E23.69566
G1 X32.464 Y21.428 E23.72594
G1 X32.665 Y21.374 E23.73888
G1 X32.982 Y21.289 E23.75874
G1 X33.386 Y21.254 E23.78325
G1 X33.542 Y21.24 E23.79293
G1 X50.458 Y21.24 E24.80728
G1 X50.583 Y21.251 E24.81514
G1 X51.018 Y21.289 E24.84073
G1 X51.087 Y21.307 E24.84581
G1 X51.536 Y21.428 E24.87372
G1 X51.806 Y21.554 E24.89183
G1 X51.994 Y21.642 E24.90431
G1 X52.429 Y21.946 E24.93599
G1 X52.515 Y22.032 E24.94465
G1 X52.804 Y22.321 E24.96917
G1 X53.022 Y22.634 E24.99208
G1 X53.108 Y22.756 E25.0017
G1 X53.322 Y23.214 E25.03198
G1 X53.376 Y23.415 E25.04491
G1 X53.461 Y23.732 E25.06478
G1 X53.496 Y24.136 E25.08928
G1 X53.51 Y24.292 E25.09896
G1 X53.51 Y26.84 E25.25175
G1 X53.51 Y28.62 E25.37856
G1 X53.51 Y29.172 E25.41474
G1 X53.51 Y31.84 E25.57473
G1 X53.51 Y32.16 E25.59753
G1 X53.51 Y34.798 E25.75571
G1 X53.51 Y35.233 E25.78294
G1 X53.51 Y35.361 E25.79167
G1 X53.51 Y37.16 E25.91984
G1 X53.51 Y39.708 E26.07263
G1 X53.499 Y39.833 E26.08049
G1 X53.461 Y40.268 E26.10608
G1 X53.443 Y40.337 E26.11116
G1 X53.322 Y40.786 E26.13907
G1 X53.196 Y41.056 E26.15718
G1 X53.108 Y41.244 E26.16965
G1 X52.804 Y41.679 E26.20133
G1 X52.718 Y41.765 E26.21
G1 X52.429 Y42.054 E26.23452
G1 X52.117 Y42.272 E26.25737
G1 X51.996 Y42.357 E26.26691
G1 X51.533 Y42.574 E26.29754
G1 X51.334 Y42.627 E26.31037
G1 X51.005 Y42.715 E26.331
G1 X50.656 Y42.755 E26.35247
G1 X50.579 Y42.755 E26.35795
G1 X33.542 Y42.76 E27.37349
G1 X33.391 Y42.747 E27.38288
G1 X32.982 Y42.711 E27.40765
G1 X32.705 Y42.637 E27.4251
G1 X32.464 Y42.572 E27.44047
G1 X32.006 Y42.358 E27.47085
G0 F7200 X31.751 Y42.791
;TYPE:WALL-OUTER
G1 F1200 X31.247 Y42.438 E27.51469
G1 X30.812 Y42.003 E27.55852
G1 X30.459 Y41.499 E27.60236
G1 X30.206 Y40.957 E27.64497
G1 X30.045 Y40.355 E27.68936
G1 X29.99 Y39.729 E27.73413
G1 X29.99 Y24.271 E28.83541
G1 X30.045 Y23.645 E28.88018
G1 X30.206 Y23.043 E28.92458
G1 X30.459 Y22.501 E28.96719
G1 X30.812 Y21.997 E29.01103
G1 X31.247 Y21.562 E29.05486
G1 X31.751 Y21.209 E29.09869
G1 X32.293 Y20.956 E29.14131
G1 X32.895 Y20.795 E29.1857
G1 X33.521 Y20.74 E29.23047
G1 X50.479 Y20.74 E30.43862
G1 X51.105 Y20.795 E30.48339
G1 X51.707 Y20.956 E30.52778
G1 X52.249 Y21.209 E30.5704
G1 X52.753 Y21.562 E30.61423
G1 X53.188 Y21.997 E30.65806
G1 X53.541 Y22.501 E30.7019
G1 X53.794 Y23.043 E30.74451
G1 X53.955 Y23.645 E30.78891
G1 X54.01 Y24.271 E30.83368
G1 X54.01 Y39.729 E31.93496
G1 X53.955 Y40.355 E31.97973
G1 X53.794 Y40.957 E32.02412
G1 X53.541 Y41.499 E32.06673
G1 X53.188 Y42.003 E32.11057
G1 X52.753 Y42.438 E32.1544
G1 X52.249 Y42.791 E32.19824
G1 X51.706 Y43.045 E32.24095
G1 X51.096 Y43.208 E32.28593
G1 X50.687 Y43.255 E32.31526
G1 X33.521 Y43.26 E33.53822
G1 X32.895 Y43.205 E33.58299
G1 X32.439 Y43.083 E33.61662
G0 F840 X32.293 Y43.044
G0 X31.751 Y42.791
G0 F7200 X31.588 Y42.677
G0 X31.903 Y42.227
G1 F1800 E28.61662
G0 F7200 X32.989 Y37.235
;TYPE:SKIN
G1 F1800 E33.61766 ;Adjusted e by 0.00104mm
G1 F1200 X33.037 Y37.215 E33.62091
G0 F7200 X33.276 Y37.239
G1 F1200 X33.422 Y37.249 E33.62884
G1 X50.568 Y37.25 E34.53033
G1 X51.008 Y37.206 E34.55478
G1 F1800 E29.55478
G0 F7200 X51.019 Y26.761
G1 F1800 E34.55761 ;Adjusted e by 0.00283mm
G1 F1200 X51.024 Y26.807 E34.56011
G0 F7200 X50.822 Y26.761
G1 F1200 X50.55 Y26.75 E34.57493
G1 X33.432 Y26.75 E35.47495
G1 X32.992 Y26.794 E35.4994
G1 F1800 E30.4994
;MESH:Object 3
G0 F7200 X31.078 Y54.34
;TYPE:WALL-INNER
G1 F1800 E35.50799 ;Adjusted e by 0.00859mm
G1 F600 X30.99 Y54.471 E35.51923
G0 F7200 X31.078 Y54.34
G1 F1800 E30.51923
G0 F7200 X30.99 Y63.528
G1 F1800 E35.52164 ;Adjusted e by 0.00241mm
G1 F600 X31.051 Y63.616 E35.52927
G1 X31.082 Y63.66 E35.5331
G0 F7200 X30.99 Y63.528
G1 F1800 E30.5331
G0 F7200 X53.01 Y63.529
G1 F1800 E35.53982 ;Adjusted e by 0.00672mm
G1 F600 X53.01 Y63.66 E35.54916
G1 X52.922 Y63.66 E35.55543
G0 F7200 X53.01 Y63.529
G1 F1800 E30.55543
G0 F7200 X52.913 Y54.34
G1 F1800 E35.55784 ;Adjusted e by 0.00241mm
G1 F600 X53.01 Y54.34 E35.56475
G1 X53.01 Y54.433 E35.57137
G0 F840 X53.01 Y54.455
G0 F7200 X52.913 Y54.34
G1 F1800 E30.57137
G0 F7200 X31.719 Y53.84
G1 F1800 E35.57781 ;Adjusted e by 0.00644mm
G1 F1200 X32.111 Y53.84 E35.60574
G1 X32.488 Y53.84 E35.6326
G0 F840 X32.578 Y53.84
G1 F1800 E30.6326
G0 F7200 X31.563 Y54.515
G1 F1800 E35.6326
G1 F1200 X31.162 Y55.111 E35.68377
G1 X30.987 Y55.646 E35.72388
G1 X30.948 Y55.767 E35.73293
G1 X30.91 Y56.202 E35.76404
G1 X30.91 Y58.84 E35.95198
G1 X53.09 Y58.84 E37.53216
G1 X53.09 Y56.172 E37.72223
G1 X53.012 Y55.626 E37.76153
G1 X52.996 Y55.518 E37.76931
G1 X52.698 Y54.861 E37.8207
G1 X52.253 Y54.334 E37.86984
G1 X52.235 Y54.313 E37.87181
G1 X52.068 Y54.201 E37.88614
G0 F840 X51.639 Y53.912
G0 X51.418 Y53.84
G0 F7200 X51.639 Y53.84
G1 F1200 X52.235 Y53.84 E37.90592
G1 X52.263 Y53.84 E37.90786
G1 X53.09 Y53.84 E37.96678
G1 X53.09 Y51.292 E38.1483
G1 X53.09 Y51.172 E38.15685
G1 X53.036 Y50.794 E38.18406
G1 X52.996 Y50.518 E38.20392
G1 X52.938 Y50.389 E38.214
G1 X52.729 Y49.929 E38.25
G1 X52.698 Y49.861 E38.25532
G1 X52.476 Y49.599 E38.27979
G1 X52.235 Y49.313 E38.30643
G1 X51.759 Y48.993 E38.34729
G1 X51.639 Y48.912 E38.35761
G1 X51.404 Y48.836 E38.3752
G1 X50.983 Y48.698 E38.40677
G1 X50.548 Y48.66 E38.43788
G1 X50.458 Y48.66 E38.44429
G1 X33.542 Y48.66 E39.64944
G1 X33.422 Y48.66 E39.65799
G1 X33.044 Y48.714 E39.68519
G1 X32.768 Y48.754 E39.70506
G1 X32.639 Y48.812 E39.71514
G1 X32.179 Y49.021 E39.75113
G1 X32.111 Y49.052 E39.75646
G1 X31.849 Y49.274 E39.78092
G1 X31.563 Y49.515 E39.80757
G1 X31.243 Y49.991 E39.84843
G1 X31.162 Y50.111 E39.85874
G1 X31.086 Y50.346 E39.87634
G1 X30.948 Y50.767 E39.9079
G1 X30.91 Y51.202 E39.93901
G1 X30.91 Y51.292 E39.94542
G1 X30.91 Y53.84 E40.12695
G1 X30.969 Y53.84 E40.13116
G0 F840 X31.719 Y53.84
G0 F7200 X31.41 Y53.34
;TYPE:WALL-OUTER
G1 F1200 X52.59 Y53.34 E41.64009
G1 X52.59 Y51.208 E41.79198
G1 X52.511 Y50.66 E41.83142
G1 X52.271 Y50.131 E41.87281
G1 X51.898 Y49.689 E41.91401
G1 X51.418 Y49.366 E41.95523
G1 X50.882 Y49.191 E41.9954
G1 X50.526 Y49.16 E42.02086
G1 X33.458 Y49.16 E43.23684
G1 X32.91 Y49.239 E43.27628
G1 X32.381 Y49.479 E43.31767
G1 X31.939 Y49.852 E43.35887
G1 X31.616 Y50.332 E43.40009
G1 X31.441 Y50.868 E43.44026
G1 X31.41 Y51.224 E43.46572
G1 X31.41 Y52.59 E43.56304
G0 F840 X31.41 Y53.34
G0 F7200 X31.61 Y53.34
G0 X31.61 Y53.89
G1 F1800 E38.56304
G0 F7200 X31.41 Y58.34
G1 F1800 E43.56386 ;Adjusted e by 0.00082mm
G1 F1200 X52.59 Y58.34 E45.07279
G1 X52.59 Y56.208 E45.22468
G1 X52.511 Y55.66 E45.26412
G1 X52.271 Y55.131 E45.30551
G1 X51.898 Y54.689 E45.34671
G1 X51.418 Y54.366 E45.38793
G1 X50.882 Y54.191 E45.4281
G1 X50.526 Y54.16 E45.45356
G1 X33.458 Y54.16 E46.66954
G1 X32.91 Y54.239 E46.70898
G1 X32.381 Y54.479 E46.75037
G1 X31.939 Y54.852 E46.79157
G1 X31.616 Y55.332 E46.83279
G1 X31.441 Y55.868 E46.87296
G1 X31.41 Y56.224 E46.89842
G1 X31.41 Y57.59 E46.99574
G0 F840 X31.41 Y58.34
G0 F7200 X31.61 Y58.34
G0 X31.61 Y58.89
G0 X30.91 Y59.16
;TYPE:WALL-INNER
G1 E46.99582 ;Adjusted e by 8e-05mm
G1 F1200 X30.91 Y61.642 E47.17264
G1 X30.952 Y62.256 E47.21649
G1 X30.987 Y62.361 E47.22437
G1 X31.182 Y62.93 E47.26722
G1 X31.594 Y63.52 E47.31849
G1 X31.811 Y63.696 E47.3384
G1 X32.033 Y63.876 E47.35876
G0 F840 X32.152 Y63.972
G0 X32.587 Y64.16
G0 F7200 X31.713 Y64.16
G1 F1200 X30.91 Y64.16 E47.41597
G1 X30.91 Y66.642 E47.59279
G1 X30.952 Y67.256 E47.63664
G1 X31.085 Y67.646 E47.66599
G1 X31.182 Y67.93 E47.68737
G1 X31.234 Y68.005 E47.69388
G1 X31.538 Y68.44 E47.73169
G1 X31.594 Y68.52 E47.73864
G1 X31.841 Y68.72 E47.76128
G1 X32.152 Y68.972 E47.7898
G1 X32.633 Y69.179 E47.82711
G1 X32.807 Y69.255 E47.84064
G1 X33.04 Y69.287 E47.85739
G1 X33.426 Y69.34 E47.88515
G1 X33.542 Y69.34 E47.89341
G1 X50.578 Y69.34 E49.10711
G1 X50.943 Y69.288 E49.13338
G1 X51.232 Y69.246 E49.15418
G1 X51.358 Y69.189 E49.16404
