;FLAVOR:Marlin
;TIME:4816
;Filament used: 10.1236m
;Layer height: 0.32
;MINX:29.706
;MINY:6.831
;MINZ:0.32
;MAXX:170.278
;MAXY:193.169
;MAXZ:16.96
;Generated with Cura_SteamEngine mb-master-20200424
M82 ;absolute extrusion mode
;
; Crashspace Printer Farm MP10 Mini (C. Nicks Start Code + John Gwinner Probe Code)
;______________________________________________
;Sliced at: Fri 01-05-2020 22:11:18
;Layer Height: 0.32
;Line Width: 0.5
;Flow: 104
;Z-Hop: False
;______________________________________________
;
M140 S60 ; set bed temp
M104 S160.0 T0 ; set extruder park temp to warm but not ooze during bed probing
M190 S60 ; wait for bed temp
G28 ; home all axis
G29 P1; probes mesh
G29 P3; fill in mesh that can't be reached is good
G29 S0 ; save mesh
G29 F 10.0 ;prints linear above this height
G29 A ; use UBL
M104 S240 T0 ; set extruder temp
G92 E0;(Reset the extruder to 0)
G0 X0 Y0 Z2 F1500; (set into park)
M109 S240 T0 ; wait for extruder temp
G92 E0
G1 E7 F300; (Unretract from last ending code, plus add some for ooze)
;PRIME
G0 X0 Y0 Z0.2 F1500; (Knock off ooze)
G0 X2 Y0 Z0.4 F1500; (Knock off ooze)
G0 X3 Y0 Z1.0 F1500; (Knock off ooze)
G0 X5 Y0 Z0.32 F1000; (Lower into prime)
G91
G1 X5 Y+20 F1000 E5  ;PRIME
G1 X+0.5 ;PRIME
G1 Y-20 F1000 E5  ;PRIME
G90
; Mini nozzle can't hang over edge to catch ooze
;G0 X0 F1500; (Knock off ooze)
;G0 X0 Z0.2 F1500; (Knock off ooze)
;G0 X2 Z0.4 F1500; (Knock off ooze)
;G0 X3 Z1.0 F1500; (Knock off ooze)
G92 E0
;AND GO!!!!
G92 E0
G92 E0
G1 F2400 E-5
;LAYER_COUNT:53
;LAYER:0
M107
G1 F600 Z1.32
;MESH:Object 2
G0 F7200 X31.751 Y42.791 Z1.32
;TYPE:WALL-OUTER
G1 F600 Z0.32
G1 F2400 E0
G1 F1200 X31.247 Y42.438 E0.04257
G1 X30.812 Y42.003 E0.08513
G1 X30.459 Y41.499 E0.1277
G1 X30.206 Y40.957 E0.16908
G1 X30.045 Y40.355 E0.21219
G1 X29.99 Y39.729 E0.25566
G1 X29.99 Y24.271 E1.32506
G1 X30.045 Y23.645 E1.36854
G1 X30.206 Y23.043 E1.41165
G1 X30.459 Y22.501 E1.45303
G1 X30.812 Y21.997 E1.4956
G1 X31.247 Y21.562 E1.53816
G1 X31.751 Y21.209 E1.58072
G1 X32.293 Y20.956 E1.6221
G1 X32.895 Y20.795 E1.66522
G1 X33.521 Y20.74 E1.70869
G1 X50.479 Y20.74 E2.88186
G1 X51.105 Y20.795 E2.92534
G1 X51.707 Y20.956 E2.96845
G1 X52.249 Y21.209 E3.00983
G1 X52.753 Y21.562 E3.0524
G1 X53.188 Y21.997 E3.09496
G1 X53.541 Y22.501 E3.13752
G1 X53.794 Y23.043 E3.1789
G1 X53.955 Y23.645 E3.22201
G1 X54.01 Y24.271 E3.26549
G1 X54.01 Y39.729 E4.33489
G1 X53.955 Y40.355 E4.37836
G1 X53.794 Y40.957 E4.42147
G1 X53.541 Y41.499 E4.46285
G1 X53.188 Y42.003 E4.50542
G1 X52.753 Y42.438 E4.54798
G1 X52.249 Y42.791 E4.59055
G1 X51.716 Y43.041 E4.63128
G1 X50.662 Y43.255 E4.70568
G1 X33.521 Y43.26 E5.89152
G1 X32.895 Y43.205 E5.93499
G1 X32.293 Y43.044 E5.9781
G1 X31.751 Y42.791 E6.01948
G0 F7200 X31.588 Y42.677
G0 X31.903 Y42.227
G1 F2400 E1.01948
G0 F7200 X31.946 Y42.165
G0 X31.41 Y26.34
G1 F2400 E6.01948
G1 F1200 X52.59 Y26.34 E7.48474
G1 X52.59 Y24.208 E7.63223
G1 X52.511 Y23.66 E7.67053
G1 X52.271 Y23.131 E7.71072
G1 X51.898 Y22.689 E7.75073
G1 X51.417 Y22.366 E7.79082
G1 X50.857 Y22.184 E7.83155
G1 X33.458 Y22.16 E9.03523
G1 X32.91 Y22.239 E9.07354
G1 X32.381 Y22.479 E9.11372
G1 X31.939 Y22.852 E9.15374
G1 X31.616 Y23.333 E9.19382
G1 X31.436 Y23.889 E9.23425
G1 X31.41 Y25.601 E9.3527
G1 X31.41 Y26.34 E9.40383
G0 F7200 X31.61 Y26.34
G0 X31.61 Y26.89
G1 F2400 E4.40383
G0 F7200 X31.61 Y26.965
G0 X31.41 Y31.34
G1 F2400 E9.40383
G1 F1200 X52.59 Y31.34 E10.86908
G1 X52.59 Y29.208 E11.01657
G1 X52.511 Y28.66 E11.05488
G1 X52.271 Y28.131 E11.09506
G1 X51.898 Y27.689 E11.13508
G1 X51.417 Y27.366 E11.17516
G1 X50.857 Y27.184 E11.21589
G1 X33.458 Y27.16 E12.41958
G1 X32.91 Y27.239 E12.45788
G1 X32.381 Y27.479 E12.49807
G1 X31.939 Y27.852 E12.53808
G1 X31.616 Y28.333 E12.57816
G1 X31.436 Y28.889 E12.61859
G1 X31.41 Y30.601 E12.73704
G1 X31.41 Y31.34 E12.78817
G0 F7200 X31.61 Y31.34
G0 X30.91 Y31.84
;TYPE:WALL-INNER
G1 F1200 X53.09 Y31.84 E14.3226
G1 X53.09 Y29.172 E14.50718
G1 X53.012 Y28.626 E14.54534
G1 X52.996 Y28.518 E14.55289
G1 X52.698 Y27.861 E14.6028
G1 X52.253 Y27.334 E14.65052
G1 X52.235 Y27.313 E14.65243
G1 X51.638 Y26.912 E14.70218
G1 X51.417 Y26.84 E14.71826
G0 F7200 X51.638 Y26.84
G1 F1200 X52.235 Y26.84 E14.73755
G1 X52.263 Y26.84 E14.73943
G1 X53.09 Y26.84 E14.79664
G1 X53.09 Y24.292 E14.97291
G1 X53.09 Y24.172 E14.98121
G1 X53.036 Y23.794 E15.00763
G1 X52.996 Y23.518 E15.02692
G1 X52.938 Y23.389 E15.03671
G1 X52.729 Y22.929 E15.07166
G1 X52.698 Y22.861 E15.07683
G1 X52.476 Y22.599 E15.10059
G1 X52.235 Y22.313 E15.12646
G1 X51.759 Y21.993 E15.16614
G1 X51.638 Y21.912 E15.17622
G1 X51.404 Y21.836 E15.19324
G1 X50.937 Y21.684 E15.22721
G1 X50.458 Y21.684 E15.26035
G1 X33.542 Y21.661 E16.43062
G1 X33.422 Y21.66 E16.43892
G1 X33.044 Y21.714 E16.46534
G1 X32.768 Y21.754 E16.48463
G1 X32.639 Y21.812 E16.49442
G1 X32.179 Y22.021 E16.52937
G1 X32.111 Y22.052 E16.53454
G1 X31.849 Y22.274 E16.5583
G1 X31.563 Y22.515 E16.58417
G1 X31.243 Y22.991 E16.62385
G1 X31.162 Y23.112 E16.63392
G1 X31.087 Y23.346 E16.65092
G1 X30.937 Y23.806 E16.6844
G1 X30.93 Y24.298 E16.71844
G1 X30.91 Y25.597 E16.80831
G1 X30.91 Y26.84 E16.89431
G1 X31.719 Y26.84 E16.95027
G1 X32.111 Y26.84 E16.97739
G1 X32.578 Y26.84 E17.0097
G1 F2400 E12.0097
G0 F7200 X32.481 Y26.747
G0 X31.563 Y27.515
G1 F2400 E17.0097
G1 F1200 X31.162 Y28.112 E17.05945
G1 X30.987 Y28.65 E17.09859
G1 X30.937 Y28.806 E17.10992
G1 X30.91 Y30.597 E17.23384
G1 X30.91 Y31.84 E17.31983
G0 F7200 X31.41 Y32.66
;TYPE:WALL-OUTER
G1 F1200 X31.41 Y34.625 E17.45577
G1 X31.446 Y35.157 E17.49266
G1 X31.632 Y35.701 E17.53244
G1 X31.964 Y36.176 E17.57253
G1 X32.413 Y36.54 E17.61252
G1 X32.943 Y36.769 E17.65246
G1 X33.46 Y36.84 E17.68856
G1 X50.542 Y36.84 E18.87031
G1 X51.09 Y36.761 E18.90862
G1 X51.619 Y36.521 E18.9488
G1 X52.061 Y36.148 E18.98881
G1 X52.384 Y35.667 E19.0289
G1 X52.564 Y35.111 E19.06933
G1 X52.59 Y33.399 E19.18778
G1 X52.59 Y32.66 E19.2389
G1 X31.41 Y32.66 E20.70416
G0 F7200 X31.41 Y32.86
G0 X30.86 Y32.86
G1 F2400 E15.70416
G0 F7200 X30.785 Y32.86
G0 X31.41 Y37.66
G1 F2400 E20.70416
G1 F1200 X31.41 Y39.625 E20.8401
G1 X31.446 Y40.157 E20.87699
G1 X31.632 Y40.701 E20.91676
G1 X31.964 Y41.176 E20.95685
G1 X32.413 Y41.54 E20.99684
G1 X32.943 Y41.769 E21.03678
G1 X33.46 Y41.84 E21.07289
G1 X50.542 Y41.84 E22.25464
G1 X51.09 Y41.761 E22.29294
G1 X51.619 Y41.521 E22.33313
G1 X52.061 Y41.148 E22.37314
G1 X52.384 Y40.667 E22.41322
G1 X52.564 Y40.111 E22.45365
G1 X52.59 Y38.399 E22.5721
G1 X52.59 Y37.66 E22.62323
G1 X31.41 Y37.66 E24.08848
G0 F7200 X31.41 Y37.86
G0 X31.713 Y37.16
;TYPE:WALL-INNER
G1 F1200 X30.91 Y37.16 E24.14403
G1 X30.91 Y39.642 E24.31574
G1 X30.952 Y40.256 E24.35832
G1 X31.085 Y40.646 E24.38683
G1 X31.182 Y40.93 E24.40759
G1 X31.234 Y41.005 E24.4139
G1 X31.538 Y41.44 E24.45061
G1 X31.594 Y41.52 E24.45737
G1 X31.841 Y41.72 E24.47936
G1 X32.152 Y41.972 E24.50705
G1 X32.633 Y42.179 E24.54328
G1 X32.807 Y42.255 E24.55641
G1 X33.04 Y42.287 E24.57268
G1 X33.426 Y42.34 E24.59964
G1 X33.542 Y42.34 E24.60766
G1 X50.578 Y42.34 E25.78623
G1 X51.232 Y42.246 E25.83194
G1 X51.382 Y42.178 E25.84333
G1 X51.823 Y41.978 E25.87683
G1 X51.889 Y41.948 E25.88185
G1 X52.151 Y41.726 E25.90561
G1 X52.437 Y41.485 E25.93148
G1 X52.757 Y41.009 E25.97116
G1 X52.838 Y40.888 E25.98123
G1 X52.913 Y40.654 E25.99823
G1 X53.063 Y40.194 E26.03171
G1 X53.07 Y39.702 E26.06575
G1 X53.09 Y38.403 E26.15562
G1 X53.09 Y37.16 E26.24161
G1 X52.281 Y37.16 E26.29758
G1 X51.889 Y37.16 E26.3247
G1 X51.422 Y37.16 E26.35701
G1 F2400 E21.35701
G0 F7200 X51.519 Y37.253
G0 X52.437 Y36.485
G1 F2400 E26.35701
G1 F1200 X52.838 Y35.888 E26.40676
G1 X53.013 Y35.35 E26.4459
G1 X53.063 Y35.194 E26.45723
G1 X53.09 Y33.403 E26.58115
G1 X53.09 Y32.16 E26.66714
G1 X30.91 Y32.16 E27.65115
G1 X30.91 Y34.642 E27.82286
G1 X30.952 Y35.256 E27.86543
G1 X30.987 Y35.361 E27.87309
G1 X31.182 Y35.93 E27.9147
G1 X31.594 Y36.52 E27.96449
G1 X31.811 Y36.696 E27.98382
G1 X32.152 Y36.972 E28.01417
G1 X32.587 Y37.16 E28.04695
G0 F7200 X31.713 Y37.16
G1 F2400 E23.04695
G0 F7200 X31.713 Y37.035
G0 X32.006 Y42.358
G1 F2400 E28.04695
G1 F1200 X31.923 Y42.3 E28.05395
G1 X31.571 Y42.054 E28.07897
G1 X31.316 Y41.799 E28.10003
G1 X31.196 Y41.679 E28.11046
G1 X30.892 Y41.244 E28.14117
G1 X30.824 Y41.098 E28.15111
G1 X30.678 Y40.786 E28.17129
G1 X30.564 Y40.361 E28.19696
G1 X30.539 Y40.268 E28.20363
G1 X30.49 Y39.708 E28.2362
G1 X30.49 Y39.642 E28.24077
G1 X30.49 Y37.16 E28.38529
G1 X30.49 Y35.367 E28.50933
G1 X30.49 Y35.256 E28.51672
G1 X30.49 Y34.642 E28.55421
G1 X30.49 Y32.16 E28.69874
G1 X30.49 Y31.84 E28.72087
G1 X30.49 Y30.597 E28.79325
G1 X30.49 Y28.806 E28.90102
G1 X30.49 Y28.642 E28.91175
G1 X30.49 Y26.84 E29.03642
G1 X30.49 Y25.597 E29.10879
G1 X30.49 Y24.292 E29.18665
G1 X30.539 Y23.732 E29.22029
G1 X30.678 Y23.214 E29.25186
G1 X30.803 Y22.945 E29.26942
G1 X30.892 Y22.756 E29.28163
G1 X31.196 Y22.321 E29.31239
G1 X31.282 Y22.235 E29.32081
G1 X31.571 Y21.946 E29.34461
G1 X31.884 Y21.728 E29.36686
G1 X32.006 Y21.642 E29.3762
G1 X32.464 Y21.428 E29.4056
G1 X32.665 Y21.374 E29.41816
G1 X32.982 Y21.289 E29.43745
G1 X33.386 Y21.254 E29.46125
G1 X33.542 Y21.24 E29.47066
G1 X50.458 Y21.24 E30.48497
G1 X51.018 Y21.289 E30.51877
G1 X51.536 Y21.428 E30.55022
G1 X51.805 Y21.553 E30.56775
G1 X51.994 Y21.642 E30.57996
G1 X52.429 Y21.946 E30.61073
G1 X52.515 Y22.032 E30.61914
G1 X52.804 Y22.321 E30.64295
G1 X53.022 Y22.634 E30.66519
G1 X53.108 Y22.756 E30.67453
G1 X53.322 Y23.214 E30.70393
G1 X53.376 Y23.415 E30.71649
G1 X53.461 Y23.732 E30.73579
G1 X53.496 Y24.136 E30.75958
G1 X53.51 Y24.292 E30.76898
G1 X53.51 Y26.84 E30.91735
G1 X53.51 Y28.62 E31.04049
G1 X53.51 Y29.172 E31.07562
G1 X53.51 Y31.84 E31.23098
G1 X53.51 Y32.16 E31.25311
G1 X53.51 Y33.403 E31.32549
G1 X53.51 Y35.194 E31.43326
G1 X53.51 Y35.358 E31.44399
G1 X53.51 Y37.16 E31.56866
G1 X53.51 Y38.403 E31.64103
G1 X53.51 Y39.708 E31.71889
G1 X53.461 Y40.268 E31.75253
G1 X53.322 Y40.786 E31.7841
G1 X53.197 Y41.055 E31.80166
G1 X53.108 Y41.244 E31.81387
G1 X52.804 Y41.679 E31.84463
G1 X52.718 Y41.765 E31.85305
G1 X52.429 Y42.054 E31.87685
G1 X52.117 Y42.272 E31.89904
G1 X51.996 Y42.357 E31.90831
G1 X51.557 Y42.563 E31.93654
G1 X51.307 Y42.613 E31.95176
G1 X50.661 Y42.745 E31.9879
G1 X50.612 Y42.755 E31.99136
G1 X33.542 Y42.76 E32.97979
G1 X33.391 Y42.747 E32.9889
G1 X32.982 Y42.711 E33.01296
G1 X32.705 Y42.637 E33.0299
G1 X32.464 Y42.572 E33.04482
G1 X32.006 Y42.358 E33.07433
G1 F2400 E28.07433
G0 F7200 X32.06 Y42.244
G0 X31.082 Y36.66
G1 F2400 E33.07433
G1 F600 X30.99 Y36.66 E33.08069
G1 X30.99 Y36.528 E33.08983
G0 F7200 X31.082 Y36.66
G1 F2400 E28.08983
G0 F7200 X30.99 Y27.471
G1 F2400 E33.08983
G1 F600 X30.99 Y27.34 E33.09889
G1 X31.078 Y27.34 E33.10498
G0 F7200 X30.99 Y27.471
G1 F2400 E28.10498
G0 F7200 X52.913 Y27.34
G1 F2400 E33.10498
G1 F600 X53.01 Y27.34 E33.11169
G1 X53.01 Y27.455 E33.11964
G0 F7200 X52.913 Y27.34
G1 F2400 E28.11964
G0 F7200 X52.922 Y36.66
G1 F2400 E33.11964
G1 F600 X53.01 Y36.529 E33.13056
G0 F7200 X52.922 Y36.66
G1 F2400 E28.13056
G0 F7200 X51.019 Y37.235
;TYPE:SKIN
G1 F2400 E33.13056
G1 F1200 X32.986 Y37.238 E34.16602
G1 F2400 E29.16602
G0 F7200 X32.936 Y37.398
G0 X32.98 Y26.764
G1 F2400 E34.16602
G1 F1200 X51.018 Y26.762 E35.20177
G0 F7200 X51.132 Y26.616
G1 F2400 E30.20177
;MESH:Object 3
G0 F7200 X51.234 Y26.649
G0 X31.751 Y69.791
;TYPE:WALL-OUTER
G1 F2400 E35.20177
G1 F1200 X31.247 Y69.438 E35.24434
G1 X30.812 Y69.003 E35.2869
G1 X30.459 Y68.499 E35.32947
G1 X30.206 Y67.957 E35.37085
G1 X30.045 Y67.355 E35.41396
G1 X29.99 Y66.729 E35.45743
G1 X29.99 Y51.271 E36.52683
G1 X30.045 Y50.645 E36.57031
G1 X30.206 Y50.043 E36.61342
G1 X30.459 Y49.501 E36.6548
G1 X30.812 Y48.997 E36.69737
G1 X31.247 Y48.562 E36.73992
G1 X31.751 Y48.209 E36.78249
G1 X32.293 Y47.956 E36.82387
G1 X32.895 Y47.795 E36.86698
G1 X33.521 Y47.74 E36.91046
G1 X50.479 Y47.74 E38.08363
G1 X51.105 Y47.795 E38.12711
G1 X51.707 Y47.956 E38.17022
G1 X52.249 Y48.209 E38.2116
G1 X52.753 Y48.562 E38.25416
G1 X53.188 Y48.997 E38.29672
G1 X53.541 Y49.501 E38.33929
G1 X53.794 Y50.043 E38.38067
G1 X53.955 Y50.645 E38.42378
G1 X54.01 Y51.271 E38.46726
G1 X54.01 Y66.729 E39.53666
G1 X53.955 Y67.355 E39.58013
G1 X53.794 Y67.957 E39.62324
G1 X53.541 Y68.499 E39.66462
G1 X53.188 Y69.003 E39.70719
G1 X52.753 Y69.438 E39.74975
G1 X52.249 Y69.791 E39.79232
G1 X51.716 Y70.041 E39.83305
G1 X50.662 Y70.255 E39.90745
G1 X33.521 Y70.26 E41.09329
G1 X32.895 Y70.205 E41.13676
G1 X32.293 Y70.044 E41.17987
G1 X31.751 Y69.791 E41.22125
G0 F7200 X31.588 Y69.677
G0 X31.903 Y69.227
G1 F2400 E36.22125
G0 F7200 X31.946 Y69.165
G0 X31.41 Y53.34
G1 F2400 E41.22125
G1 F1200 X52.59 Y53.34 E42.68651
G1 X52.59 Y51.208 E42.834
G1 X52.511 Y50.66 E42.8723
G1 X52.271 Y50.131 E42.91249
G1 X51.898 Y49.689 E42.9525
G1 X51.417 Y49.366 E42.99258
G1 X50.857 Y49.184 E43.03332
G1 X33.458 Y49.16 E44.237
G1 X32.91 Y49.239 E44.27531
G1 X32.381 Y49.479 E44.31549
G1 X31.939 Y49.852 E44.3555
G1 X31.616 Y50.333 E44.39559
G1 X31.436 Y50.889 E44.43602
G1 X31.41 Y52.601 E44.55447
G1 X31.41 Y53.34 E44.60559
G0 F7200 X31.61 Y53.34
G0 X31.61 Y53.89
G1 F2400 E39.60559
G0 F7200 X31.61 Y53.965
G0 X31.41 Y58.34
G1 F2400 E44.60559
G1 F1200 X52.59 Y58.34 E46.07085
G1 X52.59 Y56.208 E46.21834
G1 X52.511 Y55.66 E46.25665
G1 X52.271 Y55.131 E46.29683
G1 X51.898 Y54.689 E46.33684
G1 X51.417 Y54.366 E46.37693
G1 X50.857 Y54.184 E46.41766
G1 X33.458 Y54.16 E47.62135
G1 X32.91 Y54.239 E47.65965
G1 X32.381 Y54.479 E47.69984
G1 X31.939 Y54.852 E47.73985
G1 X31.616 Y55.333 E47.77993
G1 X31.436 Y55.889 E47.82036
G1 X31.41 Y57.601 E47.93881
G1 X31.41 Y58.34 E47.98994
G0 F7200 X31.61 Y58.34
G0 X30.91 Y58.84
;TYPE:WALL-INNER
G1 F1200 X53.09 Y58.84 E49.52437
G1 X53.09 Y56.172 E49.70895
G1 X53.012 Y55.626 E49.7471
G1 X52.996 Y55.518 E49.75466
G1 X52.698 Y54.861 E49.80457
G1 X52.253 Y54.334 E49.85228
G1 X52.235 Y54.313 E49.8542
G1 X51.638 Y53.912 E49.90395
G1 X51.417 Y53.84 E49.92003
G0 F7200 X51.638 Y53.84
G1 F1200 X52.235 Y53.84 E49.93932
G1 X52.263 Y53.84 E49.94119
G1 X53.09 Y53.84 E49.99841
G1 X53.09 Y51.292 E50.17468
G1 X53.09 Y51.172 E50.18298
G1 X53.036 Y50.794 E50.2094
G1 X52.996 Y50.518 E50.22869
G1 X52.938 Y50.389 E50.23848
G1 X52.729 Y49.929 E50.27343
G1 X52.698 Y49.861 E50.2786
G1 X52.476 Y49.599 E50.30236
G1 X52.235 Y49.313 E50.32823
G1 X51.759 Y48.993 E50.36791
G1 X51.638 Y48.912 E50.37799
G1 X51.404 Y48.836 E50.39501
G1 X50.937 Y48.684 E50.42898
G1 X50.458 Y48.684 E50.46212
G1 X33.542 Y48.661 E51.63239
G1 X33.422 Y48.66 E51.64069
G1 X33.044 Y48.714 E51.66711
G1 X32.768 Y48.754 E51.6864
G1 X32.639 Y48.812 E51.69618
G1 X32.179 Y49.021 E51.73114
G1 X32.111 Y49.052 E51.73631
G1 X31.849 Y49.274 E51.76007
G1 X31.563 Y49.515 E51.78594
G1 X31.243 Y49.991 E51.82562
G1 X31.162 Y50.112 E51.83569
G1 X31.087 Y50.346 E51.85269
G1 X30.937 Y50.806 E51.88616
G1 X30.93 Y51.298 E51.92021
G1 X30.91 Y52.597 E52.01008
G1 X30.91 Y53.84 E52.09607
G1 X31.719 Y53.84 E52.15204
G1 X32.111 Y53.84 E52.17916
G1 X32.578 Y53.84 E52.21147
G1 F2400 E47.21147
G0 F7200 X32.481 Y53.747
G0 X31.563 Y54.515
G1 F2400 E52.21147
G1 F1200 X31.162 Y55.112 E52.26122
G1 X30.987 Y55.65 E52.30036
G1 X30.937 Y55.806 E52.31169
G1 X30.91 Y57.597 E52.43561
G1 X30.91 Y58.84 E52.5216
G0 F7200 X31.41 Y59.66
;TYPE:WALL-OUTER
G1 F1200 X31.41 Y61.625 E52.65754
G1 X31.446 Y62.157 E52.69443
G1 X31.632 Y62.701 E52.73421
G1 X31.964 Y63.176 E52.7743
G1 X32.413 Y63.54 E52.81429
G1 X32.943 Y63.769 E52.85423
G1 X33.46 Y63.84 E52.89033
G1 X50.542 Y63.84 E54.07208
G1 X51.09 Y63.761 E54.11038
G1 X51.619 Y63.521 E54.15057
G1 X52.061 Y63.148 E54.19058
G1 X52.384 Y62.667 E54.23067
G1 X52.564 Y62.111 E54.2711
G1 X52.59 Y60.399 E54.38955
G1 X52.59 Y59.66 E54.44067
G1 X31.41 Y59.66 E55.90593
G0 F7200 X31.41 Y59.86
G0 X30.86 Y59.86
G1 F2400 E50.90593
G0 F7200 X30.785 Y59.86
G0 X31.41 Y64.66
G1 F2400 E55.90593
G1 F1200 X31.41 Y66.625 E56.04187
G1 X31.446 Y67.157 E56.07876
G1 X31.632 Y67.701 E56.11853
G1 X31.964 Y68.176 E56.15862
G1 X32.413 Y68.54 E56.19861
G1 X32.943 Y68.769 E56.23855
G1 X33.46 Y68.84 E56.27465
G1 X50.542 Y68.84 E57.45641
