;FLAVOR:Marlin
;TIME:4541
;Filament used: 8.85461m
;Layer height: 0.28
;MINX:70.251
;MINY:94.951
;MINZ:0.32
;MAXX:129.749
;MAXY:105.034
;MAXZ:69.76

;POSTPROCESSED
;Generated with Cura_SteamEngine mb-master-20200510
M82 ;absolute extrusion mode
;
; Crashspace Printer Farm MP10 Mini (C. Nicks Start Code + John Gwinner Probe Code)
;______________________________________________
;Sliced at: Wed 13-05-2020 13:58:41
;Layer Height: 0.28
;Line Width: 0.5
;Flow: 112
;Z-Hop: False
;______________________________________________
;
M140 S50 ; set bed temp
M104 S160.0 T0 ; set extruder park temp to warm but not ooze during bed probing
M190 S50 ; wait for bed temp
G28 ; home all axis
;G29 P1; probes mesh
;G29 P3; fill in mesh that can't be reached is good
;G29 S0 ; save mesh
;G29 F 10.0 ;prints linear above this height
;G29 A ; use UBL
M104 S260 T0 ; set extruder temp
G92 E0;(Reset the extruder to 0)
G0 X0 Y0 Z2 F1500; (set into park)
M109 S240 T0 ; wait for extruder temp
G92 E0
G1 E7 F300; (Unretract from last ending code, plus add some for ooze)
;PRIME
G0 X0 Y0 Z0.2 F1500; (Knock off ooze)
G0 X2 Y0 Z0.4 F1500; (Knock off ooze)
G0 X3 Y0 Z1.0 F1500; (Knock off ooze)
G0 X5 Y0 Z0.32 F1000; (Lower into prime)
G91
G1 X5 Y+20 F1000 E5  ;PRIME
G1 X+0.5 ;PRIME
G1 Y-20 F1000 E5  ;PRIME
G90
; Mini nozzle can't hang over edge to catch ooze
;G0 X0 F1500; (Knock off ooze)
;G0 X0 Z0.2 F1500; (Knock off ooze)
;G0 X2 Z0.4 F1500; (Knock off ooze)
;G0 X3 Z1.0 F1500; (Knock off ooze)
G92 E0
;AND GO!!!!
G92 E0
G92 E0
G1 F2400 E-5
;LAYER_COUNT:249

;LAYER:0
M107
;MESH:TempTower_MP10_260-200.stl
;Post-processing: Vary Temp with Height by Fernando Chorney
M104 S260
G0 F7200 X78.972 Y102.271 Z0.32
;TYPE:WALL-INNER
G1 F2400 E0
G1 F1200 X78.972 Y97.931 E0.33628
G1 X124.935 Y97.931 E3.89762
G1 X125.282 Y97.955 E3.92457
G1 X125.385 Y97.971 E3.93265
G1 X125.997 Y98.179 E3.98273
G1 X126.065 Y98.213 E3.98862
G1 X126.324 Y98.388 E4.01284
G1 X126.455 Y98.495 E4.02594
G1 X126.596 Y98.636 E4.04139
G1 X126.795 Y98.89 E4.0664
G1 X126.878 Y99.015 E4.07802
G1 X126.972 Y99.202 E4.09424
G1 X127.076 Y99.492 E4.11811
G1 X127.115 Y99.635 E4.1296
G1 X127.16 Y99.955 E4.15463
G1 X127.167 Y100.08 E4.16433
G1 X127.144 Y100.397 E4.18896
G1 X127.124 Y100.526 E4.19908
G1 X127.04 Y100.82 E4.22277
G1 X126.946 Y101.048 E4.24188
G1 X126.885 Y101.171 E4.25251
G1 X126.723 Y101.41 E4.27489
G1 X126.561 Y101.602 E4.29435
G1 X126.456 Y101.708 E4.30591
G1 X126.243 Y101.873 E4.32679
G1 X126.062 Y101.992 E4.34357
G1 X125.896 Y102.076 E4.35799
G1 X125.615 Y102.179 E4.38118
G1 X125.479 Y102.215 E4.39208
G1 X125.151 Y102.261 E4.41774
G1 X124.952 Y102.272 E4.43318
G1 X122 Y102.271 E4.66191
G1 X78.972 Y102.271 E7.99584
G0 F7200 X78.472 Y102.771
G1 F1200 X78.472 Y97.431 E8.4096
G1 X124.954 Y97.431 E12.01116
G1 X125.338 Y97.457 E12.04098
G1 X125.508 Y97.484 E12.05431
G1 X126.189 Y97.715 E12.11003
G1 X126.318 Y97.781 E12.12126
G1 X126.629 Y97.991 E12.15034
G1 X126.792 Y98.123 E12.16659
G1 X126.969 Y98.301 E12.18604
G1 X127.197 Y98.592 E12.21468
G1 X127.313 Y98.768 E12.23101
G1 X127.431 Y99.003 E12.25139
G1 X127.556 Y99.349 E12.27989
G1 X127.605 Y99.53 E12.29442
G1 X127.658 Y99.904 E12.32369
G1 X127.668 Y100.089 E12.33805
G1 X127.642 Y100.45 E12.36609
G1 X127.613 Y100.635 E12.3806
G1 X127.515 Y100.979 E12.40832
G1 X127.399 Y101.261 E12.43194
G1 X127.318 Y101.423 E12.44598
G1 X127.12 Y101.716 E12.47338
G1 X126.933 Y101.937 E12.49581
G1 X126.789 Y102.082 E12.51164
G1 X126.527 Y102.285 E12.53732
G1 X126.319 Y102.422 E12.55662
G1 X126.095 Y102.535 E12.57606
G1 X125.762 Y102.657 E12.60354
G1 X125.579 Y102.706 E12.61822
G1 X125.202 Y102.759 E12.64772
G1 X124.96 Y102.772 E12.66649
G1 X122 Y102.771 E12.89584
G1 X78.472 Y102.771 E16.26851
G0 F7200 X77.972 Y103.271
G1 F1200 X77.972 Y96.931 E16.75976
G1 X124.973 Y96.931 E20.40153
G1 X125.396 Y96.96 E20.43438
G1 X125.628 Y96.997 E20.45258
G1 X126.383 Y97.252 E20.51433
G1 X126.572 Y97.349 E20.53079
G1 X126.928 Y97.59 E20.5641
G1 X127.127 Y97.751 E20.58393
G1 X127.345 Y97.97 E20.60787
G1 X127.605 Y98.302 E20.64055
G1 X127.747 Y98.518 E20.66058
G1 X127.89 Y98.802 E20.68521
G1 X128.033 Y99.196 E20.71769
G1 X128.096 Y99.431 E20.73654
G1 X128.156 Y99.851 E20.76941
G1 X128.169 Y100.099 E20.78866
G1 X128.14 Y100.503 E20.82004
G1 X128.102 Y100.746 E20.8391
G1 X127.988 Y101.144 E20.87118
G1 X127.857 Y101.463 E20.8979
G1 X127.75 Y101.676 E20.91636
G1 X127.519 Y102.019 E20.94841
G1 X127.305 Y102.272 E20.97408
G1 X127.119 Y102.459 E20.99452
G1 X126.818 Y102.693 E21.02406
G1 X126.573 Y102.854 E21.04677
G1 X126.298 Y102.993 E21.07065
G1 X125.911 Y103.135 E21.10259
G1 X125.676 Y103.197 E21.12142
G1 X125.253 Y103.257 E21.15452
G1 X124.967 Y103.272 E21.17672
G1 X122 Y103.271 E21.40661
G1 X77.972 Y103.271 E24.81802
G0 F7200 X77.472 Y103.771
;TYPE:WALL-OUTER
G1 F1200 X77.472 Y96.431 E25.38674
G1 X124.994 Y96.431 E29.06888
G1 X125.454 Y96.463 E29.10461
G1 X125.748 Y96.51 E29.12768
G1 X126.576 Y96.789 E29.19538
G1 X126.83 Y96.919 E29.21749
G1 X127.222 Y97.185 E29.25419
G1 X127.462 Y97.379 E29.27811
G1 X127.72 Y97.638 E29.30643
G1 X128.011 Y98.009 E29.34297
G1 X128.182 Y98.27 E29.36714
G1 X128.35 Y98.605 E29.39618
G1 X128.511 Y99.046 E29.43256
G1 X128.587 Y99.329 E29.45526
G1 X128.654 Y99.798 E29.49197
G1 X128.67 Y100.108 E29.51602
G1 X128.638 Y100.558 E29.55098
G1 X128.591 Y100.857 E29.57443
G1 X128.461 Y101.309 E29.61087
G1 X128.313 Y101.67 E29.6411
G1 X128.184 Y101.926 E29.66331
G1 X127.918 Y102.322 E29.70027
G1 X127.677 Y102.607 E29.72919
G1 X127.453 Y102.833 E29.75385
G1 X127.102 Y103.105 E29.78826
G1 X126.83 Y103.284 E29.81349
G1 X126.497 Y103.452 E29.84238
G1 X126.058 Y103.613 E29.87861
G1 X125.776 Y103.688 E29.90122
G1 X125.304 Y103.755 E29.93816
G1 X124.974 Y103.772 E29.96377
G1 X122 Y103.771 E30.1942
G1 X77.472 Y103.771 E33.64435
G0 F7200 X77.472 Y103.571
G0 X78.022 Y103.221
G1 F2400 E28.64435
G0 F7200 X79.462 Y101.781
;TYPE:SKIN
G1 F2400 E33.64435
G1 F1200 X79.462 Y98.421 E33.8954
G1 X124.929 Y98.421 E37.29249
G1 X125.265 Y98.447 E37.31767
G1 X125.822 Y98.641 E37.36174
G1 X126.026 Y98.778 E37.3801
G1 X126.123 Y98.857 E37.38945
G1 X126.232 Y98.966 E37.40096
G1 X126.409 Y99.192 E37.42241
G1 X126.454 Y99.261 E37.42857
G1 X126.52 Y99.392 E37.43953
G1 X126.609 Y99.639 E37.45914
G1 X126.633 Y99.726 E37.46589
G1 X126.671 Y100.002 E37.4867
G1 X126.676 Y100.087 E37.49306
G1 X126.658 Y100.336 E37.51172
G1 X126.645 Y100.419 E37.51799
G1 X126.576 Y100.661 E37.5368
G1 X126.507 Y100.83 E37.55043
G1 X126.459 Y100.925 E37.55839
G1 X126.331 Y101.116 E37.57557
G1 X126.212 Y101.257 E37.58935
G1 X126.128 Y101.342 E37.59828
G1 X125.957 Y101.474 E37.61442
G1 X125.811 Y101.57 E37.62748
G1 X125.703 Y101.624 E37.6365
G1 X125.469 Y101.711 E37.65515
G1 X125.388 Y101.732 E37.6614
G1 X125.102 Y101.773 E37.68299
G1 X124.925 Y101.782 E37.69623
G1 X122 Y101.781 E37.91477
G1 X79.462 Y101.781 E41.09302
G0 F7200 X80.367 Y101.58
G1 F1200 X79.661 Y100.875 E41.16757
G0 F7200 X79.661 Y100.168
G1 F1200 X81.074 Y101.58 E41.31682
G0 F7200 X81.781 Y101.58
G1 F1200 X79.661 Y99.46 E41.54083
G0 F7200 X79.661 Y98.753
G1 F1200 X82.488 Y101.58 E41.83954
G0 F7200 X83.196 Y101.58
G1 F1200 X80.236 Y98.62 E42.1523
G0 F7200 X80.943 Y98.62
G1 F1200 X83.903 Y101.58 E42.46507
G0 F7200 X84.61 Y101.58
G1 F1200 X81.65 Y98.62 E42.77783
G0 F7200 X82.357 Y98.62
G1 F1200 X85.317 Y101.58 E43.0906
G0 F7200 X86.024 Y101.58
G1 F1200 X83.064 Y98.62 E43.40336
G0 F7200 X83.771 Y98.62
G1 F1200 X86.731 Y101.58 E43.71613
G0 F7200 X87.438 Y101.58
G1 F1200 X84.478 Y98.62 E44.02889
G0 F7200 X85.185 Y98.62
G1 F1200 X88.145 Y101.58 E44.34166
G0 F7200 X88.852 Y101.58
G1 F1200 X85.892 Y98.62 E44.65442
G0 F7200 X86.6 Y98.62
G1 F1200 X89.56 Y101.58 E44.96719
G0 F7200 X90.267 Y101.58
G1 F1200 X87.307 Y98.62 E45.27995
G0 F7200 X88.014 Y98.62
G1 F1200 X90.974 Y101.58 E45.59272
G0 F7200 X91.681 Y101.58
G1 F1200 X88.721 Y98.62 E45.90548
G0 F7200 X89.428 Y98.62
G1 F1200 X92.388 Y101.58 E46.21825
G0 F7200 X93.095 Y101.58
G1 F1200 X90.135 Y98.62 E46.53101
G0 F7200 X90.842 Y98.62
G1 F1200 X93.802 Y101.58 E46.84378
G0 F7200 X94.509 Y101.58
G1 F1200 X91.549 Y98.62 E47.15654
G0 F7200 X92.256 Y98.62
G1 F1200 X95.216 Y101.58 E47.4693
G0 F7200 X95.923 Y101.58
G1 F1200 X92.964 Y98.62 E47.78202
G0 F7200 X93.671 Y98.62
G1 F1200 X96.631 Y101.58 E48.09478
G0 F7200 X97.338 Y101.58
G1 F1200 X94.378 Y98.62 E48.40755
G0 F7200 X95.085 Y98.62
G1 F1200 X98.045 Y101.58 E48.72031
G0 F7200 X98.752 Y101.58
G1 F1200 X95.792 Y98.62 E49.03308
G0 F7200 X96.499 Y98.62
G1 F1200 X99.459 Y101.58 E49.34584
G0 F7200 X100.166 Y101.58
G1 F1200 X97.206 Y98.62 E49.65861
G0 F7200 X97.913 Y98.62
G1 F1200 X100.873 Y101.58 E49.97137
G0 F7200 X101.58 Y101.58
G1 F1200 X98.62 Y98.62 E50.28413
G0 F7200 X99.327 Y98.62
G1 F1200 X102.287 Y101.58 E50.5969
G0 F7200 X102.995 Y101.58
G1 F1200 X100.035 Y98.62 E50.90966
G0 F7200 X100.742 Y98.62
G1 F1200 X103.702 Y101.58 E51.22243
G0 F7200 X104.409 Y101.58
G1 F1200 X101.449 Y98.62 E51.53519
G0 F7200 X102.156 Y98.62
G1 F1200 X105.116 Y101.58 E51.84796
G0 F7200 X105.823 Y101.58
G1 F1200 X102.863 Y98.62 E52.16072
G0 F7200 X103.57 Y98.62
G1 F1200 X106.53 Y101.58 E52.47349
G0 F7200 X107.237 Y101.58
G1 F1200 X104.277 Y98.62 E52.78625
G0 F7200 X104.984 Y98.62
G1 F1200 X107.944 Y101.58 E53.09902
G0 F7200 X108.651 Y101.58
G1 F1200 X105.691 Y98.62 E53.41178
G0 F7200 X106.399 Y98.62
G1 F1200 X109.359 Y101.58 E53.72455
G0 F7200 X110.066 Y101.58
G1 F1200 X107.106 Y98.62 E54.03731
G0 F7200 X107.813 Y98.62
G1 F1200 X110.773 Y101.58 E54.35008
G0 F7200 X111.48 Y101.58
G1 F1200 X108.52 Y98.62 E54.66284
G0 F7200 X109.227 Y98.62
G1 F1200 X112.187 Y101.58 E54.97561
G0 F7200 X112.894 Y101.58
G1 F1200 X109.934 Y98.62 E55.28837
G0 F7200 X110.641 Y98.62
G1 F1200 X113.601 Y101.58 E55.60114
G0 F7200 X114.308 Y101.58
G1 F1200 X111.348 Y98.62 E55.9139
G0 F7200 X112.055 Y98.62
G1 F1200 X115.015 Y101.58 E56.22667
G0 F7200 X115.722 Y101.58
G1 F1200 X112.763 Y98.62 E56.53938
G0 F7200 X113.47 Y98.62
G1 F1200 X116.43 Y101.58 E56.85214
G0 F7200 X117.137 Y101.58
G1 F1200 X114.177 Y98.62 E57.16491
G0 F7200 X114.884 Y98.62
G1 F1200 X117.844 Y101.58 E57.47767
G0 F7200 X118.551 Y101.58
G1 F1200 X115.591 Y98.62 E57.79044
G0 F7200 X116.298 Y98.62
G1 F1200 X119.258 Y101.58 E58.1032
G0 F7200 X119.965 Y101.58
G1 F1200 X117.005 Y98.62 E58.41597
G0 F7200 X117.712 Y98.62
G1 F1200 X120.672 Y101.58 E58.72873
G0 F7200 X121.379 Y101.58
G1 F1200 X118.419 Y98.62 E59.0415
G0 F7200 X119.126 Y98.62
G1 F1200 X122.086 Y101.58 E59.35426
G0 F7200 X122.794 Y101.58
G1 F1200 X119.834 Y98.62 E59.66702
G0 F7200 X120.541 Y98.62
G1 F1200 X123.501 Y101.581 E59.97984
G0 F7200 X124.208 Y101.581
G1 F1200 X121.248 Y98.62 E60.29266
G0 F7200 X121.955 Y98.62
G1 F1200 X124.916 Y101.581 E60.60553
G0 F7200 X125.519 Y101.478
G1 F1200 X122.662 Y98.62 E60.90746
G0 F7200 X123.369 Y98.62
G1 F1200 X125.964 Y101.215 E61.18166
G0 F7200 X126.282 Y100.827
G1 F1200 X124.076 Y98.62 E61.41481
G0 F7200 X124.783 Y98.62
G1 F1200 X126.461 Y100.298 E61.59211
G0 F7200 X126.329 Y99.459
M104 S260
G1 F1200 X125.669 Y98.799 E61.66185
G1 F2400 E56.66185
;MESH:NONMESH
G0 F600 X125.669 Y98.799 Z0.6
G0 F7200 X78.749 Y102.811
;TIME_ELAPSED:46.315783

;LAYER:1
M140 S45
M106 S204
;TYPE:WALL-INNER
;MESH:TempTower_MP10_260-200.stl
G1 F2400 E61.66185
G1 X78.748 Y97.64 E61.99895
G1 X78.748 Y97.391 E62.01518
G0 F9000 X78.997 Y97.391
G1 F2400 X124.958 Y97.391 E65.01137
G1 X125.288 Y97.41 E65.03292
G1 X125.55 Y97.45 E65.0502
G1 X125.813 Y97.521 E65.06796
G1 X126.253 Y97.706 E65.09907
G1 X126.456 Y97.823 E65.11435
G1 X126.821 Y98.095 E65.14402
G1 X127.005 Y98.281 E65.16108
G1 X127.196 Y98.518 E65.18092
G1 X127.343 Y98.741 E65.19833
G1 X127.471 Y98.995 E65.21687
G1 X127.577 Y99.271 E65.23615
G1 X127.65 Y99.541 E65.25438
G1 X127.692 Y99.816 E65.27251
G1 X127.708 Y100.101 E65.29112
G1 X127.692 Y100.39 E65.30999
G1 X127.651 Y100.662 E65.32792
G1 X127.576 Y100.936 E65.34644
G1 X127.473 Y101.204 E65.36516
G1 X127.344 Y101.461 E65.38391
G1 X127.194 Y101.689 E65.4017
G1 X127.023 Y101.902 E65.4195
G1 X126.799 Y102.126 E65.44015
G1 X126.591 Y102.293 E65.45754
G1 X126.356 Y102.448 E65.4759
G1 X126.101 Y102.576 E65.4945
G1 X125.846 Y102.674 E65.5123
G1 X125.552 Y102.753 E65.53215
G1 X125.288 Y102.793 E65.54956
G1 X124.958 Y102.812 E65.57111
G1 X78.749 Y102.811 E68.58346
G0 F9000 X78.249 Y103.311
G1 F2400 X78.248 Y97.14 E68.98575
G1 X78.248 Y96.891 E69.00198
G0 F9000 X78.497 Y96.891
G1 F2400 X124.968 Y96.891 E72.03142
G1 X125.339 Y96.912 E72.05564
G1 X125.66 Y96.961 E72.07681
G1 X125.974 Y97.046 E72.09802
G1 X126.475 Y97.257 E72.13346
G1 X126.73 Y97.404 E72.15265
G1 X127.045 Y97.635 E72.17811
G1 X127.157 Y97.724 E72.18744
G1 X127.378 Y97.947 E72.2079
G1 X127.6 Y98.222 E72.23094
G1 X127.775 Y98.489 E72.25175
G1 X127.931 Y98.798 E72.27432
G1 X128.054 Y99.118 E72.29667
G1 X128.139 Y99.432 E72.31787
G1 X128.19 Y99.764 E72.33977
G1 X128.209 Y100.101 E72.36178
G1 X128.19 Y100.44 E72.38391
G1 X128.14 Y100.769 E72.4056
G1 X128.052 Y101.089 E72.42724
G1 X127.932 Y101.404 E72.44921
G1 X127.776 Y101.713 E72.47178
G1 X127.597 Y101.986 E72.49306
G1 X127.393 Y102.24 E72.5143
G1 X127.138 Y102.495 E72.53781
G1 X126.883 Y102.7 E72.55913
G1 X126.606 Y102.882 E72.58074
G1 X126.306 Y103.033 E72.60264
G1 X126.001 Y103.15 E72.62393
G1 X125.66 Y103.242 E72.64696
G1 X125.339 Y103.291 E72.66812
G1 X124.968 Y103.312 E72.69235
M106 S255
G1 X78.249 Y103.311 E75.73795
G1 F2400 E70.73795
G0 F9000 X77.748 Y96.64
G1 F2400 E75.73795
G1 X77.748 Y96.391 E75.75419
G0 F9000 X77.997 Y96.391
;TYPE:WALL-INNER
;BRIDGE
G1 F1080 X124.978 Y96.391 E77.94182
;TYPE:WALL-INNER
M106 S204
G1 F2400 X125.391 Y96.414 E77.96878
G1 X125.767 Y96.472 E77.99358
G1 X126.137 Y96.572 E78.01857
G1 X126.697 Y96.808 E78.05819
G1 X127.004 Y96.985 E78.08129
G1 X127.341 Y97.232 E78.10853
G1 X127.493 Y97.353 E78.12119
G1 X127.751 Y97.613 E78.14507
G1 X128.004 Y97.927 E78.17136
G1 X128.209 Y98.24 E78.19575
G1 X128.389 Y98.596 E78.22175
G1 X128.528 Y98.959 E78.24709
G1 X128.629 Y99.328 E78.27203
G1 X128.688 Y99.711 E78.29729
G1 X128.71 Y100.101 E78.32276
G1 X128.688 Y100.492 E78.34829
G1 X128.629 Y100.875 E78.37355
G1 X128.528 Y101.242 E78.39836
G1 X128.389 Y101.608 E78.42389
G1 X128.21 Y101.962 E78.44975
G1 X128 Y102.282 E78.4747
G1 X127.763 Y102.578 E78.49942
G1 X127.477 Y102.864 E78.52578
G1 X127.18 Y103.103 E78.55064
G1 X126.858 Y103.314 E78.57573
G1 X126.503 Y103.493 E78.60165
G1 X126.156 Y103.626 E78.62588
G1 X125.767 Y103.731 E78.65214
G1 X125.391 Y103.789 E78.67694
G1 X124.978 Y103.812 E78.70391
;TYPE:WALL-INNER
;BRIDGE
M106 S255
G1 F1080 X77.749 Y103.811 E80.90309
;TYPE:WALL-INNER
M106 S204
G1 F2400 X77.749 Y103.771 E80.9057
G1 X77.748 Y96.64 E81.37057
G1 F2400 E76.37057
G0 F9000 X77.248 Y104.311
;TYPE:WALL-OUTER
G1 F2400 E81.37057
G1 F600 X77.249 Y103.922 E81.39592
G1 F2091.9 X77.249 Y103.771 E81.40577
M106 S255
G1 X77.248 Y96.141 E81.90317
G1 F600 X77.248 Y95.891 E81.91946
G0 F9000 X77.498 Y95.891
;TYPE:WALL-OUTER
;BRIDGE
G1 F1080 X124.987 Y95.891 E84.13075
;TYPE:WALL-OUTER
M106 S204
G1 F600 X125.444 Y95.916 E84.16059
G1 X125.877 Y95.983 E84.18915
G1 X126.298 Y96.097 E84.21758
G1 X126.919 Y96.359 E84.26152
G1 X127.278 Y96.566 E84.28854
G1 X127.653 Y96.841 E84.31885
G1 X127.825 Y96.978 E84.33319
G1 X128.124 Y97.279 E84.36084
G1 X128.408 Y97.631 E84.39033
G1 X128.646 Y97.994 E84.41863
G1 X128.846 Y98.391 E84.4476
G1 X129.003 Y98.8 E84.47616
G1 X129.119 Y99.225 E84.50488
G1 X129.186 Y99.657 E84.53338
G1 X129.21 Y100.101 E84.56237
G1 X129.186 Y100.546 E84.59142
G1 X129.119 Y100.978 E84.61992
G1 X129.004 Y101.398 E84.64831
G1 X128.846 Y101.813 E84.67725
G1 X128.644 Y102.211 E84.70635
G1 X128.404 Y102.578 E84.73494
G1 X128.133 Y102.916 E84.76318
G1 X127.815 Y103.234 E84.7925
G1 X127.476 Y103.506 E84.82083
G1 X127.107 Y103.748 E84.8496
G1 X126.708 Y103.95 E84.87875
G1 X126.305 Y104.104 E84.90688
G1 X125.877 Y104.22 E84.93578
G1 X125.444 Y104.287 E84.96435
G1 X124.987 Y104.312 E84.99418
;TYPE:WALL-OUTER
;BRIDGE
M106 S255
G1 F1080 X77.248 Y104.311 E87.21711
G0 F9000 X77.248 Y104.111
G0 X77.798 Y103.762
G1 F2400 E82.21711
