;FLAVOR:Marlin
;TIME:4816
;Filament used: 10.5437m
;Layer height: 0.32
;MINX:29.706
;MINY:6.831
;MINZ:0.32
;MAXX:170.278
;MAXY:193.169
;MAXZ:16.96
;Generated with Cura_SteamEngine mb-master-20200424
M82 ;absolute extrusion mode
;
; Crashspace Printer Farm MP10 Mini (C. Nicks Start Code + John Gwinner Probe Code)
;______________________________________________
;Sliced at: Wed 29-04-2020 12:57:07
;Layer Height: 0.32
;Line Width: 0.5
;Flow: 108
;Z-Hop: False
;______________________________________________
;
M140 S60 ; set bed temp
M104 S160.0 T0 ; set extruder park temp to warm but not ooze during bed probing
M190 S60 ; wait for bed temp
G28 ; home all axis
G29 P1; probes mesh
G29 P3; fill in mesh that can't be reached is good
G29 S0 ; save mesh
G29 F 10.0 ;prints linear above this height
G29 A ; use UBL
M104 S240 T0 ; set extruder temp
G92 E0;(Reset the extruder to 0)
G0 X0 Y0 Z2 F1500; (set into park)
M109 S240 T0 ; wait for extruder temp
G92 E0
G1 E7 F300; (Unretract from last ending code, plus add some for ooze)
;PRIME
G0 X0 Y0 Z0.2 F1500; (Knock off ooze)
G0 X2 Y0 Z0.4 F1500; (Knock off ooze)
G0 X3 Y0 Z1.0 F1500; (Knock off ooze)
G0 X5 Y0 Z0.32 F1000; (Lower into prime)
G91
G1 X5 Y+20 F1000 E5  ;PRIME
G1 X+0.5 ;PRIME
G1 Y-20 F1000 E5  ;PRIME
G90
; Mini nozzle can't hang over edge to catch ooze
;G0 X0 F1500; (Knock off ooze)
;G0 X0 Z0.2 F1500; (Knock off ooze)
;G0 X2 Z0.4 F1500; (Knock off ooze)
;G0 X3 Z1.0 F1500; (Knock off ooze)
G92 E0
;AND GO!!!!
G92 E0
G92 E0
G1 F2400 E-5
;LAYER_COUNT:53
;LAYER:0
M107
G1 F600 Z1.32
;MESH:Object 2
G0 F7200 X31.751 Y42.791 Z1.32
;TYPE:WALL-OUTER
G1 F600 Z0.32
G1 F2400 E0
G1 F1200 X31.247 Y42.438 E0.04509
G1 X30.812 Y42.003 E0.09017
G1 X30.459 Y41.499 E0.13526
G1 X30.206 Y40.957 E0.17909
G1 X30.045 Y40.355 E0.22476
G1 X29.99 Y39.729 E0.2708
G1 X29.99 Y24.271 E1.40355
G1 X30.045 Y23.645 E1.4496
G1 X30.206 Y23.043 E1.49526
G1 X30.459 Y22.501 E1.53909
G1 X30.812 Y21.997 E1.58418
G1 X31.247 Y21.562 E1.62926
G1 X31.751 Y21.209 E1.67435
G1 X32.293 Y20.956 E1.71818
G1 X32.895 Y20.795 E1.76385
G1 X33.521 Y20.74 E1.8099
G1 X50.479 Y20.74 E3.05256
G1 X51.105 Y20.795 E3.09861
G1 X51.707 Y20.956 E3.14427
G1 X52.249 Y21.209 E3.1881
G1 X52.753 Y21.562 E3.23319
G1 X53.188 Y21.997 E3.27827
G1 X53.541 Y22.501 E3.32336
G1 X53.794 Y23.043 E3.36719
G1 X53.955 Y23.645 E3.41286
G1 X54.01 Y24.271 E3.45891
G1 X54.01 Y39.729 E4.59165
G1 X53.955 Y40.355 E4.6377
G1 X53.794 Y40.957 E4.68336
G1 X53.541 Y41.499 E4.72719
G1 X53.188 Y42.003 E4.77228
G1 X52.753 Y42.438 E4.81736
G1 X52.249 Y42.791 E4.86245
G1 X51.716 Y43.041 E4.90559
G1 X50.662 Y43.255 E4.98441
G1 X33.521 Y43.26 E6.24048
G1 X32.895 Y43.205 E6.28653
G1 X32.293 Y43.044 E6.33219
G1 X31.751 Y42.791 E6.37602
G0 F7200 X31.588 Y42.677
G0 X31.903 Y42.227
G1 F2400 E1.37602
G0 F7200 X31.946 Y42.165
G0 X31.41 Y26.34
G1 F2400 E6.37602
G1 F1200 X52.59 Y26.34 E7.92806
G1 X52.59 Y24.208 E8.08429
G1 X52.511 Y23.66 E8.12487
G1 X52.271 Y23.131 E8.16743
G1 X51.898 Y22.689 E8.20981
G1 X51.417 Y22.366 E8.25227
G1 X50.857 Y22.184 E8.29542
G1 X33.458 Y22.16 E9.5704
G1 X32.91 Y22.239 E9.61097
G1 X32.381 Y22.479 E9.65354
G1 X31.939 Y22.852 E9.69592
G1 X31.616 Y23.333 E9.73838
G1 X31.436 Y23.889 E9.7812
G1 X31.41 Y25.601 E9.90667
G1 X31.41 Y26.34 E9.96082
G0 F7200 X31.61 Y26.34
G0 X31.61 Y26.89
G1 F2400 E4.96082
G0 F7200 X31.61 Y26.965
G0 X31.41 Y31.34
G1 F2400 E9.96082
G1 F1200 X52.59 Y31.34 E11.51286
G1 X52.59 Y29.208 E11.66909
G1 X52.511 Y28.66 E11.70967
G1 X52.271 Y28.131 E11.75223
G1 X51.898 Y27.689 E11.79462
G1 X51.417 Y27.366 E11.83707
G1 X50.857 Y27.184 E11.88022
G1 X33.458 Y27.16 E13.1552
G1 X32.91 Y27.239 E13.19577
G1 X32.381 Y27.479 E13.23834
G1 X31.939 Y27.852 E13.28072
G1 X31.616 Y28.333 E13.32318
G1 X31.436 Y28.889 E13.366
G1 X31.41 Y30.601 E13.49147
G1 X31.41 Y31.34 E13.54562
G0 F7200 X31.61 Y31.34
G0 X30.91 Y31.84
;TYPE:WALL-INNER
G1 F1200 X53.09 Y31.84 E15.17094
G1 X53.09 Y29.172 E15.36645
G1 X53.012 Y28.626 E15.40687
G1 X52.996 Y28.518 E15.41487
G1 X52.698 Y27.861 E15.46773
G1 X52.253 Y27.334 E15.51828
G1 X52.235 Y27.313 E15.5203
G1 X51.638 Y26.912 E15.573
G1 X51.417 Y26.84 E15.59004
G0 F7200 X51.638 Y26.84
G1 F1200 X52.235 Y26.84 E15.61046
G1 X52.263 Y26.84 E15.61245
G1 X53.09 Y26.84 E15.67306
G1 X53.09 Y24.292 E15.85977
G1 X53.09 Y24.172 E15.86856
G1 X53.036 Y23.794 E15.89654
G1 X52.996 Y23.518 E15.91698
G1 X52.938 Y23.389 E15.92734
G1 X52.729 Y22.929 E15.96437
G1 X52.698 Y22.861 E15.96984
G1 X52.476 Y22.599 E15.99501
G1 X52.235 Y22.313 E16.02242
G1 X51.759 Y21.993 E16.06445
G1 X51.638 Y21.912 E16.07512
G1 X51.404 Y21.836 E16.09314
G1 X50.937 Y21.684 E16.12913
G1 X50.458 Y21.684 E16.16423
G1 X33.542 Y21.661 E17.40382
G1 X33.422 Y21.66 E17.41261
G1 X33.044 Y21.714 E17.44059
G1 X32.768 Y21.754 E17.46103
G1 X32.639 Y21.812 E17.47139
G1 X32.179 Y22.021 E17.50842
G1 X32.111 Y22.052 E17.51389
G1 X31.849 Y22.274 E17.53906
G1 X31.563 Y22.515 E17.56646
G1 X31.243 Y22.991 E17.60849
G1 X31.162 Y23.112 E17.61916
G1 X31.087 Y23.346 E17.63717
G1 X30.937 Y23.806 E17.67263
G1 X30.93 Y24.298 E17.70868
G1 X30.91 Y25.597 E17.80388
G1 X30.91 Y26.84 E17.89497
G1 X31.719 Y26.84 E17.95425
G1 X32.111 Y26.84 E17.98298
G1 X32.578 Y26.84 E18.0172
G1 F2400 E13.0172
G0 F7200 X32.481 Y26.747
G0 X31.563 Y27.515
G1 F2400 E18.0172
G1 F1200 X31.162 Y28.112 E18.0699
G1 X30.987 Y28.65 E18.11135
G1 X30.937 Y28.806 E18.12336
G1 X30.91 Y30.597 E18.25462
G1 X30.91 Y31.84 E18.3457
G0 F7200 X31.41 Y32.66
;TYPE:WALL-OUTER
G1 F1200 X31.41 Y34.625 E18.48969
G1 X31.446 Y35.157 E18.52877
G1 X31.632 Y35.701 E18.5709
G1 X31.964 Y36.176 E18.61336
G1 X32.413 Y36.54 E18.65572
G1 X32.943 Y36.769 E18.69803
G1 X33.46 Y36.84 E18.73627
G1 X50.542 Y36.84 E19.98802
G1 X51.09 Y36.761 E20.02859
G1 X51.619 Y36.521 E20.07115
G1 X52.061 Y36.148 E20.11354
G1 X52.384 Y35.667 E20.15599
G1 X52.564 Y35.111 E20.19882
G1 X52.59 Y33.399 E20.32428
G1 X52.59 Y32.66 E20.37844
G1 X31.41 Y32.66 E21.93048
G0 F7200 X31.41 Y32.86
G0 X30.86 Y32.86
G1 F2400 E16.93048
G0 F7200 X30.785 Y32.86
G0 X31.41 Y37.66
G1 F2400 E21.93048
G1 F1200 X31.41 Y39.625 E22.07447
G1 X31.446 Y40.157 E22.11355
G1 X31.632 Y40.701 E22.15568
G1 X31.964 Y41.176 E22.19814
G1 X32.413 Y41.54 E22.2405
G1 X32.943 Y41.769 E22.28281
G1 X33.46 Y41.84 E22.32105
G1 X50.542 Y41.84 E23.5728
G1 X51.09 Y41.761 E23.61337
G1 X51.619 Y41.521 E23.65593
G1 X52.061 Y41.148 E23.69832
G1 X52.384 Y40.667 E23.74077
G1 X52.564 Y40.111 E23.7836
G1 X52.59 Y38.399 E23.90907
G1 X52.59 Y37.66 E23.96322
G1 X31.41 Y37.66 E25.51526
G0 F7200 X31.41 Y37.86
G0 X31.713 Y37.16
;TYPE:WALL-INNER
G1 F1200 X30.91 Y37.16 E25.5741
G1 X30.91 Y39.642 E25.75598
G1 X30.952 Y40.256 E25.80108
G1 X31.085 Y40.646 E25.83128
G1 X31.182 Y40.93 E25.85327
G1 X31.234 Y41.005 E25.85995
G1 X31.538 Y41.44 E25.89884
G1 X31.594 Y41.52 E25.906
G1 X31.841 Y41.72 E25.92929
G1 X32.152 Y41.972 E25.95862
G1 X32.633 Y42.179 E25.99699
G1 X32.807 Y42.255 E26.01091
G1 X33.04 Y42.287 E26.02814
G1 X33.426 Y42.34 E26.05669
G1 X33.542 Y42.34 E26.06519
G1 X50.578 Y42.34 E27.31357
G1 X51.232 Y42.246 E27.36199
G1 X51.382 Y42.178 E27.37405
G1 X51.823 Y41.978 E27.40954
G1 X51.889 Y41.948 E27.41485
G1 X52.151 Y41.726 E27.44002
G1 X52.437 Y41.485 E27.46742
G1 X52.757 Y41.009 E27.50945
G1 X52.838 Y40.888 E27.52012
G1 X52.913 Y40.654 E27.53813
G1 X53.063 Y40.194 E27.57358
G1 X53.07 Y39.702 E27.60964
G1 X53.09 Y38.403 E27.70484
G1 X53.09 Y37.16 E27.79593
G1 X52.281 Y37.16 E27.85521
G1 X51.889 Y37.16 E27.88393
G1 X51.422 Y37.16 E27.91815
G1 F2400 E22.91815
G0 F7200 X51.519 Y37.253
G0 X52.437 Y36.485
G1 F2400 E27.91815
G1 F1200 X52.838 Y35.888 E27.97085
G1 X53.013 Y35.35 E28.01231
G1 X53.063 Y35.194 E28.02432
G1 X53.09 Y33.403 E28.15557
G1 X53.09 Y32.16 E28.24666
G1 X30.91 Y32.16 E29.28895
G1 X30.91 Y34.642 E29.47083
G1 X30.952 Y35.256 E29.51593
G1 X30.987 Y35.361 E29.52404
G1 X31.182 Y35.93 E29.56811
G1 X31.594 Y36.52 E29.62084
G1 X31.811 Y36.696 E29.64132
G1 X32.152 Y36.972 E29.67347
G1 X32.587 Y37.16 E29.70819
G0 F7200 X31.713 Y37.16
G1 F2400 E24.70819
G0 F7200 X31.713 Y37.035
G0 X32.006 Y42.358
G1 F2400 E29.70819
G1 F1200 X31.923 Y42.3 E29.71561
G1 X31.571 Y42.054 E29.74211
G1 X31.316 Y41.799 E29.76441
G1 X31.196 Y41.679 E29.77547
G1 X30.892 Y41.244 E29.80799
G1 X30.824 Y41.098 E29.81852
G1 X30.678 Y40.786 E29.8399
G1 X30.564 Y40.361 E29.86709
G1 X30.539 Y40.268 E29.87415
G1 X30.49 Y39.708 E29.90866
G1 X30.49 Y39.642 E29.91349
G1 X30.49 Y37.16 E30.06658
G1 X30.49 Y35.367 E30.19796
G1 X30.49 Y35.256 E30.20578
G1 X30.49 Y34.642 E30.2455
G1 X30.49 Y32.16 E30.39859
G1 X30.49 Y31.84 E30.42203
G1 X30.49 Y30.597 E30.4987
G1 X30.49 Y28.806 E30.61285
G1 X30.49 Y28.642 E30.62422
G1 X30.49 Y26.84 E30.75627
G1 X30.49 Y25.597 E30.83293
G1 X30.49 Y24.292 E30.9154
G1 X30.539 Y23.732 E30.95103
G1 X30.678 Y23.214 E30.98447
G1 X30.803 Y22.945 E31.00307
G1 X30.892 Y22.756 E31.016
G1 X31.196 Y22.321 E31.04859
G1 X31.282 Y22.235 E31.0575
G1 X31.571 Y21.946 E31.08272
G1 X31.884 Y21.728 E31.10628
G1 X32.006 Y21.642 E31.11617
G1 X32.464 Y21.428 E31.14732
G1 X32.665 Y21.374 E31.16062
G1 X32.982 Y21.289 E31.18106
G1 X33.386 Y21.254 E31.20626
G1 X33.542 Y21.24 E31.21623
G1 X50.458 Y21.24 E32.29061
G1 X51.018 Y21.289 E32.32642
G1 X51.536 Y21.428 E32.35974
G1 X51.805 Y21.553 E32.37831
G1 X51.994 Y21.642 E32.39124
G1 X52.429 Y21.946 E32.42382
G1 X52.515 Y22.032 E32.43273
G1 X52.804 Y22.321 E32.45795
G1 X53.022 Y22.634 E32.48152
G1 X53.108 Y22.756 E32.49141
G1 X53.322 Y23.214 E32.52255
G1 X53.376 Y23.415 E32.53586
G1 X53.461 Y23.732 E32.55629
G1 X53.496 Y24.136 E32.5815
G1 X53.51 Y24.292 E32.59145
G1 X53.51 Y26.84 E32.74861
G1 X53.51 Y28.62 E32.87904
G1 X53.51 Y29.172 E32.91626
G1 X53.51 Y31.84 E33.08081
G1 X53.51 Y32.16 E33.10426
G1 X53.51 Y33.403 E33.18093
G1 X53.51 Y35.194 E33.29507
G1 X53.51 Y35.358 E33.30644
G1 X53.51 Y37.16 E33.43849
G1 X53.51 Y38.403 E33.51516
G1 X53.51 Y39.708 E33.59762
G1 X53.461 Y40.268 E33.63325
G1 X53.322 Y40.786 E33.6667
G1 X53.197 Y41.055 E33.6853
G1 X53.108 Y41.244 E33.69823
G1 X52.804 Y41.679 E33.73081
G1 X52.718 Y41.765 E33.73973
G1 X52.429 Y42.054 E33.76494
G1 X52.117 Y42.272 E33.78845
G1 X51.996 Y42.357 E33.79826
G1 X51.557 Y42.563 E33.82817
G1 X51.307 Y42.613 E33.84429
G1 X50.661 Y42.745 E33.88257
G1 X50.612 Y42.755 E33.88623
G1 X33.542 Y42.76 E34.93321
G1 X33.391 Y42.747 E34.94286
G1 X32.982 Y42.711 E34.96834
G1 X32.705 Y42.637 E34.98629
G1 X32.464 Y42.572 E35.00209
G1 X32.006 Y42.358 E35.03335
G1 F2400 E30.03335
G0 F7200 X32.06 Y42.244
G0 X31.082 Y36.66
G1 F2400 E35.03335
G1 F600 X30.99 Y36.66 E35.04009
G1 X30.99 Y36.528 E35.04976
G0 F7200 X31.082 Y36.66
G1 F2400 E30.04976
G0 F7200 X30.99 Y27.471
G1 F2400 E35.04976
G1 F600 X30.99 Y27.34 E35.05936
G1 X31.078 Y27.34 E35.06581
G0 F7200 X30.99 Y27.471
G1 F2400 E30.06581
G0 F7200 X52.913 Y27.34
G1 F2400 E35.06581
G1 F600 X53.01 Y27.34 E35.07292
G1 X53.01 Y27.455 E35.08135
G0 F7200 X52.913 Y27.34
G1 F2400 E30.08135
G0 F7200 X52.922 Y36.66
G1 F2400 E35.08135
G1 F600 X53.01 Y36.529 E35.09291
G0 F7200 X52.922 Y36.66
G1 F2400 E30.09291
G0 F7200 X51.019 Y37.235
;TYPE:SKIN
G1 F2400 E35.09291
G1 F1200 X32.986 Y37.238 E36.1897
G1 F2400 E31.1897
G0 F7200 X32.936 Y37.398
G0 X32.98 Y26.764
G1 F2400 E36.1897
G1 F1200 X51.018 Y26.762 E37.2868
G0 F7200 X51.132 Y26.616
G1 F2400 E32.2868
;MESH:Object 3
G0 F7200 X51.234 Y26.649
G0 X31.751 Y69.791
;TYPE:WALL-OUTER
G1 F2400 E37.2868
G1 F1200 X31.247 Y69.438 E37.33189
G1 X30.812 Y69.003 E37.37697
G1 X30.459 Y68.499 E37.42206
G1 X30.206 Y67.957 E37.46589
G1 X30.045 Y67.355 E37.51155
G1 X29.99 Y66.729 E37.5576
G1 X29.99 Y51.271 E38.69034
G1 X30.045 Y50.645 E38.73639
G1 X30.206 Y50.043 E38.78206
G1 X30.459 Y49.501 E38.82589
G1 X30.812 Y48.997 E38.87098
G1 X31.247 Y48.562 E38.91606
G1 X31.751 Y48.209 E38.96115
G1 X32.293 Y47.956 E39.00498
G1 X32.895 Y47.795 E39.05064
G1 X33.521 Y47.74 E39.09669
G1 X50.479 Y47.74 E40.33935
G1 X51.105 Y47.795 E40.3854
G1 X51.707 Y47.956 E40.43107
G1 X52.249 Y48.209 E40.4749
G1 X52.753 Y48.562 E40.51999
G1 X53.188 Y48.997 E40.56507
G1 X53.541 Y49.501 E40.61016
G1 X53.794 Y50.043 E40.65399
G1 X53.955 Y50.645 E40.69965
G1 X54.01 Y51.271 E40.7457
G1 X54.01 Y66.729 E41.87845
G1 X53.955 Y67.355 E41.92449
G1 X53.794 Y67.957 E41.97016
G1 X53.541 Y68.499 E42.01399
G1 X53.188 Y69.003 E42.05908
G1 X52.753 Y69.438 E42.10416
G1 X52.249 Y69.791 E42.14925
G1 X51.716 Y70.041 E42.19239
G1 X50.662 Y70.255 E42.2712
G1 X33.521 Y70.26 E43.52727
G1 X32.895 Y70.205 E43.57332
G1 X32.293 Y70.044 E43.61899
G1 X31.751 Y69.791 E43.66282
G0 F7200 X31.588 Y69.677
G0 X31.903 Y69.227
G1 F2400 E38.66282
G0 F7200 X31.946 Y69.165
G0 X31.41 Y53.34
G1 F2400 E43.66282
G1 F1200 X52.59 Y53.34 E45.21486
G1 X52.59 Y51.208 E45.37109
G1 X52.511 Y50.66 E45.41166
G1 X52.271 Y50.131 E45.45423
G1 X51.898 Y49.689 E45.49661
G1 X51.417 Y49.366 E45.53907
G1 X50.857 Y49.184 E45.58222
G1 X33.458 Y49.16 E46.8572
G1 X32.91 Y49.239 E46.89777
G1 X32.381 Y49.479 E46.94033
G1 X31.939 Y49.852 E46.98272
G1 X31.616 Y50.333 E47.02517
G1 X31.436 Y50.889 E47.068
G1 X31.41 Y52.601 E47.19346
G1 X31.41 Y53.34 E47.24762
G0 F7200 X31.61 Y53.34
G0 X31.61 Y53.89
G1 F2400 E42.24762
G0 F7200 X31.61 Y53.965
G0 X31.41 Y58.34
G1 F2400 E47.24762
G1 F1200 X52.59 Y58.34 E48.79966
G1 X52.59 Y56.208 E48.95589
G1 X52.511 Y55.66 E48.99646
G1 X52.271 Y55.131 E49.03903
G1 X51.898 Y54.689 E49.08141
G1 X51.417 Y54.366 E49.12387
G1 X50.857 Y54.184 E49.16702
G1 X33.458 Y54.16 E50.442
G1 X32.91 Y54.239 E50.48257
G1 X32.381 Y54.479 E50.52513
G1 X31.939 Y54.852 E50.56752
G1 X31.616 Y55.333 E50.60997
G1 X31.436 Y55.889 E50.6528
G1 X31.41 Y57.601 E50.77826
G1 X31.41 Y58.34 E50.83242
G0 F7200 X31.61 Y58.34
G0 X30.91 Y58.84
;TYPE:WALL-INNER
G1 F1200 X53.09 Y58.84 E52.45774
G1 X53.09 Y56.172 E52.65325
G1 X53.012 Y55.626 E52.69366
G1 X52.996 Y55.518 E52.70166
G1 X52.698 Y54.861 E52.75453
G1 X52.253 Y54.334 E52.80507
G1 X52.235 Y54.313 E52.8071
G1 X51.638 Y53.912 E52.8598
G1 X51.417 Y53.84 E52.87683
G0 F7200 X51.638 Y53.84
G1 F1200 X52.235 Y53.84 E52.89726
G1 X52.263 Y53.84 E52.89925
G1 X53.09 Y53.84 E52.95985
G1 X53.09 Y51.292 E53.14657
G1 X53.09 Y51.172 E53.15536
G1 X53.036 Y50.794 E53.18334
G1 X52.996 Y50.518 E53.20378
G1 X52.938 Y50.389 E53.21414
G1 X52.729 Y49.929 E53.25117
G1 X52.698 Y49.861 E53.25664
G1 X52.476 Y49.599 E53.28181
G1 X52.235 Y49.313 E53.30921
G1 X51.759 Y48.993 E53.35124
G1 X51.638 Y48.912 E53.36191
G1 X51.404 Y48.836 E53.37994
G1 X50.937 Y48.684 E53.41593
G1 X50.458 Y48.684 E53.45103
G1 X33.542 Y48.661 E54.69061
G1 X33.422 Y48.66 E54.69941
G1 X33.044 Y48.714 E54.72739
G1 X32.768 Y48.754 E54.74782
G1 X32.639 Y48.812 E54.75819
G1 X32.179 Y49.021 E54.79521
G1 X32.111 Y49.052 E54.80069
G1 X31.849 Y49.274 E54.82585
G1 X31.563 Y49.515 E54.85326
G1 X31.243 Y49.991 E54.89529
G1 X31.162 Y50.112 E54.90596
G1 X31.087 Y50.346 E54.92397
G1 X30.937 Y50.806 E54.95942
G1 X30.93 Y51.298 E54.99548
G1 X30.91 Y52.597 E55.09068
G1 X30.91 Y53.84 E55.18176
G1 X31.719 Y53.84 E55.24105
G1 X32.111 Y53.84 E55.26977
G1 X32.578 Y53.84 E55.30399
G1 F2400 E50.30399
G0 F7200 X32.481 Y53.747
G0 X31.563 Y54.515
G1 F2400 E55.30399
G1 F1200 X31.162 Y55.112 E55.35669
G1 X30.987 Y55.65 E55.39815
G1 X30.937 Y55.806 E55.41016
G1 X30.91 Y57.597 E55.54141
G1 X30.91 Y58.84 E55.6325
G0 F7200 X31.41 Y59.66
;TYPE:WALL-OUTER
G1 F1200 X31.41 Y61.625 E55.77649
G1 X31.446 Y62.157 E55.81556
G1 X31.632 Y62.701 E55.85769
G1 X31.964 Y63.176 E55.90016
G1 X32.413 Y63.54 E55.94252
G1 X32.943 Y63.769 E55.98482
G1 X33.46 Y63.84 E56.02306
G1 X50.542 Y63.84 E57.27481
G1 X51.09 Y63.761 E57.31538
G1 X51.619 Y63.521 E57.35795
G1 X52.061 Y63.148 E57.40033
G1 X52.384 Y62.667 E57.44279
G1 X52.564 Y62.111 E57.48561
G1 X52.59 Y60.399 E57.61108
G1 X52.59 Y59.66 E57.66523
G1 X31.41 Y59.66 E59.21728
G0 F7200 X31.41 Y59.86
G0 X30.86 Y59.86
G1 F2400 E54.21728
G0 F7200 X30.785 Y59.86
G0 X31.41 Y64.66
G1 F2400 E59.21728
G1 F1200 X31.41 Y66.625 E59.36127
G1 X31.446 Y67.157 E59.40034
G1 X31.632 Y67.701 E59.44247
G1 X31.964 Y68.176 E59.48494
G1 X32.413 Y68.54 E59.5273
G1 X32.943 Y68.769 E59.5696
G1 X33.46 Y68.84 E59.60785
G1 X50.542 Y68.84 E60.85959
