;FLAVOR:Marlin
;TIME:5120
;Filament used: 10.3862m
;Layer height: 0.32
;MINX:29.706
;MINY:6.831
;MINZ:0.32
;MAXX:170.278
;MAXY:193.169
;MAXZ:17.96
;EOFFSETPROCESSED
;Generated with Cura_SteamEngine mb-master-20200328
M82 ;absolute extrusion mode
;
; Crashspace Printer Farm MP10 Mini (C. Nicks Start Code + John Gwinner Probe Code)
;______________________________________________
;Sliced at: Sat 25-04-2020 02:30:48
;Layer Height: 0.32
;Line Width: 0.5
;Flow: 106
;Z-Hop: True
;______________________________________________
;
M140 S60 ; set bed temp
M104 S180.0 T0 ; set extruder park temp to warm but not ooze during bed probing ;Adjusted temp by 20
M190 S60 ; wait for bed temp
G28 ; home all axis
G29 P1; probes mesh
G29 P3; fill in mesh that can't be reached is good
G29 S0 ; save mesh
G29 F 10.0 ;prints linear above this height
G29 A ; use UBL
M104 S280.0 T0 ; set extruder temp ;Adjusted temp by 20
G92 E0;(Reset the extruder to 0)
G0 X0 Y0 Z2 F1500; (set into park)
M109 S280.0 T0 ; wait for extruder temp ;Adjusted temp by 20
G92 E0
G1 E7 F300; (Unretract from last ending code, plus add some for ooze)
;PRIME
G0 X0 Y0 Z0.2 F1500; (Knock off ooze)
G0 X2 Y0 Z0.4 F1500; (Knock off ooze)
G0 X3 Y0 Z1.0 F1500; (Knock off ooze)
G0 X5 Y0 Z0.32 F1000; (Lower into prime)
G91
G1 X5 Y+20 F1000 E5  ;PRIME
G1 X+0.5 ;PRIME
G1 Y-20 F1000 E5  ;PRIME
G90
; Mini nozzle can't hang over edge to catch ooze
;G0 X0 F1500; (Knock off ooze)
;G0 X0 Z0.2 F1500; (Knock off ooze)
;G0 X2 Z0.4 F1500; (Knock off ooze)
;G0 X3 Z1.0 F1500; (Knock off ooze)
G92 E0
;AND GO!!!!
G92 E0
G92 E0
G1 F2400 E-5
;LAYER_COUNT:53
;LAYER:0
M107
G1 F600 Z1.32
;MESH:Object 2
G0 F7200 X30.99 Y27.34 Z1.32
;TYPE:WALL-INNER
G1 F600 Z0.32
G1 F2400 E0.0
G1 F600 X31.078 Y27.34 E0.00633
G1 X30.99 Y27.471 E0.01178
G0 F7200 X30.99 Y27.34
G1 F2400 E-4.98822
G1 F600 Z1.32
G0 F7200 X30.99 Y36.528 Z1.32
G1 F600 Z0.32
G1 F2400 E0.01419 ;Adjusted e by 0.00241mm
G1 F600 X31.051 Y36.616 E0.02189
G1 X31.082 Y36.66 E0.02576
G0 F7200 X30.99 Y36.528
G1 F2400 E-4.97424
G1 F600 Z1.32
G0 F7200 X53.01 Y36.529 Z1.32
G1 F600 Z0.32
G1 F2400 E0.03248 ;Adjusted e by 0.00672mm
G1 F600 X53.01 Y36.66 E0.04191
G1 X52.922 Y36.66 E0.04824
G0 F7200 X53.01 Y36.529
G1 F2400 E-4.95176
G1 F600 Z1.32
G0 F7200 X52.913 Y27.34 Z1.32
G1 F600 Z0.32
G1 F2400 E0.05065 ;Adjusted e by 0.00241mm
G1 F600 X53.01 Y27.34 E0.05762
G1 X53.01 Y27.455 E0.06589
G0 F7200 X52.913 Y27.34
G1 F2400 E-4.93411
G1 F600 Z1.32
G0 F7200 X31.719 Y26.84 Z1.32
G1 F600 Z0.32
G1 F2400 E0.07233 ;Adjusted e by 0.00644mm
G1 F1200 X32.111 Y26.84 E0.10053
G1 X32.578 Y26.84 E0.13411
G1 F2400 E-4.86589
G1 F600 Z1.32
G0 F7200 X31.563 Y27.515 Z1.32
G1 F600 Z0.32
G1 F2400 E0.13411
G1 F1200 X31.162 Y28.111 E0.18578
G1 X30.987 Y28.646 E0.22626
G1 X30.948 Y28.767 E0.23541
G1 X30.91 Y29.202 E0.26681
G1 X30.91 Y31.84 E0.45654
G1 X53.09 Y31.84 E2.05176
G1 X53.09 Y29.172 E2.24365
G1 X53.012 Y28.626 E2.28332
G1 X52.996 Y28.518 E2.29117
G1 X52.698 Y27.861 E2.34306
G1 X52.253 Y27.334 E2.39267
G1 X52.235 Y27.313 E2.39465
G1 X51.639 Y26.912 E2.44632
G1 X51.418 Y26.84 E2.46304
G0 F7200 X51.639 Y26.84
G1 F1200 X52.235 Y26.84 E2.48301
G1 X52.263 Y26.84 E2.48496
G1 X53.09 Y26.84 E2.54444
G1 X53.09 Y24.292 E2.7277
G1 X53.09 Y24.172 E2.73633
G1 X53.036 Y23.794 E2.76379
G1 X52.996 Y23.518 E2.78385
G1 X52.938 Y23.389 E2.79402
G1 X52.729 Y22.929 E2.83036
G1 X52.698 Y22.861 E2.83574
G1 X52.476 Y22.599 E2.86043
G1 X52.235 Y22.313 E2.88733
G1 X51.759 Y21.993 E2.92858
G1 X51.639 Y21.912 E2.939
G1 X51.404 Y21.836 E2.95676
G1 X50.983 Y21.698 E2.98862
G1 X50.548 Y21.66 E3.02003
G1 X50.458 Y21.66 E3.0265
G1 X33.542 Y21.66 E4.24313
G1 X33.422 Y21.66 E4.25176
G1 X33.044 Y21.714 E4.27922
G1 X32.768 Y21.754 E4.29928
G1 X32.639 Y21.812 E4.30945
G1 X32.179 Y22.021 E4.34579
G1 X32.111 Y22.052 E4.35117
G1 X31.849 Y22.274 E4.37587
G1 X31.563 Y22.515 E4.40276
G1 X31.243 Y22.991 E4.44402
G1 X31.162 Y23.111 E4.45443
G1 X31.086 Y23.346 E4.47219
G1 X30.948 Y23.767 E4.50406
G1 X30.91 Y24.202 E4.53546
G1 X30.91 Y24.292 E4.54193
G1 X30.91 Y26.84 E4.72519
G1 X31.719 Y26.84 E4.78338
G0 F7200 X31.41 Y26.34
;TYPE:WALL-OUTER
G1 F1200 X52.59 Y26.34 E6.30668
G1 X52.59 Y24.208 E6.46001
G1 X52.511 Y23.66 E6.49984
G1 X52.271 Y23.131 E6.54161
G1 X51.898 Y22.689 E6.58321
G1 X51.418 Y22.366 E6.62482
G1 X50.882 Y22.191 E6.66537
G1 X50.526 Y22.16 E6.69108
G1 X33.458 Y22.16 E7.91864
G1 X32.91 Y22.239 E7.95846
G1 X32.381 Y22.479 E8.00023
G1 X31.939 Y22.852 E8.04183
G1 X31.616 Y23.332 E8.08344
G1 X31.441 Y23.868 E8.12399
G1 X31.41 Y24.224 E8.1497
G1 X31.41 Y26.34 E8.30188
G0 F7200 X31.61 Y26.34
G0 X31.61 Y26.89
G1 F2400 E3.30188
G1 F600 Z1.32
G0 F7200 X31.41 Y31.34 Z1.32
G1 F600 Z0.32
G1 F2400 E8.3027 ;Adjusted e by 0.00082mm
G1 F1200 X52.59 Y31.34 E9.826
G1 X52.59 Y29.208 E9.97934
G1 X52.511 Y28.66 E10.01916
G1 X52.271 Y28.131 E10.06094
G1 X51.898 Y27.689 E10.10254
G1 X51.418 Y27.366 E10.14415
G1 X50.882 Y27.191 E10.1847
G1 X50.526 Y27.16 E10.2104
G1 X33.458 Y27.16 E11.43796
G1 X32.91 Y27.239 E11.47778
G1 X32.381 Y27.479 E11.51956
G1 X31.939 Y27.852 E11.56116
G1 X31.616 Y28.332 E11.60277
G1 X31.441 Y28.868 E11.64332
G1 X31.41 Y29.224 E11.66902
G1 X31.41 Y31.34 E11.82121
G0 F7200 X31.61 Y31.34
G0 X31.61 Y31.89
G0 X30.91 Y32.16
;TYPE:WALL-INNER
G1 F1200 X30.91 Y34.642 E11.99972
G1 X30.952 Y35.256 E12.04398
G1 X30.987 Y35.361 E12.05194
G1 X31.182 Y35.93 E12.0952
G1 X31.594 Y36.52 E12.14696
G1 X31.811 Y36.696 E12.16705
G1 X32.152 Y36.972 E12.1986
G1 X32.587 Y37.16 E12.23269
G0 F7200 X31.713 Y37.16
G1 F1200 X30.91 Y37.16 E12.29044
G1 X30.91 Y39.642 E12.46895
G1 X30.952 Y40.256 E12.51321
G1 X31.085 Y40.646 E12.54285
G1 X31.182 Y40.93 E12.56443
G1 X31.234 Y41.005 E12.571
G1 X31.538 Y41.44 E12.60917
G1 X31.594 Y41.52 E12.61619
G1 X31.841 Y41.72 E12.63905
G1 X32.152 Y41.972 E12.66784
G1 X32.633 Y42.179 E12.7055
G1 X32.807 Y42.255 E12.71915
G1 X33.04 Y42.287 E12.73607
G1 X33.426 Y42.34 E12.76409
G1 X33.542 Y42.34 E12.77243
G1 X50.578 Y42.34 E13.99769
G1 X50.943 Y42.288 E14.02421
G1 X51.232 Y42.246 E14.04521
G1 X51.358 Y42.189 E14.05516
G1 X51.823 Y41.978 E14.09188
G1 X51.889 Y41.948 E14.0971
G1 X52.151 Y41.726 E14.1218
G1 X52.437 Y41.485 E14.1487
G1 X52.757 Y41.009 E14.18995
G1 X52.838 Y40.889 E14.20036
G1 X52.914 Y40.654 E14.21812
G1 X53.052 Y40.233 E14.24999
G1 X53.09 Y39.798 E14.28139
G1 X53.09 Y39.708 E14.28787
G1 X53.09 Y37.16 E14.47112
G1 X52.281 Y37.16 E14.52931
G1 X51.889 Y37.16 E14.5575
G1 X51.422 Y37.16 E14.59109
G1 F2400 E9.59109
G1 F600 Z1.32
G0 F7200 X52.437 Y36.485 Z1.32
G1 F600 Z0.32
G1 F2400 E14.59109
G1 F1200 X52.838 Y35.889 E14.64275
G1 X53.013 Y35.354 E14.68324
G1 X53.052 Y35.233 E14.69238
G1 X53.09 Y34.798 E14.72379
G1 X53.09 Y32.16 E14.91351
G1 X30.91 Y32.16 E15.9365
G0 F7200 X31.41 Y32.66
;TYPE:WALL-OUTER
G1 F1200 X31.41 Y34.625 E16.07783
G1 X31.446 Y35.157 E16.11618
G1 X31.632 Y35.701 E16.15753
G1 X31.964 Y36.176 E16.19921
G1 X32.413 Y36.54 E16.24078
G1 X32.943 Y36.769 E16.28231
G1 X33.46 Y36.84 E16.31984
G1 X50.542 Y36.84 E17.5484
G1 X51.09 Y36.761 E17.58823
G1 X51.619 Y36.521 E17.63
G1 X52.061 Y36.148 E17.6716
G1 X52.384 Y35.668 E17.71321
G1 X52.559 Y35.132 E17.75376
G1 X52.59 Y34.776 E17.77946
G1 X52.59 Y32.66 E17.93165
G1 X31.41 Y32.66 E19.45495
G0 F7200 X31.41 Y32.86
G0 X30.86 Y32.86
G1 F2400 E14.45495
G1 F600 Z1.32
G0 F7200 X31.41 Y37.66 Z1.32
G1 F600 Z0.32
G1 F2400 E19.4559 ;Adjusted e by 0.00095mm
G1 F1200 X31.41 Y39.625 E19.59723
G1 X31.446 Y40.157 E19.63558
G1 X31.632 Y40.701 E19.67693
G1 X31.964 Y41.176 E19.71861
G1 X32.413 Y41.54 E19.76018
G1 X32.943 Y41.769 E19.8017
G1 X33.46 Y41.84 E19.83924
G1 X50.542 Y41.84 E21.0678
G1 X51.09 Y41.761 E21.10762
G1 X51.619 Y41.521 E21.1494
G1 X52.061 Y41.148 E21.191
G1 X52.384 Y40.668 E21.23261
G1 X52.559 Y40.132 E21.27316
G1 X52.59 Y39.776 E21.29886
G1 X52.59 Y37.66 E21.45105
G1 X31.41 Y37.66 E22.97435
G0 F7200 X31.41 Y37.86
G0 X30.86 Y37.86
G1 F2400 E17.97435
G1 F600 Z1.32
G0 F7200 X32.006 Y42.358 Z1.32
;TYPE:WALL-INNER
G1 F600 Z0.32
G1 F2400 E22.97524 ;Adjusted e by 0.00089mm
G1 F1200 X31.923 Y42.3 E22.98253
G1 X31.571 Y42.054 E23.00854
G1 X31.316 Y41.799 E23.03042
G1 X31.196 Y41.679 E23.04127
G1 X30.892 Y41.244 E23.0732
G1 X30.824 Y41.098 E23.08353
G1 X30.678 Y40.786 E23.10451
G1 X30.564 Y40.361 E23.1312
G1 X30.539 Y40.268 E23.13813
G1 X30.49 Y39.708 E23.17199
G1 X30.49 Y39.642 E23.17674
G1 X30.49 Y37.16 E23.32699
G1 X30.49 Y35.367 E23.45595
G1 X30.49 Y35.256 E23.46362
G1 X30.49 Y34.642 E23.5026
G1 X30.49 Y32.16 E23.65285
G1 X30.49 Y31.84 E23.67587
G1 X30.49 Y29.202 E23.83556
G1 X30.49 Y28.767 E23.86305
G1 X30.49 Y28.639 E23.87186
G1 X30.49 Y26.84 E24.00125
G1 X30.49 Y24.292 E24.15549
G1 X30.501 Y24.167 E24.16343
G1 X30.539 Y23.732 E24.18926
G1 X30.557 Y23.663 E24.19439
G1 X30.678 Y23.214 E24.22257
G1 X30.804 Y22.944 E24.24085
G1 X30.892 Y22.756 E24.25344
G1 X31.196 Y22.321 E24.28543
G1 X31.282 Y22.235 E24.29417
G1 X31.571 Y21.946 E24.31892
G1 X31.884 Y21.728 E24.34205
G1 X32.006 Y21.642 E24.35176
G1 X32.464 Y21.428 E24.38233
G1 X32.665 Y21.374 E24.39538
G1 X32.982 Y21.289 E24.41544
G1 X33.386 Y21.254 E24.44018
G1 X33.542 Y21.24 E24.44995
G1 X50.458 Y21.24 E25.47397
G1 X50.583 Y21.251 E25.4819
G1 X51.018 Y21.289 E25.50773
G1 X51.087 Y21.307 E25.51286
G1 X51.536 Y21.428 E25.54104
G1 X51.806 Y21.554 E25.55932
G1 X51.994 Y21.642 E25.57192
G1 X52.429 Y21.946 E25.6039
G1 X52.515 Y22.032 E25.61264
G1 X52.804 Y22.321 E25.6374
G1 X53.022 Y22.634 E25.66052
G1 X53.108 Y22.756 E25.67023
G1 X53.322 Y23.214 E25.7008
G1 X53.376 Y23.415 E25.71386
G1 X53.461 Y23.732 E25.73391
G1 X53.496 Y24.136 E25.75865
G1 X53.51 Y24.292 E25.76842
G1 X53.51 Y26.84 E25.92267
G1 X53.51 Y28.62 E26.05069
G1 X53.51 Y29.172 E26.08721
G1 X53.51 Y31.84 E26.24872
G1 X53.51 Y32.16 E26.27174
G1 X53.51 Y34.798 E26.43143
G1 X53.51 Y35.233 E26.45892
G1 X53.51 Y35.361 E26.46773
G1 X53.51 Y37.16 E26.59712
G1 X53.51 Y39.708 E26.75136
G1 X53.499 Y39.833 E26.7593
G1 X53.461 Y40.268 E26.78513
G1 X53.443 Y40.337 E26.79026
G1 X53.322 Y40.786 E26.81844
G1 X53.196 Y41.056 E26.83672
G1 X53.108 Y41.244 E26.84931
G1 X52.804 Y41.679 E26.8813
G1 X52.718 Y41.765 E26.89004
G1 X52.429 Y42.054 E26.91479
G1 X52.117 Y42.272 E26.93786
G1 X51.996 Y42.357 E26.94749
G1 X51.533 Y42.574 E26.97842
G1 X51.334 Y42.627 E26.99137
G1 X51.005 Y42.715 E27.0122
G1 X50.656 Y42.755 E27.03387
G1 X50.579 Y42.755 E27.03941
G1 X33.542 Y42.76 E28.06462
G1 X33.391 Y42.747 E28.07409
G1 X32.982 Y42.711 E28.0991
G1 X32.705 Y42.637 E28.11672
G1 X32.464 Y42.572 E28.13223
G1 X32.006 Y42.358 E28.1629
G0 F7200 X31.751 Y42.791
;TYPE:WALL-OUTER
G1 F1200 X31.247 Y42.438 E28.20716
G1 X30.812 Y42.003 E28.2514
G1 X30.459 Y41.499 E28.29566
G1 X30.206 Y40.957 E28.33868
G1 X30.045 Y40.355 E28.3835
G1 X29.99 Y39.729 E28.42869
G1 X29.99 Y24.271 E29.54046
G1 X30.045 Y23.645 E29.58566
G1 X30.206 Y23.043 E29.63047
G1 X30.459 Y22.501 E29.67349
G1 X30.812 Y21.997 E29.71775
G1 X31.247 Y21.562 E29.76199
G1 X31.751 Y21.209 E29.80625
G1 X32.293 Y20.956 E29.84927
G1 X32.895 Y20.795 E29.89409
G1 X33.521 Y20.74 E29.93928
G1 X50.479 Y20.74 E31.15893
G1 X51.105 Y20.795 E31.20413
G1 X51.707 Y20.956 E31.24895
G1 X52.249 Y21.209 E31.29197
G1 X52.753 Y21.562 E31.33622
G1 X53.188 Y21.997 E31.38047
G1 X53.541 Y22.501 E31.42472
G1 X53.794 Y23.043 E31.46774
G1 X53.955 Y23.645 E31.51256
G1 X54.01 Y24.271 E31.55776
G1 X54.01 Y39.729 E32.66952
G1 X53.955 Y40.355 E32.71472
G1 X53.794 Y40.957 E32.75954
G1 X53.541 Y41.499 E32.80256
G1 X53.188 Y42.003 E32.84681
G1 X52.753 Y42.438 E32.89106
G1 X52.249 Y42.791 E32.93531
G1 X51.706 Y43.045 E32.97843
G1 X51.096 Y43.208 E33.02384
G1 X50.687 Y43.255 E33.05345
G1 X33.521 Y43.26 E34.28806
G1 X32.895 Y43.205 E34.33325
G1 X32.293 Y43.044 E34.37807
G1 X31.751 Y42.791 E34.42109
G0 F7200 X31.588 Y42.677
G0 X31.903 Y42.227
G1 F2400 E29.42109
G1 F600 Z1.32
G0 F7200 X32.989 Y37.235 Z1.32
;TYPE:SKIN
G1 F600 Z0.32
G1 F2400 E34.42213 ;Adjusted e by 0.00104mm
G1 F1200 X33.037 Y37.215 E34.42541
G0 F7200 X33.276 Y37.239
G1 F1200 X33.422 Y37.249 E34.43341
G1 X50.568 Y37.25 E35.34349
G1 X51.008 Y37.206 E35.36817
G1 F2400 E30.36817
G1 F600 Z1.32
G0 F7200 X51.019 Y26.761 Z1.32
G1 F600 Z0.32
G1 F2400 E35.371 ;Adjusted e by 0.00283mm
G1 F1200 X51.024 Y26.807 E35.37353
G0 F7200 X50.822 Y26.761
G1 F1200 X50.55 Y26.75 E35.38849
G1 X33.432 Y26.75 E36.29708
G1 X32.992 Y26.794 E36.32176
G1 F2400 E31.32176
G1 F600 Z1.32
;MESH:Object 3
G0 F7200 X31.078 Y54.34 Z1.32
;TYPE:WALL-INNER
G1 F600 Z0.32
G1 F2400 E36.33035 ;Adjusted e by 0.00859mm
G1 F600 X30.99 Y54.471 E36.3417
G0 F7200 X31.078 Y54.34
G1 F2400 E31.3417
G1 F600 Z1.32
G0 F7200 X30.99 Y63.528 Z1.32
G1 F600 Z0.32
G1 F2400 E36.34411 ;Adjusted e by 0.00241mm
G1 F600 X31.051 Y63.616 E36.35181
G1 X31.082 Y63.66 E36.35568
G0 F7200 X30.99 Y63.528
G1 F2400 E31.35568
G1 F600 Z1.32
G0 F7200 X53.01 Y63.529 Z1.32
G1 F600 Z0.32
G1 F2400 E36.3624 ;Adjusted e by 0.00672mm
G1 F600 X53.01 Y63.66 E36.37183
G1 X52.922 Y63.66 E36.37816
G0 F7200 X53.01 Y63.529
G1 F2400 E31.37816
G1 F600 Z1.32
G0 F7200 X52.913 Y54.34 Z1.32
G1 F600 Z0.32
G1 F2400 E36.38057 ;Adjusted e by 0.00241mm
G1 F600 X53.01 Y54.34 E36.38754
G1 X53.01 Y54.455 E36.39581
G0 F7200 X52.913 Y54.34
G1 F2400 E31.39581
G1 F600 Z1.32
G0 F7200 X31.719 Y53.84 Z1.32
G1 F600 Z0.32
G1 F2400 E36.40225 ;Adjusted e by 0.00644mm
G1 F1200 X32.111 Y53.84 E36.43045
G1 X32.578 Y53.84 E36.46403
G1 F2400 E31.46403
G1 F600 Z1.32
G0 F7200 X31.563 Y54.515 Z1.32
G1 F600 Z0.32
G1 F2400 E36.46403
G1 F1200 X31.162 Y55.111 E36.5157
G1 X30.987 Y55.646 E36.55618
G1 X30.948 Y55.767 E36.56533
G1 X30.91 Y56.202 E36.59673
G1 X30.91 Y58.84 E36.78646
G1 X53.09 Y58.84 E38.38168
G1 X53.09 Y56.172 E38.57357
G1 X53.012 Y55.626 E38.61324
G1 X52.996 Y55.518 E38.62109
G1 X52.698 Y54.861 E38.67298
G1 X52.253 Y54.334 E38.72259
G1 X52.235 Y54.313 E38.72457
G1 X51.639 Y53.912 E38.77624
G1 X51.418 Y53.84 E38.79296
G0 F7200 X51.639 Y53.84
G1 F1200 X52.235 Y53.84 E38.81293
G1 X52.263 Y53.84 E38.81488
G1 X53.09 Y53.84 E38.87436
G1 X53.09 Y51.292 E39.05762
G1 X53.09 Y51.172 E39.06625
G1 X53.036 Y50.794 E39.09371
G1 X52.996 Y50.518 E39.11377
G1 X52.938 Y50.389 E39.12394
G1 X52.729 Y49.929 E39.16028
G1 X52.698 Y49.861 E39.16565
G1 X52.476 Y49.599 E39.19035
G1 X52.235 Y49.313 E39.21725
G1 X51.759 Y48.993 E39.2585
G1 X51.639 Y48.912 E39.26892
G1 X51.404 Y48.836 E39.28668
G1 X50.983 Y48.698 E39.31854
G1 X50.548 Y48.66 E39.34995
G1 X50.458 Y48.66 E39.35642
G1 X33.542 Y48.66 E40.57305
G1 X33.422 Y48.66 E40.58168
G1 X33.044 Y48.714 E40.60914
G1 X32.768 Y48.754 E40.6292
G1 X32.639 Y48.812 E40.63937
G1 X32.179 Y49.021 E40.67571
G1 X32.111 Y49.052 E40.68109
G1 X31.849 Y49.274 E40.70578
G1 X31.563 Y49.515 E40.73268
G1 X31.243 Y49.991 E40.77394
G1 X31.162 Y50.111 E40.78435
G1 X31.086 Y50.346 E40.80211
G1 X30.948 Y50.767 E40.83398
G1 X30.91 Y51.202 E40.86538
G1 X30.91 Y51.292 E40.87185
G1 X30.91 Y53.84 E41.05511
G1 X31.719 Y53.84 E41.1133
G0 F7200 X31.41 Y53.34
;TYPE:WALL-OUTER
G1 F1200 X52.59 Y53.34 E42.6366
G1 X52.59 Y51.208 E42.78993
G1 X52.511 Y50.66 E42.82975
G1 X52.271 Y50.131 E42.87153
G1 X51.898 Y49.689 E42.91313
G1 X51.418 Y49.366 E42.95474
G1 X50.882 Y49.191 E42.99529
G1 X50.526 Y49.16 E43.02099
G1 X33.458 Y49.16 E44.24855
G1 X32.91 Y49.239 E44.28838
G1 X32.381 Y49.479 E44.33015
G1 X31.939 Y49.852 E44.37175
G1 X31.616 Y50.332 E44.41336
G1 X31.441 Y50.868 E44.45391
G1 X31.41 Y51.224 E44.47961
G1 X31.41 Y53.34 E44.6318
G0 F7200 X31.61 Y53.34
G0 X31.61 Y53.89
G1 F2400 E39.6318
G1 F600 Z1.32
G0 F7200 X31.41 Y58.34 Z1.32
G1 F600 Z0.32
G1 F2400 E44.63262 ;Adjusted e by 0.00082mm
G1 F1200 X52.59 Y58.34 E46.15592
G1 X52.59 Y56.208 E46.30926
G1 X52.511 Y55.66 E46.34908
G1 X52.271 Y55.131 E46.39086
G1 X51.898 Y54.689 E46.43246
G1 X51.418 Y54.366 E46.47407
G1 X50.882 Y54.191 E46.51462
G1 X50.526 Y54.16 E46.54032
G1 X33.458 Y54.16 E47.76788
G1 X32.91 Y54.239 E47.8077
G1 X32.381 Y54.479 E47.84948
G1 X31.939 Y54.852 E47.89108
G1 X31.616 Y55.332 E47.93269
G1 X31.441 Y55.868 E47.97324
G1 X31.41 Y56.224 E47.99894
G1 X31.41 Y58.34 E48.15113
G0 F7200 X31.61 Y58.34
G0 X31.61 Y58.89
G0 X30.91 Y59.16
;TYPE:WALL-INNER
