;FLAVOR:Marlin
;TIME:5120
;Filament used: 9.95494m
;Layer height: 0.32
;MINX:29.706
;MINY:6.831
;MINZ:0.32
;MAXX:170.278
;MAXY:193.169
;MAXZ:17.96
;EOFFSETPROCESSED
;Generated with Cura_SteamEngine mb-master-20200328
M82 ;absolute extrusion mode
;
; Crashspace Printer Farm MP10 Mini (C. Nicks Start Code + John Gwinner Probe Code)
;______________________________________________
;Sliced at: Sat 25-04-2020 02:32:57
;Layer Height: 0.32
;Line Width: 0.5
;Flow: 102
;Z-Hop: True
;______________________________________________
;
M140 S60 ; set bed temp
M104 S180.0 T0 ; set extruder park temp to warm but not ooze during bed probing ;Adjusted temp by 20
M190 S60 ; wait for bed temp
G28 ; home all axis
G29 P1; probes mesh
G29 P3; fill in mesh that can't be reached is good
G29 S0 ; save mesh
G29 F 10.0 ;prints linear above this height
G29 A ; use UBL
M104 S280.0 T0 ; set extruder temp ;Adjusted temp by 20
G92 E0;(Reset the extruder to 0)
G0 X0 Y0 Z2 F1500; (set into park)
M109 S280.0 T0 ; wait for extruder temp ;Adjusted temp by 20
G92 E0
G1 E7 F300; (Unretract from last ending code, plus add some for ooze)
;PRIME
G0 X0 Y0 Z0.2 F1500; (Knock off ooze)
G0 X2 Y0 Z0.4 F1500; (Knock off ooze)
G0 X3 Y0 Z1.0 F1500; (Knock off ooze)
G0 X5 Y0 Z0.32 F1000; (Lower into prime)
G91
G1 X5 Y+20 F1000 E5  ;PRIME
G1 X+0.5 ;PRIME
G1 Y-20 F1000 E5  ;PRIME
G90
; Mini nozzle can't hang over edge to catch ooze
;G0 X0 F1500; (Knock off ooze)
;G0 X0 Z0.2 F1500; (Knock off ooze)
;G0 X2 Z0.4 F1500; (Knock off ooze)
;G0 X3 Z1.0 F1500; (Knock off ooze)
G92 E0
;AND GO!!!!
G92 E0
G92 E0
G1 F2400 E-5
;LAYER_COUNT:53
;LAYER:0
M107
G1 F600 Z1.32
;MESH:Object 2
G0 F7200 X30.99 Y27.34 Z1.32
;TYPE:WALL-INNER
G1 F600 Z0.32
G1 F2400 E0.0
G1 F600 X31.078 Y27.34 E0.00591
G1 X30.99 Y27.471 E0.011
G0 F7200 X30.99 Y27.34
G1 F2400 E-4.989
G1 F600 Z1.32
G0 F7200 X30.99 Y36.528 Z1.32
G1 F600 Z0.32
G1 F2400 E0.01341 ;Adjusted e by 0.00241mm
G1 F600 X31.051 Y36.616 E0.02061
G1 X31.082 Y36.66 E0.02422
G0 F7200 X30.99 Y36.528
G1 F2400 E-4.97578
G1 F600 Z1.32
G0 F7200 X53.01 Y36.529 Z1.32
G1 F600 Z0.32
G1 F2400 E0.03094 ;Adjusted e by 0.00672mm
G1 F600 X53.01 Y36.66 E0.03974
G1 X52.922 Y36.66 E0.04565
G0 F7200 X53.01 Y36.529
G1 F2400 E-4.95435
G1 F600 Z1.32
G0 F7200 X52.913 Y27.34 Z1.32
G1 F600 Z0.32
G1 F2400 E0.04806 ;Adjusted e by 0.00241mm
G1 F600 X53.01 Y27.34 E0.05458
G1 X53.01 Y27.455 E0.0623
G0 F7200 X52.913 Y27.34
G1 F2400 E-4.9377
G1 F600 Z1.32
G0 F7200 X31.719 Y26.84 Z1.32
G1 F600 Z0.32
G1 F2400 E0.06874 ;Adjusted e by 0.00644mm
G1 F1200 X32.111 Y26.84 E0.09508
G1 X32.578 Y26.84 E0.12644
G1 F2400 E-4.87356
G1 F600 Z1.32
G0 F7200 X31.563 Y27.515 Z1.32
G1 F600 Z0.32
G1 F2400 E0.12644
G1 F1200 X31.162 Y28.111 E0.1747
G1 X30.987 Y28.646 E0.21251
G1 X30.948 Y28.767 E0.22105
G1 X30.91 Y29.202 E0.25038
G1 X30.91 Y31.84 E0.42758
G1 X53.09 Y31.84 E1.91746
G1 X53.09 Y29.172 E2.09667
G1 X53.012 Y28.626 E2.13372
G1 X52.996 Y28.518 E2.14106
G1 X52.698 Y27.861 E2.18951
G1 X52.253 Y27.334 E2.23585
G1 X52.235 Y27.313 E2.2377
G1 X51.639 Y26.912 E2.28596
G1 X51.418 Y26.84 E2.30157
G0 F7200 X51.639 Y26.84
G1 F1200 X52.235 Y26.84 E2.32022
G1 X52.263 Y26.84 E2.32205
G1 X53.09 Y26.84 E2.3776
G1 X53.09 Y24.292 E2.54875
G1 X53.09 Y24.172 E2.55682
G1 X53.036 Y23.794 E2.58246
G1 X52.996 Y23.518 E2.6012
G1 X52.938 Y23.389 E2.6107
G1 X52.729 Y22.929 E2.64464
G1 X52.698 Y22.861 E2.64966
G1 X52.476 Y22.599 E2.67272
G1 X52.235 Y22.313 E2.69785
G1 X51.759 Y21.993 E2.73637
G1 X51.639 Y21.912 E2.7461
G1 X51.404 Y21.836 E2.76269
G1 X50.983 Y21.698 E2.79245
G1 X50.548 Y21.66 E2.82178
G1 X50.458 Y21.66 E2.82783
G1 X33.542 Y21.66 E3.96411
G1 X33.422 Y21.66 E3.97217
G1 X33.044 Y21.714 E3.99782
G1 X32.768 Y21.754 E4.01655
G1 X32.639 Y21.812 E4.02605
G1 X32.179 Y22.021 E4.05999
G1 X32.111 Y22.052 E4.06501
G1 X31.849 Y22.274 E4.08808
G1 X31.563 Y22.515 E4.1132
G1 X31.243 Y22.991 E4.15173
G1 X31.162 Y23.111 E4.16146
G1 X31.086 Y23.346 E4.17805
G1 X30.948 Y23.767 E4.20781
G1 X30.91 Y24.202 E4.23714
G1 X30.91 Y24.292 E4.24318
G1 X30.91 Y26.84 E4.41434
G1 X31.719 Y26.84 E4.46868
G0 F7200 X31.41 Y26.34
;TYPE:WALL-OUTER
G1 F1200 X52.59 Y26.34 E5.89139
G1 X52.59 Y24.208 E6.0346
G1 X52.511 Y23.66 E6.07179
G1 X52.271 Y23.131 E6.11081
G1 X51.898 Y22.689 E6.14966
G1 X51.418 Y22.366 E6.18852
G1 X50.882 Y22.191 E6.2264
G1 X50.526 Y22.16 E6.2504
G1 X33.458 Y22.16 E7.39689
G1 X32.91 Y22.239 E7.43408
G1 X32.381 Y22.479 E7.4731
G1 X31.939 Y22.852 E7.51195
G1 X31.616 Y23.332 E7.55082
G1 X31.441 Y23.868 E7.58869
G1 X31.41 Y24.224 E7.6127
G1 X31.41 Y26.34 E7.75483
G0 F7200 X31.61 Y26.34
G0 X31.61 Y26.89
G1 F2400 E2.75483
G1 F600 Z1.32
G0 F7200 X31.41 Y31.34 Z1.32
G1 F600 Z0.32
G1 F2400 E7.75565 ;Adjusted e by 0.00082mm
G1 F1200 X52.59 Y31.34 E9.17836
G1 X52.59 Y29.208 E9.32157
G1 X52.511 Y28.66 E9.35876
G1 X52.271 Y28.131 E9.39778
G1 X51.898 Y27.689 E9.43663
G1 X51.418 Y27.366 E9.47549
G1 X50.882 Y27.191 E9.51337
G1 X50.526 Y27.16 E9.53737
G1 X33.458 Y27.16 E10.68387
G1 X32.91 Y27.239 E10.72106
G1 X32.381 Y27.479 E10.76008
G1 X31.939 Y27.852 E10.79893
G1 X31.616 Y28.332 E10.83779
G1 X31.441 Y28.868 E10.87566
G1 X31.41 Y29.224 E10.89967
G1 X31.41 Y31.34 E11.0418
G0 F7200 X31.61 Y31.34
G0 X31.61 Y31.89
G0 X30.91 Y32.16
;TYPE:WALL-INNER
G1 F1200 X30.91 Y34.642 E11.20853
G1 X30.952 Y35.256 E11.24987
G1 X30.987 Y35.361 E11.2573
G1 X31.182 Y35.93 E11.2977
G1 X31.594 Y36.52 E11.34604
G1 X31.811 Y36.696 E11.36481
G1 X32.152 Y36.972 E11.39428
G1 X32.587 Y37.16 E11.42611
G0 F7200 X31.713 Y37.16
G1 F1200 X30.91 Y37.16 E11.48005
G1 X30.91 Y39.642 E11.64677
G1 X30.952 Y40.256 E11.68811
G1 X31.085 Y40.646 E11.71579
G1 X31.182 Y40.93 E11.73595
G1 X31.234 Y41.005 E11.74208
G1 X31.538 Y41.44 E11.77773
G1 X31.594 Y41.52 E11.78429
G1 X31.841 Y41.72 E11.80563
G1 X32.152 Y41.972 E11.83252
G1 X32.633 Y42.179 E11.8677
G1 X32.807 Y42.255 E11.88045
G1 X33.04 Y42.287 E11.89625
G1 X33.426 Y42.34 E11.92242
G1 X33.542 Y42.34 E11.93021
G1 X50.578 Y42.34 E13.07456
G1 X50.943 Y42.288 E13.09932
G1 X51.232 Y42.246 E13.11894
G1 X51.358 Y42.189 E13.12823
G1 X51.823 Y41.978 E13.16253
G1 X51.889 Y41.948 E13.1674
G1 X52.151 Y41.726 E13.19047
G1 X52.437 Y41.485 E13.21559
G1 X52.757 Y41.009 E13.25412
G1 X52.838 Y40.889 E13.26384
G1 X52.914 Y40.654 E13.28043
G1 X53.052 Y40.233 E13.31019
G1 X53.09 Y39.798 E13.33952
G1 X53.09 Y39.708 E13.34557
G1 X53.09 Y37.16 E13.51672
G1 X52.281 Y37.16 E13.57107
G1 X51.889 Y37.16 E13.5974
G1 X51.422 Y37.16 E13.62877
G1 F2400 E8.62877
G1 F600 Z1.32
G0 F7200 X52.437 Y36.485 Z1.32
G1 F600 Z0.32
G1 F2400 E13.62877
G1 F1200 X52.838 Y35.889 E13.67702
G1 X53.013 Y35.354 E13.71483
G1 X53.052 Y35.233 E13.72337
G1 X53.09 Y34.798 E13.7527
G1 X53.09 Y32.16 E13.9299
G1 X30.91 Y32.16 E14.88533
G0 F7200 X31.41 Y32.66
;TYPE:WALL-OUTER
G1 F1200 X31.41 Y34.625 E15.01733
G1 X31.446 Y35.157 E15.05315
G1 X31.632 Y35.701 E15.09176
G1 X31.964 Y36.176 E15.13069
G1 X32.413 Y36.54 E15.16952
G1 X32.943 Y36.769 E15.2083
G1 X33.46 Y36.84 E15.24335
G1 X50.542 Y36.84 E16.39079
G1 X51.09 Y36.761 E16.42798
G1 X51.619 Y36.521 E16.467
G1 X52.061 Y36.148 E16.50585
G1 X52.384 Y35.668 E16.54471
G1 X52.559 Y35.132 E16.58259
G1 X52.59 Y34.776 E16.60659
G1 X52.59 Y32.66 E16.74873
G1 X31.41 Y32.66 E18.17143
G0 F7200 X31.41 Y32.86
G0 X30.86 Y32.86
G1 F2400 E13.17143
G1 F600 Z1.32
G0 F7200 X31.41 Y37.66 Z1.32
G1 F600 Z0.32
G1 F2400 E18.17238 ;Adjusted e by 0.00095mm
G1 F1200 X31.41 Y39.625 E18.30438
G1 X31.446 Y40.157 E18.34019
G1 X31.632 Y40.701 E18.37881
G1 X31.964 Y41.176 E18.41774
G1 X32.413 Y41.54 E18.45657
G1 X32.943 Y41.769 E18.49535
G1 X33.46 Y41.84 E18.5304
G1 X50.542 Y41.84 E19.67784
G1 X51.09 Y41.761 E19.71503
G1 X51.619 Y41.521 E19.75405
G1 X52.061 Y41.148 E19.7929
G1 X52.384 Y40.668 E19.83176
G1 X52.559 Y40.132 E19.86964
G1 X52.59 Y39.776 E19.89364
G1 X52.59 Y37.66 E20.03578
G1 X31.41 Y37.66 E21.45848
G0 F7200 X31.41 Y37.86
G0 X30.86 Y37.86
G1 F2400 E16.45848
G1 F600 Z1.32
G0 F7200 X32.006 Y42.358 Z1.32
;TYPE:WALL-INNER
G1 F600 Z0.32
G1 F2400 E21.45937 ;Adjusted e by 0.00089mm
G1 F1200 X31.923 Y42.3 E21.46617
G1 X31.571 Y42.054 E21.49047
G1 X31.316 Y41.799 E21.51091
G1 X31.196 Y41.679 E21.52104
G1 X30.892 Y41.244 E21.55086
G1 X30.824 Y41.098 E21.56051
G1 X30.678 Y40.786 E21.58011
G1 X30.564 Y40.361 E21.60503
G1 X30.539 Y40.268 E21.6115
G1 X30.49 Y39.708 E21.64313
G1 X30.49 Y39.642 E21.64756
G1 X30.49 Y37.16 E21.78789
G1 X30.49 Y35.367 E21.90833
G1 X30.49 Y35.256 E21.9155
G1 X30.49 Y34.642 E21.95191
G1 X30.49 Y32.16 E22.09223
G1 X30.49 Y31.84 E22.11373
G1 X30.49 Y29.202 E22.26287
G1 X30.49 Y28.767 E22.28855
G1 X30.49 Y28.639 E22.29678
G1 X30.49 Y26.84 E22.41763
G1 X30.49 Y24.292 E22.56168
G1 X30.501 Y24.167 E22.56909
G1 X30.539 Y23.732 E22.59322
G1 X30.557 Y23.663 E22.59801
G1 X30.678 Y23.214 E22.62433
G1 X30.804 Y22.944 E22.6414
G1 X30.892 Y22.756 E22.65316
G1 X31.196 Y22.321 E22.68303
G1 X31.282 Y22.235 E22.6912
G1 X31.571 Y21.946 E22.71432
G1 X31.884 Y21.728 E22.73592
G1 X32.006 Y21.642 E22.74499
G1 X32.464 Y21.428 E22.77354
G1 X32.665 Y21.374 E22.78573
G1 X32.982 Y21.289 E22.80446
G1 X33.386 Y21.254 E22.82757
G1 X33.542 Y21.24 E22.83669
G1 X50.458 Y21.24 E23.79309
G1 X50.583 Y21.251 E23.80049
G1 X51.018 Y21.289 E23.82462
G1 X51.087 Y21.307 E23.82941
G1 X51.536 Y21.428 E23.85573
G1 X51.806 Y21.554 E23.8728
G1 X51.994 Y21.642 E23.88457
G1 X52.429 Y21.946 E23.91444
G1 X52.515 Y22.032 E23.92261
G1 X52.804 Y22.321 E23.94572
G1 X53.022 Y22.634 E23.96732
G1 X53.108 Y22.756 E23.97639
G1 X53.322 Y23.214 E24.00494
G1 X53.376 Y23.415 E24.01713
G1 X53.461 Y23.732 E24.03587
G1 X53.496 Y24.136 E24.05897
G1 X53.51 Y24.292 E24.0681
G1 X53.51 Y26.84 E24.21216
G1 X53.51 Y28.62 E24.33172
G1 X53.51 Y29.172 E24.36583
G1 X53.51 Y31.84 E24.51668
G1 X53.51 Y32.16 E24.53817
G1 X53.51 Y34.798 E24.68732
G1 X53.51 Y35.233 E24.713
G1 X53.51 Y35.361 E24.72123
G1 X53.51 Y37.16 E24.84207
G1 X53.51 Y39.708 E24.98613
G1 X53.499 Y39.833 E24.99353
G1 X53.461 Y40.268 E25.01766
G1 X53.443 Y40.337 E25.02245
G1 X53.322 Y40.786 E25.04877
G1 X53.196 Y41.056 E25.06584
G1 X53.108 Y41.244 E25.07761
G1 X52.804 Y41.679 E25.10748
G1 X52.718 Y41.765 E25.11565
G1 X52.429 Y42.054 E25.13876
G1 X52.117 Y42.272 E25.16031
G1 X51.996 Y42.357 E25.1693
G1 X51.533 Y42.574 E25.19819
G1 X51.334 Y42.627 E25.21029
G1 X51.005 Y42.715 E25.22974
G1 X50.656 Y42.755 E25.24998
G1 X50.579 Y42.755 E25.25515
G1 X33.542 Y42.76 E26.21266
G1 X33.391 Y42.747 E26.22151
G1 X32.982 Y42.711 E26.24486
G1 X32.705 Y42.637 E26.26132
G1 X32.464 Y42.572 E26.2758
G1 X32.006 Y42.358 E26.30445
G0 F7200 X31.751 Y42.791
;TYPE:WALL-OUTER
G1 F1200 X31.247 Y42.438 E26.34579
G1 X30.812 Y42.003 E26.38711
G1 X30.459 Y41.499 E26.42844
G1 X30.206 Y40.957 E26.46862
G1 X30.045 Y40.355 E26.51048
G1 X29.99 Y39.729 E26.55269
G1 X29.99 Y24.271 E27.59104
G1 X30.045 Y23.645 E27.63325
G1 X30.206 Y23.043 E27.67511
G1 X30.459 Y22.501 E27.71529
G1 X30.812 Y21.997 E27.75662
G1 X31.247 Y21.562 E27.79794
G1 X31.751 Y21.209 E27.83928
G1 X32.293 Y20.956 E27.87945
G1 X32.895 Y20.795 E27.92131
G1 X33.521 Y20.74 E27.96352
G1 X50.479 Y20.74 E29.10263
G1 X51.105 Y20.795 E29.14484
G1 X51.707 Y20.956 E29.1867
G1 X52.249 Y21.209 E29.22688
G1 X52.753 Y21.562 E29.26821
G1 X53.188 Y21.997 E29.30953
G1 X53.541 Y22.501 E29.35087
G1 X53.794 Y23.043 E29.39105
G1 X53.955 Y23.645 E29.4329
G1 X54.01 Y24.271 E29.47512
G1 X54.01 Y39.729 E30.51346
G1 X53.955 Y40.355 E30.55568
G1 X53.794 Y40.957 E30.59753
G1 X53.541 Y41.499 E30.63771
G1 X53.188 Y42.003 E30.67905
G1 X52.753 Y42.438 E30.72037
G1 X52.249 Y42.791 E30.7617
G1 X51.706 Y43.045 E30.80197
G1 X51.096 Y43.208 E30.84438
G1 X50.687 Y43.255 E30.87204
G1 X33.521 Y43.26 E32.02511
G1 X32.895 Y43.205 E32.06733
G1 X32.293 Y43.044 E32.10918
G1 X31.751 Y42.791 E32.14936
G0 F7200 X31.588 Y42.677
G0 X31.903 Y42.227
G1 F2400 E27.14936
G1 F600 Z1.32
G0 F7200 X32.989 Y37.235 Z1.32
;TYPE:SKIN
G1 F600 Z0.32
G1 F2400 E32.1504 ;Adjusted e by 0.00104mm
G1 F1200 X33.037 Y37.215 E32.15347
G0 F7200 X33.276 Y37.239
G1 F1200 X33.422 Y37.249 E32.16094
G1 X50.568 Y37.25 E33.01092
G1 X51.008 Y37.206 E33.03397
G1 F2400 E28.03397
G1 F600 Z1.32
G0 F7200 X51.019 Y26.761 Z1.32
G1 F600 Z0.32
G1 F2400 E33.0368 ;Adjusted e by 0.00283mm
G1 F1200 X51.024 Y26.807 E33.03916
G0 F7200 X50.822 Y26.761
G1 F1200 X50.55 Y26.75 E33.05313
G1 X33.432 Y26.75 E33.90172
G1 X32.992 Y26.794 E33.92477
G1 F2400 E28.92477
G1 F600 Z1.32
;MESH:Object 3
G0 F7200 X31.078 Y54.34 Z1.32
;TYPE:WALL-INNER
G1 F600 Z0.32
G1 F2400 E33.93336 ;Adjusted e by 0.00859mm
G1 F600 X30.99 Y54.471 E33.94396
G0 F7200 X31.078 Y54.34
G1 F2400 E28.94396
G1 F600 Z1.32
G0 F7200 X30.99 Y63.528 Z1.32
G1 F600 Z0.32
G1 F2400 E33.94637 ;Adjusted e by 0.00241mm
G1 F600 X31.051 Y63.616 E33.95357
G1 X31.082 Y63.66 E33.95718
G0 F7200 X30.99 Y63.528
G1 F2400 E28.95718
G1 F600 Z1.32
G0 F7200 X53.01 Y63.529 Z1.32
G1 F600 Z0.32
G1 F2400 E33.9639 ;Adjusted e by 0.00672mm
G1 F600 X53.01 Y63.66 E33.9727
G1 X52.922 Y63.66 E33.97861
G0 F7200 X53.01 Y63.529
G1 F2400 E28.97861
G1 F600 Z1.32
G0 F7200 X52.913 Y54.34 Z1.32
G1 F600 Z0.32
G1 F2400 E33.98102 ;Adjusted e by 0.00241mm
G1 F600 X53.01 Y54.34 E33.98754
G1 X53.01 Y54.455 E33.99526
G0 F7200 X52.913 Y54.34
G1 F2400 E28.99526
G1 F600 Z1.32
G0 F7200 X31.719 Y53.84 Z1.32
G1 F600 Z0.32
G1 F2400 E34.0017 ;Adjusted e by 0.00644mm
G1 F1200 X32.111 Y53.84 E34.02803
G1 X32.578 Y53.84 E34.0594
G1 F2400 E29.0594
G1 F600 Z1.32
G0 F7200 X31.563 Y54.515 Z1.32
G1 F600 Z0.32
G1 F2400 E34.0594
G1 F1200 X31.162 Y55.111 E34.10766
G1 X30.987 Y55.646 E34.14547
G1 X30.948 Y55.767 E34.15401
G1 X30.91 Y56.202 E34.18334
G1 X30.91 Y58.84 E34.36054
G1 X53.09 Y58.84 E35.85042
G1 X53.09 Y56.172 E36.02963
G1 X53.012 Y55.626 E36.06668
G1 X52.996 Y55.518 E36.07401
G1 X52.698 Y54.861 E36.12247
G1 X52.253 Y54.334 E36.16881
G1 X52.235 Y54.313 E36.17066
G1 X51.639 Y53.912 E36.21892
G1 X51.418 Y53.84 E36.23453
G0 F7200 X51.639 Y53.84
G1 F1200 X52.235 Y53.84 E36.25318
G1 X52.263 Y53.84 E36.25501
G1 X53.09 Y53.84 E36.31056
G1 X53.09 Y51.292 E36.48171
G1 X53.09 Y51.172 E36.48977
G1 X53.036 Y50.794 E36.51542
G1 X52.996 Y50.518 E36.53416
G1 X52.938 Y50.389 E36.54366
G1 X52.729 Y49.929 E36.5776
G1 X52.698 Y49.861 E36.58262
G1 X52.476 Y49.599 E36.60568
G1 X52.235 Y49.313 E36.63081
G1 X51.759 Y48.993 E36.66933
G1 X51.639 Y48.912 E36.67906
G1 X51.404 Y48.836 E36.69565
G1 X50.983 Y48.698 E36.72541
G1 X50.548 Y48.66 E36.75474
G1 X50.458 Y48.66 E36.76079
G1 X33.542 Y48.66 E37.89707
G1 X33.422 Y48.66 E37.90513
G1 X33.044 Y48.714 E37.93078
G1 X32.768 Y48.754 E37.94951
G1 X32.639 Y48.812 E37.95901
G1 X32.179 Y49.021 E37.99295
G1 X32.111 Y49.052 E37.99797
G1 X31.849 Y49.274 E38.02104
G1 X31.563 Y49.515 E38.04616
G1 X31.243 Y49.991 E38.08469
G1 X31.162 Y50.111 E38.09442
G1 X31.086 Y50.346 E38.11101
G1 X30.948 Y50.767 E38.14077
G1 X30.91 Y51.202 E38.1701
G1 X30.91 Y51.292 E38.17614
G1 X30.91 Y53.84 E38.3473
G1 X31.719 Y53.84 E38.40164
G0 F7200 X31.41 Y53.34
;TYPE:WALL-OUTER
G1 F1200 X52.59 Y53.34 E39.82435
G1 X52.59 Y51.208 E39.96756
G1 X52.511 Y50.66 E40.00475
G1 X52.271 Y50.131 E40.04377
G1 X51.898 Y49.689 E40.08262
G1 X51.418 Y49.366 E40.12148
G1 X50.882 Y49.191 E40.15936
G1 X50.526 Y49.16 E40.18336
G1 X33.458 Y49.16 E41.32985
G1 X32.91 Y49.239 E41.36704
G1 X32.381 Y49.479 E41.40606
G1 X31.939 Y49.852 E41.44491
G1 X31.616 Y50.332 E41.48378
G1 X31.441 Y50.868 E41.52165
G1 X31.41 Y51.224 E41.54566
G1 X31.41 Y53.34 E41.68779
G0 F7200 X31.61 Y53.34
G0 X31.61 Y53.89
G1 F2400 E36.68779
G1 F600 Z1.32
G0 F7200 X31.41 Y58.34 Z1.32
G1 F600 Z0.32
G1 F2400 E41.68861 ;Adjusted e by 0.00082mm
G1 F1200 X52.59 Y58.34 E43.11132
G1 X52.59 Y56.208 E43.25453
G1 X52.511 Y55.66 E43.29172
G1 X52.271 Y55.131 E43.33074
G1 X51.898 Y54.689 E43.36959
G1 X51.418 Y54.366 E43.40845
G1 X50.882 Y54.191 E43.44633
G1 X50.526 Y54.16 E43.47033
G1 X33.458 Y54.16 E44.61683
G1 X32.91 Y54.239 E44.65402
G1 X32.381 Y54.479 E44.69304
G1 X31.939 Y54.852 E44.73189
G1 X31.616 Y55.332 E44.77075
G1 X31.441 Y55.868 E44.80862
G1 X31.41 Y56.224 E44.83263
G1 X31.41 Y58.34 E44.97476
G0 F7200 X31.61 Y58.34
G0 X31.61 Y58.89
G0 X30.91 Y59.16
;TYPE:WALL-INNER
