;FLAVOR:Marlin
;TIME:4022
;Filament used: 7.03526m
;Layer height: 0.3
;MINX:17.75
;MINY:6.5
;MINZ:0.3
;MAXX:182.25
;MAXY:194.873
;MAXZ:1.5
;EOFFSETPROCESSED
;Generated with Cura_SteamEngine mb-master-20200424
M82 ;absolute extrusion mode
;
; Crashspace Printer Farm MP10 Mini (C. Nicks Start Code + John Gwinner Probe Code)
;______________________________________________
;Sliced at: Sun 03-05-2020 00:26:56
;Layer Height: 0.3
;Line Width: 0.5
;Flow: 100
;Z-Hop: False
;______________________________________________
;
M140 S60 ; set bed temp
M104 S180.0 T0 ; set extruder park temp to warm but not ooze during bed probing ;Adjusted temp by 20
M190 S60 ; wait for bed temp
G28 ; home all axis
G29 P1; probes mesh
G29 P3; fill in mesh that can't be reached is good
G29 S0 ; save mesh
G29 F 10.0 ;prints linear above this height
G29 A ; use UBL
M104 S280.0 T0 ; set extruder temp ;Adjusted temp by 20
G92 E0;(Reset the extruder to 0)
G0 X0 Y0 Z2 F1500; (set into park)
M109 S280.0 T0 ; wait for extruder temp ;Adjusted temp by 20
G92 E0
G1 E7 F300; (Unretract from last ending code, plus add some for ooze)
;PRIME
G0 X0 Y0 Z0.2 F1500; (Knock off ooze)
G0 X2 Y0 Z0.4 F1500; (Knock off ooze)
G0 X3 Y0 Z1.0 F1500; (Knock off ooze)
G0 X5 Y0 Z0.3 F1000; (Lower into prime)
G91
G1 X5 Y+20 F1000 E5  ;PRIME
G1 X+0.5 ;PRIME
G1 Y-20 F1000 E5  ;PRIME
G90
; Mini nozzle can't hang over edge to catch ooze
;G0 X0 F1500; (Knock off ooze)
;G0 X0 Z0.2 F1500; (Knock off ooze)
;G0 X2 Z0.4 F1500; (Knock off ooze)
;G0 X3 Z1.0 F1500; (Knock off ooze)
G92 E0
;AND GO!!!!
G92 E0
G92 E0
G1 F3000 E-5
;LAYER_COUNT:5
;LAYER:0
M107
G1 F600 Z1.3
;MESH:PETG_04_11XEarSaver_MP10.3mf(21)
G0 F7200 X19.41 Y12.34 Z1.3
;TYPE:WALL-OUTER
G1 F600 Z0.3
G1 F3000 E0.0
G1 F1200 X40.59 Y12.34 E1.32084
G1 X40.59 Y10.208 E1.4538
G1 X40.511 Y9.661 E1.48827
G1 X40.271 Y9.132 E1.52449
G1 X39.899 Y8.69 E1.56052
G1 X39.419 Y8.366 E1.59664
G1 X38.858 Y8.184 E1.63342
G1 X21.458 Y8.16 E2.71853
G1 X20.911 Y8.239 E2.753
G1 X20.382 Y8.479 E2.78922
G1 X19.94 Y8.851 E2.82525
G1 X19.616 Y9.331 E2.86137
G1 X19.436 Y9.888 E2.89787
G1 X19.41 Y11.61 E3.00527
G1 X19.41 Y12.34 E3.0508
G0 F7200 X19.61 Y12.34
G0 X19.61 Y12.89
G1 F3000 E-1.9492
G0 F7200 X19.41 Y17.34
G1 F3000 E3.05162 ;Adjusted e by 0.00082mm
G1 F1200 X40.59 Y17.34 E4.37246
G1 X40.59 Y15.208 E4.50542
G1 X40.511 Y14.661 E4.53988
G1 X40.271 Y14.132 E4.57611
G1 X39.899 Y13.69 E4.61214
G1 X39.419 Y13.366 E4.64825
G1 X38.858 Y13.184 E4.68503
G1 X21.458 Y13.16 E5.77015
G1 X20.911 Y13.239 E5.80461
G1 X20.382 Y13.479 E5.84084
G1 X19.94 Y13.851 E5.87687
G1 X19.616 Y14.331 E5.91298
G1 X19.436 Y14.888 E5.94949
G1 X19.41 Y16.61 E6.05689
G1 X19.41 Y17.34 E6.10241
G0 F7200 X19.61 Y17.34
G0 X19.61 Y17.89
G0 X19.41 Y18.66
G1 F1200 X19.41 Y20.635 E6.22558
G1 X19.446 Y21.156 E6.25815
G1 X19.632 Y21.7 E6.294
G1 X19.963 Y22.176 E6.33016
G1 X20.412 Y22.54 E6.3662
G1 X20.942 Y22.769 E6.40221
G1 X21.46 Y22.84 E6.43481
G1 X38.542 Y22.84 E7.50009
G1 X39.089 Y22.761 E7.53456
G1 X39.618 Y22.521 E7.57079
G1 X40.06 Y22.149 E7.60681
G1 X40.384 Y21.669 E7.64293
G1 X40.564 Y21.112 E7.67943
G1 X40.59 Y19.39 E7.78684
G1 X40.59 Y18.66 E7.83236
G1 X19.41 Y18.66 E9.1532
G0 F7200 X19.41 Y18.86
G0 X18.86 Y18.86
G1 F3000 E4.1532
G0 F7200 X19.41 Y23.66
G1 F3000 E9.15415 ;Adjusted e by 0.00095mm
G1 F1200 X19.41 Y25.635 E9.27732
G1 X19.446 Y26.156 E9.30989
G1 X19.632 Y26.7 E9.34574
G1 X19.963 Y27.176 E9.3819
G1 X20.412 Y27.54 E9.41794
G1 X20.942 Y27.769 E9.45395
G1 X21.46 Y27.84 E9.48656
G1 X38.542 Y27.84 E10.55184
G1 X39.089 Y27.761 E10.5863
G1 X39.618 Y27.521 E10.62253
G1 X40.06 Y27.149 E10.65856
G1 X40.384 Y26.669 E10.69467
G1 X40.564 Y26.112 E10.73118
G1 X40.59 Y24.39 E10.83858
G1 X40.59 Y23.66 E10.8841
G1 X19.41 Y23.66 E12.20495
G0 F7200 X19.41 Y23.86
G0 X18.86 Y23.86
G1 F3000 E7.20495
G0 F7200 X19.751 Y28.791
G1 F3000 E12.20596 ;Adjusted e by 0.00101mm
G1 F1200 X19.247 Y28.438 E12.24433
G1 X18.812 Y28.003 E12.28269
G1 X18.459 Y27.499 E12.32107
G1 X18.206 Y26.957 E12.35837
G1 X18.045 Y26.355 E12.39723
G1 X17.99 Y25.729 E12.43642
G1 X17.99 Y10.271 E13.40042
G1 X18.045 Y9.645 E13.43961
G1 X18.206 Y9.043 E13.47847
G1 X18.459 Y8.501 E13.51578
G1 X18.812 Y7.997 E13.55415
G1 X19.247 Y7.562 E13.59251
G1 X19.751 Y7.209 E13.63089
G1 X20.293 Y6.956 E13.66819
G1 X20.895 Y6.795 E13.70705
G1 X21.521 Y6.74 E13.74624
G1 X38.479 Y6.74 E14.80379
G1 X39.105 Y6.795 E14.84298
G1 X39.707 Y6.956 E14.88184
G1 X40.249 Y7.209 E14.91914
G1 X40.753 Y7.562 E14.95751
G1 X41.188 Y7.997 E14.99588
G1 X41.541 Y8.501 E15.03425
G1 X41.794 Y9.043 E15.07155
G1 X41.955 Y9.645 E15.11042
G1 X42.01 Y10.271 E15.14961
G1 X42.01 Y25.729 E16.11361
G1 X41.955 Y26.355 E16.1528
G1 X41.794 Y26.957 E16.19166
G1 X41.541 Y27.499 E16.22896
G1 X41.188 Y28.003 E16.26734
G1 X40.753 Y28.438 E16.3057
G1 X40.249 Y28.791 E16.34407
G1 X39.716 Y29.041 E16.38079
G1 X38.662 Y29.255 E16.44786
G1 X21.521 Y29.26 E17.51682
G1 X20.895 Y29.205 E17.55601
G1 X20.293 Y29.044 E17.59487
G1 X19.751 Y28.791 E17.63217
G0 F7200 X19.588 Y28.677
G0 X19.903 Y28.227
G0 X19.998 Y28.365
;TYPE:SKIN
G1 F1200 X19.565 Y28.062 E17.66513
G1 X19.188 Y27.685 E17.69838
G1 X18.885 Y27.252 E17.73134
G1 X18.669 Y26.791 E17.76309
G1 X18.529 Y26.265 E17.79703
G1 X18.48 Y25.708 E17.8319
G1 X18.48 Y10.292 E18.79328
G1 X18.529 Y9.735 E18.82815
G1 X18.669 Y9.209 E18.8621
G1 X18.885 Y8.748 E18.89385
G1 X19.188 Y8.315 E18.92681
G1 X19.565 Y7.938 E18.96006
G1 X19.998 Y7.635 E18.99301
G1 X20.459 Y7.419 E19.02476
G1 X20.985 Y7.279 E19.05871
G1 X21.542 Y7.23 E19.09358
G1 X38.458 Y7.23 E20.1485
G1 X39.015 Y7.279 E20.18337
G1 X39.541 Y7.419 E20.21732
G1 X40.002 Y7.635 E20.24907
G1 X40.435 Y7.938 E20.28203
G1 X40.812 Y8.315 E20.31528
G1 X41.115 Y8.748 E20.34823
G1 X41.331 Y9.209 E20.37998
G1 X41.471 Y9.735 E20.41393
G1 X41.52 Y10.292 E20.4488
G1 X41.52 Y25.708 E21.41018
G1 X41.471 Y26.265 E21.44505
G1 X41.331 Y26.791 E21.479
G1 X41.115 Y27.252 E21.51074
G1 X40.812 Y27.685 E21.5437
G1 X40.435 Y28.062 E21.57695
G1 X39.997 Y28.369 E21.61031
G1 X39.563 Y28.573 E21.64021
G1 X38.614 Y28.765 E21.7006
G1 X21.542 Y28.77 E22.76525
G1 X20.985 Y28.721 E22.80012
G1 X20.459 Y28.581 E22.83407
G1 X19.998 Y28.365 E22.86582
G0 F7200 X20.156 Y27.963
G1 F1200 X20.809 Y28.245 E22.91017
G1 X21.427 Y28.33 E22.94908
G1 X38.577 Y28.33 E24.0186
G1 X39.228 Y28.236 E24.05962
G1 X39.882 Y27.939 E24.10441
G1 X40.428 Y27.48 E24.14889
G1 X40.829 Y26.886 E24.19359
G1 X41.052 Y26.192 E24.23905
G1 X41.08 Y24.394 E24.35119
G1 X41.08 Y23.17 E24.42752
G1 X39.373 Y23.17 E24.53398
G1 X39.882 Y22.939 E24.56883
G1 X40.428 Y22.48 E24.61332
G1 X40.829 Y21.886 E24.65801
G1 X41.052 Y21.192 E24.70347
G1 X41.08 Y19.394 E24.81561
G1 X41.08 Y18.17 E24.89195
G1 X18.92 Y18.17 E26.2739
G1 X18.92 Y20.652 E26.42869
G1 X18.962 Y21.254 E26.46632
G1 X19.191 Y21.923 E26.51042
G1 X19.6 Y22.513 E26.55519
G1 X20.156 Y22.963 E26.5998
G1 X20.635 Y23.17 E26.63234
G1 X18.92 Y23.17 E26.73929
G1 X18.92 Y25.652 E26.89407
G1 X18.962 Y26.254 E26.93171
G1 X19.191 Y26.923 E26.97581
G1 X19.6 Y27.513 E27.02058
G1 X20.156 Y27.963 E27.06518
G1 F3000 E22.06518
G0 F7200 X18.92 Y17.83
G1 F3000 E27.06793 ;Adjusted e by 0.00275mm
G1 F1200 X41.08 Y17.83 E28.44989
G1 X41.08 Y15.173 E28.61559
G1 X40.986 Y14.522 E28.65661
G1 X40.689 Y13.868 E28.7014
G1 X40.23 Y13.322 E28.74589
G1 X39.636 Y12.921 E28.79058
G1 X39.355 Y12.83 E28.809
G1 X41.08 Y12.83 E28.91658
G1 X41.08 Y10.173 E29.08227
G1 X40.986 Y9.522 E29.12329
G1 X40.689 Y8.868 E29.16809
G1 X40.23 Y8.322 E29.21257
G1 X39.636 Y7.921 E29.25726
G1 X38.936 Y7.694 E29.30316
G1 X21.423 Y7.67 E30.39532
G1 X20.772 Y7.764 E30.43634
G1 X20.118 Y8.061 E30.48113
G1 X19.572 Y8.52 E30.52561
G1 X19.171 Y9.114 E30.57031
G1 X18.948 Y9.808 E30.61577
G1 X18.92 Y11.606 E30.72791
G1 X18.92 Y12.83 E30.80424
G1 X20.627 Y12.83 E30.91069
G1 X20.118 Y13.061 E30.94555
G1 X19.572 Y13.52 E30.99004
G1 X19.171 Y14.114 E31.03473
G1 X18.948 Y14.808 E31.08019
G1 X18.92 Y16.606 E31.19233
G1 X18.92 Y17.83 E31.26866
G1 F3000 E26.26866
G0 F7200 X21.055 Y12.759
;TYPE:SKIN
G1 F3000 E31.26984 ;Adjusted e by 0.00118mm
G1 F1200 X38.924 Y12.762 E32.20813
G1 F3000 E27.20813
G0 F7200 X38.945 Y23.24
G1 F3000 E32.21097 ;Adjusted e by 0.00284mm
G1 F1200 X21.063 Y23.241 E33.14326
G1 F3000 E28.14326
;MESH:PETG_04_11XEarSaver_MP10.3mf(18)
G0 F7200 X47.41 Y12.34
;TYPE:WALL-OUTER
G1 F3000 E33.15216 ;Adjusted e by 0.0089mm
G1 F1200 X68.59 Y12.34 E34.473
G1 X68.59 Y10.208 E34.60596
G1 X68.511 Y9.661 E34.64042
G1 X68.271 Y9.132 E34.67665
G1 X67.899 Y8.69 E34.71268
G1 X67.419 Y8.366 E34.74879
G1 X66.858 Y8.184 E34.78557
G1 X49.458 Y8.16 E35.87069
G1 X48.911 Y8.239 E35.90515
G1 X48.382 Y8.479 E35.94138
G1 X47.94 Y8.851 E35.97741
G1 X47.616 Y9.331 E36.01352
G1 X47.436 Y9.888 E36.05003
G1 X47.41 Y11.61 E36.15743
G1 X47.41 Y12.34 E36.20295
G0 F7200 X47.61 Y12.34
G0 X47.61 Y12.89
G1 F3000 E31.20295
G0 F7200 X47.41 Y17.34
G1 F3000 E36.20377 ;Adjusted e by 0.00082mm
G1 F1200 X68.59 Y17.34 E37.52462
G1 X68.59 Y15.208 E37.65757
G1 X68.511 Y14.661 E37.69204
G1 X68.271 Y14.132 E37.72827
G1 X67.899 Y13.69 E37.76429
G1 X67.419 Y13.366 E37.80041
G1 X66.858 Y13.184 E37.83719
G1 X49.458 Y13.16 E38.9223
G1 X48.911 Y13.239 E38.95677
G1 X48.382 Y13.479 E38.99299
G1 X47.94 Y13.851 E39.02902
G1 X47.616 Y14.331 E39.06514
G1 X47.436 Y14.888 E39.10164
G1 X47.41 Y16.61 E39.20904
G1 X47.41 Y17.34 E39.25457
G0 F7200 X47.61 Y17.34
G0 X47.61 Y17.89
G0 X47.41 Y18.66
G1 F1200 X47.41 Y20.635 E39.37773
G1 X47.446 Y21.156 E39.4103
G1 X47.632 Y21.7 E39.44616
G1 X47.963 Y22.176 E39.48231
G1 X48.412 Y22.54 E39.51836
G1 X48.942 Y22.769 E39.55436
G1 X49.46 Y22.84 E39.58697
G1 X66.542 Y22.84 E40.65225
G1 X67.089 Y22.761 E40.68672
G1 X67.618 Y22.521 E40.72294
G1 X68.06 Y22.149 E40.75897
G1 X68.384 Y21.669 E40.79509
G1 X68.564 Y21.112 E40.83159
G1 X68.59 Y19.39 E40.93899
G1 X68.59 Y18.66 E40.98452
G1 X47.41 Y18.66 E42.30536
G0 F7200 X47.41 Y18.86
G0 X46.86 Y18.86
G1 F3000 E37.30536
G0 F7200 X47.41 Y23.66
G1 F3000 E42.30631 ;Adjusted e by 0.00095mm
G1 F1200 X47.41 Y25.635 E42.42948
G1 X47.446 Y26.156 E42.46205
G1 X47.632 Y26.7 E42.4979
G1 X47.963 Y27.176 E42.53406
G1 X48.412 Y27.54 E42.5701
G1 X48.942 Y27.769 E42.60611
G1 X49.46 Y27.84 E42.63871
G1 X66.542 Y27.84 E43.70399
G1 X67.089 Y27.761 E43.73846
G1 X67.618 Y27.521 E43.77469
G1 X68.06 Y27.149 E43.81071
G1 X68.384 Y26.669 E43.84683
G1 X68.564 Y26.112 E43.88333
G1 X68.59 Y24.39 E43.99073
G1 X68.59 Y23.66 E44.03626
G1 X47.41 Y23.66 E45.3571
G0 F7200 X47.41 Y23.86
G0 X46.86 Y23.86
G1 F3000 E40.3571
G0 F7200 X47.751 Y28.791
G1 F3000 E45.35811 ;Adjusted e by 0.00101mm
G1 F1200 X47.247 Y28.438 E45.39649
G1 X46.812 Y28.003 E45.43485
G1 X46.459 Y27.499 E45.47322
G1 X46.206 Y26.957 E45.51053
G1 X46.045 Y26.355 E45.54939
G1 X45.99 Y25.729 E45.58858
G1 X45.99 Y10.271 E46.55258
G1 X46.045 Y9.645 E46.59177
G1 X46.206 Y9.043 E46.63063
G1 X46.459 Y8.501 E46.66793
G1 X46.812 Y7.997 E46.70631
G1 X47.247 Y7.562 E46.74467
G1 X47.751 Y7.209 E46.78304
G1 X48.293 Y6.956 E46.82035
G1 X48.895 Y6.795 E46.85921
G1 X49.521 Y6.74 E46.8984
G1 X66.479 Y6.74 E47.95595
G1 X67.105 Y6.795 E47.99513
G1 X67.707 Y6.956 E48.034
G1 X68.249 Y7.209 E48.0713
G1 X68.753 Y7.562 E48.10967
G1 X69.188 Y7.997 E48.14804
G1 X69.541 Y8.501 E48.18641
G1 X69.794 Y9.043 E48.22371
G1 X69.955 Y9.645 E48.26257
G1 X70.01 Y10.271 E48.30176
G1 X70.01 Y25.729 E49.26577
G1 X69.955 Y26.355 E49.30496
G1 X69.794 Y26.957 E49.34382
G1 X69.541 Y27.499 E49.38112
G1 X69.188 Y28.003 E49.41949
G1 X68.753 Y28.438 E49.45786
G1 X68.249 Y28.791 E49.49623
G1 X67.716 Y29.041 E49.53294
G1 X66.662 Y29.255 E49.60002
G1 X49.521 Y29.26 E50.66898
G1 X48.895 Y29.205 E50.70817
G1 X48.293 Y29.044 E50.74703
G1 X47.751 Y28.791 E50.78433
G0 F7200 X47.588 Y28.677
G0 X47.903 Y28.227
G0 X47.998 Y28.365
;TYPE:SKIN
G1 F1200 X47.565 Y28.062 E50.81729
G1 X47.188 Y27.685 E50.85054
G1 X46.885 Y27.252 E50.88349
G1 X46.669 Y26.791 E50.91524
G1 X46.529 Y26.265 E50.94919
G1 X46.48 Y25.708 E50.98406
G1 X46.48 Y10.292 E51.94544
G1 X46.529 Y9.735 E51.98031
G1 X46.669 Y9.209 E52.01426
G1 X46.885 Y8.748 E52.046
G1 X47.188 Y8.315 E52.07896
G1 X47.565 Y7.938 E52.11221
G1 X47.998 Y7.635 E52.14517
G1 X48.459 Y7.419 E52.17692
G1 X48.985 Y7.279 E52.21086
G1 X49.542 Y7.23 E52.24573
G1 X66.458 Y7.23 E53.30066
G1 X67.015 Y7.279 E53.33553
G1 X67.541 Y7.419 E53.36948
G1 X68.002 Y7.635 E53.40123
G1 X68.435 Y7.938 E53.43418
G1 X68.812 Y8.315 E53.46743
G1 X69.115 Y8.748 E53.50039
G1 X69.331 Y9.209 E53.53214
G1 X69.471 Y9.735 E53.56608
G1 X69.52 Y10.292 E53.60095
G1 X69.52 Y25.708 E54.56234
G1 X69.471 Y26.265 E54.59721
G1 X69.331 Y26.791 E54.63115
G1 X69.115 Y27.252 E54.6629
G1 X68.812 Y27.685 E54.69586
G1 X68.435 Y28.062 E54.72911
G1 X67.997 Y28.369 E54.76247
G1 X67.563 Y28.573 E54.79237
G1 X66.614 Y28.765 E54.85275
G1 X49.542 Y28.77 E55.91741
G1 X48.985 Y28.721 E55.95228
G1 X48.459 Y28.581 E55.98622
G1 X47.998 Y28.365 E56.01797
G0 F7200 X48.156 Y27.963
G1 F1200 X48.809 Y28.245 E56.06233
G1 X49.427 Y28.33 E56.10123
G1 X66.577 Y28.33 E57.17076
G1 X67.228 Y28.236 E57.21177
G1 X67.882 Y27.939 E57.25657
G1 X68.428 Y27.48 E57.30105
G1 X68.829 Y26.886 E57.34575
G1 X69.052 Y26.192 E57.39121
G1 X69.08 Y24.394 E57.50335
G1 X69.08 Y23.17 E57.57968
G1 X67.373 Y23.17 E57.68613
G1 X67.882 Y22.939 E57.72099
G1 X68.428 Y22.48 E57.76547
G1 X68.829 Y21.886 E57.81017
G1 X69.052 Y21.192 E57.85563
G1 X69.08 Y19.394 E57.96777
G1 X69.08 Y18.17 E58.0441
G1 X46.92 Y18.17 E59.42606
G1 X46.92 Y20.652 E59.58084
G1 X46.962 Y21.254 E59.61848
G1 X47.191 Y21.923 E59.66258
G1 X47.6 Y22.513 E59.70735
G1 X48.156 Y22.963 E59.75195
G1 X48.635 Y23.17 E59.7845
G1 X46.92 Y23.17 E59.89145
G1 X46.92 Y25.652 E60.04623
G1 X46.962 Y26.254 E60.08387
G1 X47.191 Y26.923 E60.12796
G1 X47.6 Y27.513 E60.17273
G1 X48.156 Y27.963 E60.21734
G1 F3000 E55.21734
G0 F7200 X46.92 Y17.83
G1 F3000 E60.22009 ;Adjusted e by 0.00275mm
G1 F1200 X69.08 Y17.83 E61.60205
G1 X69.08 Y15.173 E61.76775
G1 X68.986 Y14.522 E61.80877
G1 X68.689 Y13.868 E61.85356
G1 X68.23 Y13.322 E61.89804
G1 X67.636 Y12.921 E61.94274
G1 X67.355 Y12.83 E61.96116
G1 X69.08 Y12.83 E62.06873
G1 X69.08 Y10.173 E62.23443
G1 X68.986 Y9.522 E62.27545
G1 X68.689 Y8.868 E62.32024
G1 X68.23 Y8.322 E62.36473
G1 X67.636 Y7.921 E62.40942
G1 X66.936 Y7.694 E62.45531
G1 X49.423 Y7.67 E63.54747
G1 X48.772 Y7.764 E63.58849
G1 X48.118 Y8.061 E63.63329
G1 X47.572 Y8.52 E63.67777
G1 X47.171 Y9.114 E63.72246
G1 X46.948 Y9.808 E63.76792
G1 X46.92 Y11.606 E63.88007
G1 X46.92 Y12.83 E63.9564
G1 X48.627 Y12.83 E64.06285
G1 X48.118 Y13.061 E64.09771
G1 X47.572 Y13.52 E64.14219
G1 X47.171 Y14.114 E64.18689
G1 X46.948 Y14.808 E64.23235
G1 X46.92 Y16.606 E64.34449
G1 X46.92 Y17.83 E64.42082
G1 F3000 E59.42082
G0 F7200 X49.055 Y12.759
;TYPE:SKIN
G1 F3000 E64.422 ;Adjusted e by 0.00118mm
G1 F1200 X66.924 Y12.762 E65.36029
G1 F3000 E60.36029
G0 F7200 X66.945 Y23.24
G1 F3000 E65.36313 ;Adjusted e by 0.00284mm
G1 F1200 X49.063 Y23.241 E66.29541
G1 F3000 E61.29541
;MESH:PETG_04_11XEarSaver_MP10.3mf(15)
G0 F7200 X75.41 Y12.34
;TYPE:WALL-OUTER
G1 F3000 E66.30431 ;Adjusted e by 0.0089mm
G1 F1200 X96.59 Y12.34 E67.62516
G1 X96.59 Y10.208 E67.75811
G1 X96.511 Y9.661 E67.79258
G1 X96.271 Y9.132 E67.82881
G1 X95.899 Y8.69 E67.86483
G1 X95.419 Y8.366 E67.90095
G1 X94.858 Y8.184 E67.93773
G1 X77.458 Y8.16 E69.02284
G1 X76.911 Y8.239 E69.05731
G1 X76.382 Y8.479 E69.09354
G1 X75.94 Y8.851 E69.12956
G1 X75.616 Y9.331 E69.16568
G1 X75.436 Y9.888 E69.20218
G1 X75.41 Y11.61 E69.30958
G1 X75.41 Y12.34 E69.35511
G0 F7200 X75.61 Y12.34
G0 X75.61 Y12.89
G1 F3000 E64.35511
G0 F7200 X75.41 Y17.34
G1 F3000 E69.35593 ;Adjusted e by 0.00082mm
G1 F1200 X96.59 Y17.34 E70.67677
G1 X96.59 Y15.208 E70.80973
G1 X96.511 Y14.661 E70.8442
G1 X96.271 Y14.132 E70.88042
G1 X95.899 Y13.69 E70.91645
G1 X95.419 Y13.366 E70.95257
G1 X94.858 Y13.184 E70.98935
G1 X77.458 Y13.16 E72.07446
G1 X76.911 Y13.239 E72.10893
G1 X76.382 Y13.479 E72.14515
G1 X75.94 Y13.851 E72.18118
G1 X75.616 Y14.331 E72.21729
G1 X75.436 Y14.888 E72.2538
G1 X75.41 Y16.61 E72.3612
G1 X75.41 Y17.34 E72.40673
G0 F7200 X75.61 Y17.34
G0 X75.61 Y17.89
