;FLAVOR:Marlin
;TIME:5120
;Filament used: 10.61m
;Layer height: 0.32
;MINX:29.706
;MINY:6.831
;MINZ:0.32
;MAXX:170.278
;MAXY:193.169
;MAXZ:17.96
;EOFFSETPROCESSED
;Generated with Cura_SteamEngine mb-master-20200328
M82 ;absolute extrusion mode
;
; Crashspace Printer Farm MP10 Mini (C. Nicks Start Code + John Gwinner Probe Code)
;______________________________________________
;Sliced at: Sat 25-04-2020 02:33:33
;Layer Height: 0.32
;Line Width: 0.5
;Flow: 108
;Z-Hop: True
;______________________________________________
;
M140 S60 ; set bed temp
M104 S180.0 T0 ; set extruder park temp to warm but not ooze during bed probing ;Adjusted temp by 20
M190 S60 ; wait for bed temp
G28 ; home all axis
G29 P1; probes mesh
G29 P3; fill in mesh that can't be reached is good
G29 S0 ; save mesh
G29 F 10.0 ;prints linear above this height
G29 A ; use UBL
M104 S280.0 T0 ; set extruder temp ;Adjusted temp by 20
G92 E0;(Reset the extruder to 0)
G0 X0 Y0 Z2 F1500; (set into park)
M109 S280.0 T0 ; wait for extruder temp ;Adjusted temp by 20
G92 E0
G1 E7 F300; (Unretract from last ending code, plus add some for ooze)
;PRIME
G0 X0 Y0 Z0.2 F1500; (Knock off ooze)
G0 X2 Y0 Z0.4 F1500; (Knock off ooze)
G0 X3 Y0 Z1.0 F1500; (Knock off ooze)
G0 X5 Y0 Z0.32 F1000; (Lower into prime)
G91
G1 X5 Y+20 F1000 E5  ;PRIME
G1 X+0.5 ;PRIME
G1 Y-20 F1000 E5  ;PRIME
G90
; Mini nozzle can't hang over edge to catch ooze
;G0 X0 F1500; (Knock off ooze)
;G0 X0 Z0.2 F1500; (Knock off ooze)
;G0 X2 Z0.4 F1500; (Knock off ooze)
;G0 X3 Z1.0 F1500; (Knock off ooze)
G92 E0
;AND GO!!!!
G92 E0
G92 E0
G1 F2400 E-5
;LAYER_COUNT:53
;LAYER:0
M107
G1 F600 Z1.32
;MESH:Object 2
G0 F7200 X30.99 Y27.34 Z1.32
;TYPE:WALL-INNER
G1 F600 Z0.32
G1 F2400 E0.0
G1 F600 X31.078 Y27.34 E0.00657
G1 X30.99 Y27.471 E0.01224
G0 F7200 X30.99 Y27.34
G1 F2400 E-4.98776
G1 F600 Z1.32
G0 F7200 X30.99 Y36.528 Z1.32
G1 F600 Z0.32
G1 F2400 E0.01465 ;Adjusted e by 0.00241mm
G1 F600 X31.051 Y36.616 E0.02265
G1 X31.082 Y36.66 E0.02667
G0 F7200 X30.99 Y36.528
G1 F2400 E-4.97333
G1 F600 Z1.32
G0 F7200 X53.01 Y36.529 Z1.32
G1 F600 Z0.32
G1 F2400 E0.03339 ;Adjusted e by 0.00672mm
G1 F600 X53.01 Y36.66 E0.04318
G1 X52.922 Y36.66 E0.04975
G0 F7200 X53.01 Y36.529
G1 F2400 E-4.95025
G1 F600 Z1.32
G0 F7200 X52.913 Y27.34 Z1.32
G1 F600 Z0.32
G1 F2400 E0.05216 ;Adjusted e by 0.00241mm
G1 F600 X53.01 Y27.34 E0.05941
G1 X53.01 Y27.455 E0.068
G0 F7200 X52.913 Y27.34
G1 F2400 E-4.932
G1 F600 Z1.32
G0 F7200 X31.719 Y26.84 Z1.32
G1 F600 Z0.32
G1 F2400 E0.07444 ;Adjusted e by 0.00644mm
G1 F1200 X32.111 Y26.84 E0.10373
G1 X32.578 Y26.84 E0.13863
G1 F2400 E-4.86137
G1 F600 Z1.32
G0 F7200 X31.563 Y27.515 Z1.32
G1 F600 Z0.32
G1 F2400 E0.13863
G1 F1200 X31.162 Y28.111 E0.1923
G1 X30.987 Y28.646 E0.23435
G1 X30.948 Y28.767 E0.24385
G1 X30.91 Y29.202 E0.27648
G1 X30.91 Y31.84 E0.47358
G1 X53.09 Y31.84 E2.13077
G1 X53.09 Y29.172 E2.33011
G1 X53.012 Y28.626 E2.37132
G1 X52.996 Y28.518 E2.37948
G1 X52.698 Y27.861 E2.43338
G1 X52.253 Y27.334 E2.48491
G1 X52.235 Y27.313 E2.48698
G1 X51.639 Y26.912 E2.54065
G1 X51.418 Y26.84 E2.55802
G0 F7200 X51.639 Y26.84
G1 F1200 X52.235 Y26.84 E2.57876
G1 X52.263 Y26.84 E2.58079
G1 X53.09 Y26.84 E2.64258
G1 X53.09 Y24.292 E2.83296
G1 X53.09 Y24.172 E2.84192
G1 X53.036 Y23.794 E2.87045
G1 X52.996 Y23.518 E2.89129
G1 X52.938 Y23.389 E2.90186
G1 X52.729 Y22.929 E2.93961
G1 X52.698 Y22.861 E2.94519
G1 X52.476 Y22.599 E2.97085
G1 X52.235 Y22.313 E2.99879
G1 X51.759 Y21.993 E3.04165
G1 X51.639 Y21.912 E3.05247
G1 X51.404 Y21.836 E3.07092
G1 X50.983 Y21.698 E3.10402
G1 X50.548 Y21.66 E3.13665
G1 X50.458 Y21.66 E3.14337
G1 X33.542 Y21.66 E4.40726
G1 X33.422 Y21.66 E4.41623
G1 X33.044 Y21.714 E4.44475
G1 X32.768 Y21.754 E4.46559
G1 X32.639 Y21.812 E4.47616
G1 X32.179 Y22.021 E4.51391
G1 X32.111 Y22.052 E4.51949
G1 X31.849 Y22.274 E4.54515
G1 X31.563 Y22.515 E4.57309
G1 X31.243 Y22.991 E4.61595
G1 X31.162 Y23.111 E4.62677
G1 X31.086 Y23.346 E4.64522
G1 X30.948 Y23.767 E4.67832
G1 X30.91 Y24.202 E4.71095
G1 X30.91 Y24.292 E4.71767
G1 X30.91 Y26.84 E4.90805
G1 X31.719 Y26.84 E4.96849
G0 F7200 X31.41 Y26.34
;TYPE:WALL-OUTER
G1 F1200 X52.59 Y26.34 E6.55097
G1 X52.59 Y24.208 E6.71026
G1 X52.511 Y23.66 E6.75163
G1 X52.271 Y23.131 E6.79503
G1 X51.898 Y22.689 E6.83824
G1 X51.418 Y22.366 E6.88147
G1 X50.882 Y22.191 E6.9236
G1 X50.526 Y22.16 E6.9503
G1 X33.458 Y22.16 E8.22554
G1 X32.91 Y22.239 E8.26691
G1 X32.381 Y22.479 E8.31031
G1 X31.939 Y22.852 E8.35352
G1 X31.616 Y23.332 E8.39675
G1 X31.441 Y23.868 E8.43888
G1 X31.41 Y24.224 E8.46558
G1 X31.41 Y26.34 E8.62368
G0 F7200 X31.61 Y26.34
G0 X31.61 Y26.89
G1 F2400 E3.62368
G1 F600 Z1.32
G0 F7200 X31.41 Y31.34 Z1.32
G1 F600 Z0.32
G1 F2400 E8.6245 ;Adjusted e by 0.00082mm
G1 F1200 X52.59 Y31.34 E10.20697
G1 X52.59 Y29.208 E10.36627
G1 X52.511 Y28.66 E10.40763
G1 X52.271 Y28.131 E10.45103
G1 X51.898 Y27.689 E10.49425
G1 X51.418 Y27.366 E10.53747
G1 X50.882 Y27.191 E10.5796
G1 X50.526 Y27.16 E10.6063
G1 X33.458 Y27.16 E11.88155
G1 X32.91 Y27.239 E11.92291
G1 X32.381 Y27.479 E11.96632
G1 X31.939 Y27.852 E12.00953
G1 X31.616 Y28.332 E12.05276
G1 X31.441 Y28.868 E12.09488
G1 X31.41 Y29.224 E12.12158
G1 X31.41 Y31.34 E12.27968
G0 F7200 X31.61 Y31.34
G0 X31.61 Y31.89
G0 X30.91 Y32.16
;TYPE:WALL-INNER
G1 F1200 X30.91 Y34.642 E12.46513
G1 X30.952 Y35.256 E12.51111
G1 X30.987 Y35.361 E12.51938
G1 X31.182 Y35.93 E12.56432
G1 X31.594 Y36.52 E12.61808
G1 X31.811 Y36.696 E12.63896
G1 X32.152 Y36.972 E12.67174
G1 X32.587 Y37.16 E12.70714
G0 F7200 X31.713 Y37.16
G1 F1200 X30.91 Y37.16 E12.76714
G1 X30.91 Y39.642 E12.95258
G1 X30.952 Y40.256 E12.99857
G1 X31.085 Y40.646 E13.02935
G1 X31.182 Y40.93 E13.05178
G1 X31.234 Y41.005 E13.0586
G1 X31.538 Y41.44 E13.09825
G1 X31.594 Y41.52 E13.10554
G1 X31.841 Y41.72 E13.12929
G1 X32.152 Y41.972 E13.1592
G1 X32.633 Y42.179 E13.19832
G1 X32.807 Y42.255 E13.21251
G1 X33.04 Y42.287 E13.23008
G1 X33.426 Y42.34 E13.25919
G1 X33.542 Y42.34 E13.26786
G1 X50.578 Y42.34 E14.54071
G1 X50.943 Y42.288 E14.56826
G1 X51.232 Y42.246 E14.59008
G1 X51.358 Y42.189 E14.60041
G1 X51.823 Y41.978 E14.63856
G1 X51.889 Y41.948 E14.64398
G1 X52.151 Y41.726 E14.66964
G1 X52.437 Y41.485 E14.69758
G1 X52.757 Y41.009 E14.74044
G1 X52.838 Y40.889 E14.75125
G1 X52.914 Y40.654 E14.76971
G1 X53.052 Y40.233 E14.80281
G1 X53.09 Y39.798 E14.83543
G1 X53.09 Y39.708 E14.84216
G1 X53.09 Y37.16 E15.03253
G1 X52.281 Y37.16 E15.09298
G1 X51.889 Y37.16 E15.12227
G1 X51.422 Y37.16 E15.15716
G1 F2400 E10.15716
G1 F600 Z1.32
G0 F7200 X52.437 Y36.485 Z1.32
G1 F600 Z0.32
G1 F2400 E15.15716
G1 F1200 X52.838 Y35.889 E15.21083
G1 X53.013 Y35.354 E15.25289
G1 X53.052 Y35.233 E15.26239
G1 X53.09 Y34.798 E15.29501
G1 X53.09 Y32.16 E15.49211
G1 X30.91 Y32.16 E16.55484
G0 F7200 X31.41 Y32.66
;TYPE:WALL-OUTER
G1 F1200 X31.41 Y34.625 E16.70165
G1 X31.446 Y35.157 E16.74149
G1 X31.632 Y35.701 E16.78445
G1 X31.964 Y36.176 E16.82775
G1 X32.413 Y36.54 E16.87094
G1 X32.943 Y36.769 E16.91407
G1 X33.46 Y36.84 E16.95306
G1 X50.542 Y36.84 E18.22935
G1 X51.09 Y36.761 E18.27072
G1 X51.619 Y36.521 E18.31412
G1 X52.061 Y36.148 E18.35734
G1 X52.384 Y35.668 E18.40056
G1 X52.559 Y35.132 E18.44269
G1 X52.59 Y34.776 E18.46939
G1 X52.59 Y32.66 E18.62749
G1 X31.41 Y32.66 E20.20996
G0 F7200 X31.41 Y32.86
G0 X30.86 Y32.86
G1 F2400 E15.20996
G1 F600 Z1.32
G0 F7200 X31.41 Y37.66 Z1.32
G1 F600 Z0.32
G1 F2400 E20.21091 ;Adjusted e by 0.00095mm
G1 F1200 X31.41 Y39.625 E20.35773
G1 X31.446 Y40.157 E20.39757
G1 X31.632 Y40.701 E20.44053
G1 X31.964 Y41.176 E20.48383
G1 X32.413 Y41.54 E20.52701
G1 X32.943 Y41.769 E20.57015
G1 X33.46 Y41.84 E20.60914
G1 X50.542 Y41.84 E21.88543
G1 X51.09 Y41.761 E21.9268
G1 X51.619 Y41.521 E21.9702
G1 X52.061 Y41.148 E22.01341
G1 X52.384 Y40.668 E22.05664
G1 X52.559 Y40.132 E22.09877
G1 X52.59 Y39.776 E22.12547
G1 X52.59 Y37.66 E22.28357
G1 X31.41 Y37.66 E23.86604
G0 F7200 X31.41 Y37.86
G0 X30.86 Y37.86
G1 F2400 E18.86604
G1 F600 Z1.32
G0 F7200 X32.006 Y42.358 Z1.32
;TYPE:WALL-INNER
G1 F600 Z0.32
G1 F2400 E23.86693 ;Adjusted e by 0.00089mm
G1 F1200 X31.923 Y42.3 E23.8745
G1 X31.571 Y42.054 E23.90152
G1 X31.316 Y41.799 E23.92425
G1 X31.196 Y41.679 E23.93553
G1 X30.892 Y41.244 E23.96869
G1 X30.824 Y41.098 E23.97942
G1 X30.678 Y40.786 E24.00122
G1 X30.564 Y40.361 E24.02895
G1 X30.539 Y40.268 E24.03614
G1 X30.49 Y39.708 E24.07133
G1 X30.49 Y39.642 E24.07626
G1 X30.49 Y37.16 E24.23234
G1 X30.49 Y35.367 E24.36631
G1 X30.49 Y35.256 E24.37428
G1 X30.49 Y34.642 E24.41478
G1 X30.49 Y32.16 E24.57086
G1 X30.49 Y31.84 E24.59477
G1 X30.49 Y29.202 E24.76067
G1 X30.49 Y28.767 E24.78923
G1 X30.49 Y28.639 E24.79838
G1 X30.49 Y26.84 E24.93279
G1 X30.49 Y24.292 E25.09303
G1 X30.501 Y24.167 E25.10127
G1 X30.539 Y23.732 E25.12811
G1 X30.557 Y23.663 E25.13344
G1 X30.678 Y23.214 E25.16271
G1 X30.804 Y22.944 E25.1817
G1 X30.892 Y22.756 E25.19478
G1 X31.196 Y22.321 E25.22801
G1 X31.282 Y22.235 E25.2371
G1 X31.571 Y21.946 E25.26281
G1 X31.884 Y21.728 E25.28683
G1 X32.006 Y21.642 E25.29692
G1 X32.464 Y21.428 E25.32867
G1 X32.665 Y21.374 E25.34224
G1 X32.982 Y21.289 E25.36307
G1 X33.386 Y21.254 E25.38877
G1 X33.542 Y21.24 E25.39893
G1 X50.458 Y21.24 E26.46272
G1 X50.583 Y21.251 E26.47096
G1 X51.018 Y21.289 E26.4978
G1 X51.087 Y21.307 E26.50313
G1 X51.536 Y21.428 E26.5324
G1 X51.806 Y21.554 E26.55139
G1 X51.994 Y21.642 E26.56447
G1 X52.429 Y21.946 E26.5977
G1 X52.515 Y22.032 E26.60678
G1 X52.804 Y22.321 E26.6325
G1 X53.022 Y22.634 E26.65652
G1 X53.108 Y22.756 E26.66661
G1 X53.322 Y23.214 E26.69836
G1 X53.376 Y23.415 E26.71193
G1 X53.461 Y23.732 E26.73276
G1 X53.496 Y24.136 E26.75846
G1 X53.51 Y24.292 E26.76861
G1 X53.51 Y26.84 E26.92885
G1 X53.51 Y28.62 E27.06184
G1 X53.51 Y29.172 E27.09979
G1 X53.51 Y31.84 E27.26757
G1 X53.51 Y32.16 E27.29148
G1 X53.51 Y34.798 E27.45737
G1 X53.51 Y35.233 E27.48593
G1 X53.51 Y35.361 E27.49509
G1 X53.51 Y37.16 E27.6295
G1 X53.51 Y39.708 E27.78974
G1 X53.499 Y39.833 E27.79798
G1 X53.461 Y40.268 E27.82482
G1 X53.443 Y40.337 E27.83014
G1 X53.322 Y40.786 E27.85942
G1 X53.196 Y41.056 E27.87841
G1 X53.108 Y41.244 E27.89149
G1 X52.804 Y41.679 E27.92472
G1 X52.718 Y41.765 E27.9338
G1 X52.429 Y42.054 E27.95952
G1 X52.117 Y42.272 E27.98348
G1 X51.996 Y42.357 E27.99349
G1 X51.533 Y42.574 E28.02562
G1 X51.334 Y42.627 E28.03907
G1 X51.005 Y42.715 E28.06071
G1 X50.656 Y42.755 E28.08322
G1 X50.579 Y42.755 E28.08897
G1 X33.542 Y42.76 E29.15401
G1 X33.391 Y42.747 E29.16385
G1 X32.982 Y42.711 E29.18983
G1 X32.705 Y42.637 E29.20813
G1 X32.464 Y42.572 E29.22424
G1 X32.006 Y42.358 E29.25611
G0 F7200 X31.751 Y42.791
;TYPE:WALL-OUTER
G1 F1200 X31.247 Y42.438 E29.30208
G1 X30.812 Y42.003 E29.34805
G1 X30.459 Y41.499 E29.39402
G1 X30.206 Y40.957 E29.43871
G1 X30.045 Y40.355 E29.48527
G1 X29.99 Y39.729 E29.53223
G1 X29.99 Y24.271 E30.68718
G1 X30.045 Y23.645 E30.73413
G1 X30.206 Y23.043 E30.78069
G1 X30.459 Y22.501 E30.82538
G1 X30.812 Y21.997 E30.87135
G1 X31.247 Y21.562 E30.91732
G1 X31.751 Y21.209 E30.96329
G1 X32.293 Y20.956 E31.00798
G1 X32.895 Y20.795 E31.05454
G1 X33.521 Y20.74 E31.1015
G1 X50.479 Y20.74 E32.36852
G1 X51.105 Y20.795 E32.41547
G1 X51.707 Y20.956 E32.46203
G1 X52.249 Y21.209 E32.50672
G1 X52.753 Y21.562 E32.5527
G1 X53.188 Y21.997 E32.59866
G1 X53.541 Y22.501 E32.64464
G1 X53.794 Y23.043 E32.68933
G1 X53.955 Y23.645 E32.73589
G1 X54.01 Y24.271 E32.78284
G1 X54.01 Y39.729 E33.93779
G1 X53.955 Y40.355 E33.98474
G1 X53.794 Y40.957 E34.0313
G1 X53.541 Y41.499 E34.07599
G1 X53.188 Y42.003 E34.12197
G1 X52.753 Y42.438 E34.16793
G1 X52.249 Y42.791 E34.21391
G1 X51.706 Y43.045 E34.2587
G1 X51.096 Y43.208 E34.30587
G1 X50.687 Y43.255 E34.33663
G1 X33.521 Y43.26 E35.6192
G1 X32.895 Y43.205 E35.66615
G1 X32.293 Y43.044 E35.71271
G1 X31.751 Y42.791 E35.7574
G0 F7200 X31.588 Y42.677
G0 X31.903 Y42.227
G1 F2400 E30.7574
G1 F600 Z1.32
G0 F7200 X32.989 Y37.235 Z1.32
;TYPE:SKIN
G1 F600 Z0.32
G1 F2400 E35.75844 ;Adjusted e by 0.00104mm
G1 F1200 X33.037 Y37.215 E35.76185
G0 F7200 X33.276 Y37.239
G1 F1200 X33.422 Y37.249 E35.77016
G1 X50.568 Y37.25 E36.71559
G1 X51.008 Y37.206 E36.74123
G1 F2400 E31.74123
G1 F600 Z1.32
G0 F7200 X51.019 Y26.761 Z1.32
G1 F600 Z0.32
G1 F2400 E36.74406 ;Adjusted e by 0.00283mm
G1 F1200 X51.024 Y26.807 E36.74669
G0 F7200 X50.822 Y26.761
G1 F1200 X50.55 Y26.75 E36.76223
G1 X33.432 Y26.75 E37.70612
G1 X32.992 Y26.794 E37.73176
G1 F2400 E32.73176
G1 F600 Z1.32
;MESH:Object 3
G0 F7200 X31.078 Y54.34 Z1.32
;TYPE:WALL-INNER
G1 F600 Z0.32
G1 F2400 E37.74035 ;Adjusted e by 0.00859mm
G1 F600 X30.99 Y54.471 E37.75214
G0 F7200 X31.078 Y54.34
G1 F2400 E32.75214
G1 F600 Z1.32
G0 F7200 X30.99 Y63.528 Z1.32
G1 F600 Z0.32
G1 F2400 E37.75455 ;Adjusted e by 0.00241mm
G1 F600 X31.051 Y63.616 E37.76255
G1 X31.082 Y63.66 E37.76657
G0 F7200 X30.99 Y63.528
G1 F2400 E32.76657
G1 F600 Z1.32
G0 F7200 X53.01 Y63.529 Z1.32
G1 F600 Z0.32
G1 F2400 E37.77329 ;Adjusted e by 0.00672mm
G1 F600 X53.01 Y63.66 E37.78308
G1 X52.922 Y63.66 E37.78965
G0 F7200 X53.01 Y63.529
G1 F2400 E32.78965
G1 F600 Z1.32
G0 F7200 X52.913 Y54.34 Z1.32
G1 F600 Z0.32
G1 F2400 E37.79206 ;Adjusted e by 0.00241mm
G1 F600 X53.01 Y54.34 E37.79931
G1 X53.01 Y54.455 E37.8079
G0 F7200 X52.913 Y54.34
G1 F2400 E32.8079
G1 F600 Z1.32
G0 F7200 X31.719 Y53.84 Z1.32
G1 F600 Z0.32
G1 F2400 E37.81434 ;Adjusted e by 0.00644mm
G1 F1200 X32.111 Y53.84 E37.84363
G1 X32.578 Y53.84 E37.87852
G1 F2400 E32.87852
G1 F600 Z1.32
G0 F7200 X31.563 Y54.515 Z1.32
G1 F600 Z0.32
G1 F2400 E37.87852
G1 F1200 X31.162 Y55.111 E37.93219
G1 X30.987 Y55.646 E37.97425
G1 X30.948 Y55.767 E37.98375
G1 X30.91 Y56.202 E38.01637
G1 X30.91 Y58.84 E38.21347
G1 X53.09 Y58.84 E39.87066
G1 X53.09 Y56.172 E40.07
G1 X53.012 Y55.626 E40.11121
G1 X52.996 Y55.518 E40.11937
G1 X52.698 Y54.861 E40.17327
G1 X52.253 Y54.334 E40.22481
G1 X52.235 Y54.313 E40.22687
G1 X51.639 Y53.912 E40.28055
G1 X51.418 Y53.84 E40.29791
G0 F7200 X51.639 Y53.84
G1 F1200 X52.235 Y53.84 E40.31866
G1 X52.263 Y53.84 E40.32069
G1 X53.09 Y53.84 E40.38248
G1 X53.09 Y51.292 E40.57285
G1 X53.09 Y51.172 E40.58182
G1 X53.036 Y50.794 E40.61035
G1 X52.996 Y50.518 E40.63119
G1 X52.938 Y50.389 E40.64175
G1 X52.729 Y49.929 E40.6795
G1 X52.698 Y49.861 E40.68509
G1 X52.476 Y49.599 E40.71075
G1 X52.235 Y49.313 E40.73869
G1 X51.759 Y48.993 E40.78154
G1 X51.639 Y48.912 E40.79236
G1 X51.404 Y48.836 E40.81082
G1 X50.983 Y48.698 E40.84392
G1 X50.548 Y48.66 E40.87654
G1 X50.458 Y48.66 E40.88327
G1 X33.542 Y48.66 E42.14716
G1 X33.422 Y48.66 E42.15612
G1 X33.044 Y48.714 E42.18465
G1 X32.768 Y48.754 E42.20549
G1 X32.639 Y48.812 E42.21605
G1 X32.179 Y49.021 E42.25381
G1 X32.111 Y49.052 E42.25939
G1 X31.849 Y49.274 E42.28505
G1 X31.563 Y49.515 E42.31299
G1 X31.243 Y49.991 E42.35584
G1 X31.162 Y50.111 E42.36666
G1 X31.086 Y50.346 E42.38512
G1 X30.948 Y50.767 E42.41822
G1 X30.91 Y51.202 E42.45084
G1 X30.91 Y51.292 E42.45757
G1 X30.91 Y53.84 E42.64794
G1 X31.719 Y53.84 E42.70839
G0 F7200 X31.41 Y53.34
;TYPE:WALL-OUTER
G1 F1200 X52.59 Y53.34 E44.29086
G1 X52.59 Y51.208 E44.45016
G1 X52.511 Y50.66 E44.49152
G1 X52.271 Y50.131 E44.53493
G1 X51.898 Y49.689 E44.57814
G1 X51.418 Y49.366 E44.62136
G1 X50.882 Y49.191 E44.66349
G1 X50.526 Y49.16 E44.69019
G1 X33.458 Y49.16 E45.96544
G1 X32.91 Y49.239 E46.0068
G1 X32.381 Y49.479 E46.05021
G1 X31.939 Y49.852 E46.09342
G1 X31.616 Y50.332 E46.13665
G1 X31.441 Y50.868 E46.17877
G1 X31.41 Y51.224 E46.20547
G1 X31.41 Y53.34 E46.36357
G0 F7200 X31.61 Y53.34
G0 X31.61 Y53.89
G1 F2400 E41.36357
G1 F600 Z1.32
G0 F7200 X31.41 Y58.34 Z1.32
G1 F600 Z0.32
G1 F2400 E46.36439 ;Adjusted e by 0.00082mm
G1 F1200 X52.59 Y58.34 E47.94687
G1 X52.59 Y56.208 E48.10616
G1 X52.511 Y55.66 E48.14753
G1 X52.271 Y55.131 E48.19093
G1 X51.898 Y54.689 E48.23414
G1 X51.418 Y54.366 E48.27737
G1 X50.882 Y54.191 E48.3195
G1 X50.526 Y54.16 E48.3462
G1 X33.458 Y54.16 E49.62144
G1 X32.91 Y54.239 E49.66281
G1 X32.381 Y54.479 E49.70621
G1 X31.939 Y54.852 E49.74942
G1 X31.616 Y55.332 E49.79265
G1 X31.441 Y55.868 E49.83478
G1 X31.41 Y56.224 E49.86148
G1 X31.41 Y58.34 E50.01958
G0 F7200 X31.61 Y58.34
G0 X31.61 Y58.89
G0 X30.91 Y59.16
