;FLAVOR:Marlin
;TIME:5112
;Filament used: 10.6289m
;Layer height: 0.32
;MINX:29.706
;MINY:6.831
;MINZ:0.32
;MAXX:170.278
;MAXY:193.169
;MAXZ:17.96
;EOFFSETPROCESSED
;Generated with Cura_SteamEngine mb-master-20200424
M82 ;absolute extrusion mode
;
; Crashspace Printer Farm MP10 Mini (C. Nicks Start Code + John Gwinner Probe Code)
;______________________________________________
;Sliced at: Sun 26-04-2020 01:12:51
;Layer Height: 0.32
;Line Width: 0.5
;Flow: 110
;Z-Hop: True
;______________________________________________
;
M140 S60 ; set bed temp
M104 S180.0 T0 ; set extruder park temp to warm but not ooze during bed probing ;Adjusted temp by 20
M190 S60 ; wait for bed temp
G28 ; home all axis
G29 P1; probes mesh
G29 P3; fill in mesh that can't be reached is good
G29 S0 ; save mesh
G29 F 10.0 ;prints linear above this height
G29 A ; use UBL
M104 S280.0 T0 ; set extruder temp ;Adjusted temp by 20
G92 E0;(Reset the extruder to 0)
G0 X0 Y0 Z2 F1500; (set into park)
M109 S280.0 T0 ; wait for extruder temp ;Adjusted temp by 20
G92 E0
G1 E7 F300; (Unretract from last ending code, plus add some for ooze)
;PRIME
G0 X0 Y0 Z0.2 F1500; (Knock off ooze)
G0 X2 Y0 Z0.4 F1500; (Knock off ooze)
G0 X3 Y0 Z1.0 F1500; (Knock off ooze)
G0 X5 Y0 Z0.32 F1000; (Lower into prime)
G91
G1 X5 Y+20 F1000 E5  ;PRIME
G1 X+0.5 ;PRIME
G1 Y-20 F1000 E5  ;PRIME
G90
; Mini nozzle can't hang over edge to catch ooze
;G0 X0 F1500; (Knock off ooze)
;G0 X0 Z0.2 F1500; (Knock off ooze)
;G0 X2 Z0.4 F1500; (Knock off ooze)
;G0 X3 Z1.0 F1500; (Knock off ooze)
G92 E0
;AND GO!!!!
G92 E0
G92 E0
G1 F2400 E-5
;LAYER_COUNT:53
;LAYER:0
M107
G1 F600 Z1.32
;MESH:Object 2
G0 F7200 X30.99 Y27.34 Z1.32
;TYPE:WALL-INNER
G1 F600 Z0.32
G1 F2400 E0.0
G1 F600 X31.078 Y27.34 E0.00657
G1 X30.99 Y27.471 E0.01223
G0 F7200 X30.99 Y27.34
G1 F2400 E-4.98777
G1 F600 Z1.32
G0 F7200 X30.99 Y36.528 Z1.32
G1 F600 Z0.32
G1 F2400 E0.01464 ;Adjusted e by 0.00241mm
G1 F600 X31.051 Y36.616 E0.02263
G1 X31.082 Y36.66 E0.02665
G0 F7200 X30.99 Y36.528
G1 F2400 E-4.97335
G1 F600 Z1.32
G0 F7200 X53.01 Y36.529 Z1.32
G1 F600 Z0.32
G1 F2400 E0.03337 ;Adjusted e by 0.00672mm
G1 F600 X53.01 Y36.66 E0.04314
G1 X52.922 Y36.66 E0.04971
G0 F7200 X53.01 Y36.529
G1 F2400 E-4.95029
G1 F600 Z1.32
G0 F7200 X52.913 Y27.34 Z1.32
G1 F600 Z0.32
G1 F2400 E0.05212 ;Adjusted e by 0.00241mm
G1 F600 X53.01 Y27.34 E0.05936
G1 X53.01 Y27.455 E0.06794
G0 F7200 X52.913 Y27.34
G1 F2400 E-4.93206
G1 F600 Z1.32
G0 F7200 X31.719 Y26.84 Z1.32
G1 F600 Z0.32
G1 F2400 E0.07438 ;Adjusted e by 0.00644mm
G1 F1200 X32.111 Y26.84 E0.10364
G1 X32.578 Y26.84 E0.1385
G1 F2400 E-4.8615
G1 F600 Z1.32
G0 F7200 X31.563 Y27.515 Z1.32
G1 F600 Z0.32
G1 F2400 E0.1385
G1 F1200 X31.162 Y28.112 E0.19217
G1 X30.987 Y28.65 E0.2344
G1 X30.937 Y28.806 E0.24662
G1 X30.91 Y30.597 E0.38031
G1 X30.91 Y31.84 E0.47308
G1 X53.09 Y31.84 E2.1285
G1 X53.09 Y29.172 E2.32763
G1 X53.012 Y28.626 E2.3688
G1 X52.996 Y28.518 E2.37695
G1 X52.698 Y27.861 E2.43079
G1 X52.253 Y27.334 E2.48227
G1 X52.235 Y27.313 E2.48433
G1 X51.638 Y26.912 E2.53801
G1 X51.417 Y26.84 E2.55536
G0 F7200 X51.638 Y26.84
G1 F1200 X52.235 Y26.84 E2.57616
G1 X52.263 Y26.84 E2.57819
G1 X53.09 Y26.84 E2.63991
G1 X53.09 Y24.292 E2.83009
G1 X53.09 Y24.172 E2.83904
G1 X53.036 Y23.794 E2.86754
G1 X52.996 Y23.518 E2.88836
G1 X52.938 Y23.389 E2.89891
G1 X52.729 Y22.929 E2.93662
G1 X52.698 Y22.861 E2.9422
G1 X52.476 Y22.599 E2.96783
G1 X52.235 Y22.313 E2.99574
G1 X51.759 Y21.993 E3.03855
G1 X51.638 Y21.912 E3.04942
G1 X51.404 Y21.836 E3.06778
G1 X50.937 Y21.684 E3.10444
G1 X50.458 Y21.684 E3.14019
G1 X33.542 Y21.661 E4.40273
G1 X33.422 Y21.66 E4.41168
G1 X33.044 Y21.714 E4.44018
G1 X32.768 Y21.754 E4.461
G1 X32.639 Y21.812 E4.47155
G1 X32.179 Y22.021 E4.50926
G1 X32.111 Y22.052 E4.51484
G1 X31.849 Y22.274 E4.54047
G1 X31.563 Y22.515 E4.56839
G1 X31.243 Y22.991 E4.6112
G1 X31.162 Y23.112 E4.62206
G1 X31.087 Y23.346 E4.6404
G1 X30.937 Y23.806 E4.67651
G1 X30.93 Y24.298 E4.71324
G1 X30.91 Y25.597 E4.8102
G1 X30.91 Y26.84 E4.90297
G1 X31.719 Y26.84 E4.96335
G0 F7200 X31.41 Y26.34
;TYPE:WALL-OUTER
G1 F1200 X52.59 Y26.34 E6.54414
G1 X52.59 Y24.208 E6.70326
G1 X52.511 Y23.66 E6.74459
G1 X52.271 Y23.131 E6.78794
G1 X51.898 Y22.689 E6.83111
G1 X51.417 Y22.366 E6.87435
G1 X50.857 Y22.184 E6.9183
G1 X33.458 Y22.16 E8.21689
G1 X32.91 Y22.239 E8.25821
G1 X32.381 Y22.479 E8.30157
G1 X31.939 Y22.852 E8.34473
G1 X31.616 Y23.333 E8.38798
G1 X31.436 Y23.889 E8.43159
G1 X31.41 Y25.601 E8.55938
G1 X31.41 Y26.34 E8.61454
G0 F7200 X31.61 Y26.34
G0 X31.61 Y26.89
G1 F2400 E3.61454
G1 F600 Z1.32
G0 F7200 X31.41 Y31.34 Z1.32
G1 F600 Z0.32
G1 F2400 E8.61536 ;Adjusted e by 0.00082mm
G1 F1200 X52.59 Y31.34 E10.19614
G1 X52.59 Y29.208 E10.35527
G1 X52.511 Y28.66 E10.39659
G1 X52.271 Y28.131 E10.43995
G1 X51.898 Y27.689 E10.48311
G1 X51.417 Y27.366 E10.52636
G1 X50.857 Y27.184 E10.5703
G1 X33.458 Y27.16 E11.86889
G1 X32.91 Y27.239 E11.91022
G1 X32.381 Y27.479 E11.95357
G1 X31.939 Y27.852 E11.99674
G1 X31.616 Y28.333 E12.03998
G1 X31.436 Y28.889 E12.0836
G1 X31.41 Y30.601 E12.21139
G1 X31.41 Y31.34 E12.26655
G0 F7200 X31.61 Y31.34
G0 X31.61 Y31.89
G0 X30.91 Y32.16
;TYPE:WALL-INNER
G1 F1200 X30.91 Y34.642 E12.45179
G1 X30.952 Y35.256 E12.49772
G1 X30.987 Y35.361 E12.50599
G1 X31.182 Y35.93 E12.55088
G1 X31.594 Y36.52 E12.60459
G1 X31.811 Y36.696 E12.62544
G1 X32.152 Y36.972 E12.65818
G1 X32.587 Y37.16 E12.69355
G0 F7200 X31.713 Y37.16
G1 F1200 X30.91 Y37.16 E12.75348
G1 X30.91 Y39.642 E12.93873
G1 X30.952 Y40.256 E12.98466
G1 X31.085 Y40.646 E13.01542
G1 X31.182 Y40.93 E13.03782
G1 X31.234 Y41.005 E13.04463
G1 X31.538 Y41.44 E13.08424
G1 X31.594 Y41.52 E13.09153
G1 X31.841 Y41.72 E13.11525
G1 X32.152 Y41.972 E13.14512
G1 X32.633 Y42.179 E13.1842
G1 X32.807 Y42.255 E13.19838
G1 X33.04 Y42.287 E13.21593
G1 X33.426 Y42.34 E13.24501
G1 X33.542 Y42.34 E13.25367
G1 X50.578 Y42.34 E14.52516
G1 X51.232 Y42.246 E14.57447
G1 X51.382 Y42.178 E14.58677
G1 X51.823 Y41.978 E14.62291
G1 X51.889 Y41.948 E14.62832
G1 X52.151 Y41.726 E14.65395
G1 X52.437 Y41.485 E14.68186
G1 X52.757 Y41.009 E14.72467
G1 X52.838 Y40.888 E14.73554
G1 X52.913 Y40.654 E14.75388
G1 X53.063 Y40.194 E14.78999
G1 X53.07 Y39.702 E14.82671
G1 X53.09 Y38.403 E14.92368
G1 X53.09 Y37.16 E15.01645
G1 X52.281 Y37.16 E15.07683
G1 X51.889 Y37.16 E15.10609
G1 X51.422 Y37.16 E15.14094
G1 F2400 E10.14094
G1 F600 Z1.32
G0 F7200 X52.437 Y36.485 Z1.32
G1 F600 Z0.32
G1 F2400 E15.14094
G1 F1200 X52.838 Y35.888 E15.19462
G1 X53.013 Y35.35 E15.23684
G1 X53.063 Y35.194 E15.24907
G1 X53.09 Y33.403 E15.38276
G1 X53.09 Y32.16 E15.47553
G1 X30.91 Y32.16 E16.53712
G0 F7200 X31.41 Y32.66
;TYPE:WALL-OUTER
G1 F1200 X31.41 Y34.625 E16.68378
G1 X31.446 Y35.157 E16.72358
G1 X31.632 Y35.701 E16.76649
G1 X31.964 Y36.176 E16.80974
G1 X32.413 Y36.54 E16.85288
G1 X32.943 Y36.769 E16.89597
G1 X33.46 Y36.84 E16.93492
G1 X50.542 Y36.84 E18.20985
G1 X51.09 Y36.761 E18.25117
G1 X51.619 Y36.521 E18.29453
G1 X52.061 Y36.148 E18.33769
G1 X52.384 Y35.667 E18.38094
G1 X52.564 Y35.111 E18.42456
G1 X52.59 Y33.399 E18.55235
G1 X52.59 Y32.66 E18.6075
G1 X31.41 Y32.66 E20.18829
G0 F7200 X31.41 Y32.86
G0 X30.86 Y32.86
G1 F2400 E15.18829
G1 F600 Z1.32
G0 F7200 X31.41 Y37.66 Z1.32
G1 F600 Z0.32
G1 F2400 E20.18924 ;Adjusted e by 0.00095mm
G1 F1200 X31.41 Y39.625 E20.3359
G1 X31.446 Y40.157 E20.37569
G1 X31.632 Y40.701 E20.4186
G1 X31.964 Y41.176 E20.46186
G1 X32.413 Y41.54 E20.505
G1 X32.943 Y41.769 E20.54809
G1 X33.46 Y41.84 E20.58704
G1 X50.542 Y41.84 E21.86196
G1 X51.09 Y41.761 E21.90329
G1 X51.619 Y41.521 E21.94664
G1 X52.061 Y41.148 E21.98981
G1 X52.384 Y40.667 E22.03305
G1 X52.564 Y40.111 E22.07667
G1 X52.59 Y38.399 E22.20446
G1 X52.59 Y37.66 E22.25962
G1 X31.41 Y37.66 E23.8404
G0 F7200 X31.41 Y37.86
G0 X30.86 Y37.86
G1 F2400 E18.8404
G1 F600 Z1.32
G0 F7200 X32.006 Y42.358 Z1.32
;TYPE:WALL-INNER
G1 F600 Z0.32
G1 F2400 E23.84129 ;Adjusted e by 0.00089mm
G1 F1200 X31.923 Y42.3 E23.84885
G1 X31.571 Y42.054 E23.87584
G1 X31.316 Y41.799 E23.89855
G1 X31.196 Y41.679 E23.90981
G1 X30.892 Y41.244 E23.94294
G1 X30.824 Y41.098 E23.95366
G1 X30.678 Y40.786 E23.97544
G1 X30.564 Y40.361 E24.00314
G1 X30.539 Y40.268 E24.01032
G1 X30.49 Y39.708 E24.04547
G1 X30.49 Y39.642 E24.05039
G1 X30.49 Y37.16 E24.20631
G1 X30.49 Y35.367 E24.34013
G1 X30.49 Y35.256 E24.3481
G1 X30.49 Y34.642 E24.38855
G1 X30.49 Y32.16 E24.54447
G1 X30.49 Y31.84 E24.56835
G1 X30.49 Y30.597 E24.64644
G1 X30.49 Y28.806 E24.7627
G1 X30.49 Y28.642 E24.77428
G1 X30.49 Y26.84 E24.90878
G1 X30.49 Y25.597 E24.98686
G1 X30.49 Y24.292 E25.07085
G1 X30.539 Y23.732 E25.10714
G1 X30.678 Y23.214 E25.14121
G1 X30.803 Y22.945 E25.16015
G1 X30.892 Y22.756 E25.17332
G1 X31.196 Y22.321 E25.20651
G1 X31.282 Y22.235 E25.21559
G1 X31.571 Y21.946 E25.24127
G1 X31.884 Y21.728 E25.26527
G1 X32.006 Y21.642 E25.27535
G1 X32.464 Y21.428 E25.30707
G1 X32.665 Y21.374 E25.32062
G1 X32.982 Y21.289 E25.34143
G1 X33.386 Y21.254 E25.3671
G1 X33.542 Y21.24 E25.37725
G1 X50.458 Y21.24 E26.47154
G1 X51.018 Y21.289 E26.50801
G1 X51.536 Y21.428 E26.54194
G1 X51.805 Y21.553 E26.56085
G1 X51.994 Y21.642 E26.57402
G1 X52.429 Y21.946 E26.60721
G1 X52.515 Y22.032 E26.61629
G1 X52.804 Y22.321 E26.64197
G1 X53.022 Y22.634 E26.66598
G1 X53.108 Y22.756 E26.67605
G1 X53.322 Y23.214 E26.70777
G1 X53.376 Y23.415 E26.72132
G1 X53.461 Y23.732 E26.74213
G1 X53.496 Y24.136 E26.76781
G1 X53.51 Y24.292 E26.77795
G1 X53.51 Y26.84 E26.93801
G1 X53.51 Y28.62 E27.07086
G1 X53.51 Y29.172 E27.10877
G1 X53.51 Y31.84 E27.27637
G1 X53.51 Y32.16 E27.30025
G1 X53.51 Y33.403 E27.37834
G1 X53.51 Y35.194 E27.4946
G1 X53.51 Y35.358 E27.50618
G1 X53.51 Y37.16 E27.64067
G1 X53.51 Y38.403 E27.71876
G1 X53.51 Y39.708 E27.80275
G1 X53.461 Y40.268 E27.83904
G1 X53.322 Y40.786 E27.8731
G1 X53.197 Y41.055 E27.89205
G1 X53.108 Y41.244 E27.90522
G1 X52.804 Y41.679 E27.93841
G1 X52.718 Y41.765 E27.94748
G1 X52.429 Y42.054 E27.97317
G1 X52.117 Y42.272 E27.99711
G1 X51.996 Y42.357 E28.0071
G1 X51.557 Y42.563 E28.03757
G1 X51.307 Y42.613 E28.05398
G1 X50.661 Y42.745 E28.09297
G1 X50.612 Y42.755 E28.09671
G1 X33.542 Y42.76 E29.16307
G1 X33.391 Y42.747 E29.1729
G1 X32.982 Y42.711 E29.19885
G1 X32.705 Y42.637 E29.21713
G1 X32.464 Y42.572 E29.23323
G1 X32.006 Y42.358 E29.26506
G0 F7200 X31.751 Y42.791
;TYPE:WALL-OUTER
G1 F1200 X31.247 Y42.438 E29.31099
G1 X30.812 Y42.003 E29.3569
G1 X30.459 Y41.499 E29.40283
G1 X30.206 Y40.957 E29.44747
G1 X30.045 Y40.355 E29.49398
G1 X29.99 Y39.729 E29.54088
G1 X29.99 Y24.271 E30.6946
G1 X30.045 Y23.645 E30.7415
G1 X30.206 Y23.043 E30.78801
G1 X30.459 Y22.501 E30.83266
G1 X30.812 Y21.997 E30.87858
G1 X31.247 Y21.562 E30.9245
G1 X31.751 Y21.209 E30.97042
G1 X32.293 Y20.956 E31.01506
G1 X32.895 Y20.795 E31.06157
G1 X33.521 Y20.74 E31.10848
G1 X50.479 Y20.74 E32.37415
G1 X51.105 Y20.795 E32.42105
G1 X51.707 Y20.956 E32.46756
G1 X52.249 Y21.209 E32.5122
G1 X52.753 Y21.562 E32.55813
G1 X53.188 Y21.997 E32.60404
G1 X53.541 Y22.501 E32.64997
G1 X53.794 Y23.043 E32.69461
G1 X53.955 Y23.645 E32.74112
G1 X54.01 Y24.271 E32.78802
G1 X54.01 Y39.729 E33.94174
G1 X53.955 Y40.355 E33.98864
G1 X53.794 Y40.957 E34.03515
G1 X53.541 Y41.499 E34.0798
G1 X53.188 Y42.003 E34.12572
G1 X52.753 Y42.438 E34.17164
G1 X52.249 Y42.791 E34.21756
G1 X51.716 Y43.041 E34.2615
G1 X50.662 Y43.255 E34.34177
G1 X33.521 Y43.26 E35.6211
G1 X32.895 Y43.205 E35.66801
G1 X32.293 Y43.044 E35.71452
G1 X31.751 Y42.791 E35.75916
G0 F7200 X31.588 Y42.677
G0 X31.903 Y42.227
G1 F2400 E30.75916
G1 F600 Z1.32
G0 F7200 X32.995 Y37.215 Z1.32
;TYPE:SKIN
G1 F600 Z0.32
G1 F2400 E35.76021 ;Adjusted e by 0.00105mm
G1 F1200 X33.436 Y37.25 E35.78557
G1 X50.568 Y37.25 E36.72922
G1 X51.008 Y37.206 E36.75483
G1 F2400 E31.75483
G1 F600 Z1.32
G0 F7200 X51.018 Y26.762 Z1.32
G1 F600 Z0.32
G1 F2400 E36.75766 ;Adjusted e by 0.00283mm
G1 F1200 X51.023 Y26.807 E36.76023
G0 F7200 X50.924 Y26.762
G1 F1200 X33.432 Y26.75 E37.75505
G1 X32.992 Y26.794 E37.78066
G1 F2400 E32.78066
G1 F600 Z1.32
;MESH:Object 3
G0 F7200 X31.078 Y54.34 Z1.32
;TYPE:WALL-INNER
G1 F600 Z0.32
G1 F2400 E37.78925 ;Adjusted e by 0.00859mm
G1 F600 X30.99 Y54.471 E37.80102
G0 F7200 X31.078 Y54.34
G1 F2400 E32.80102
G1 F600 Z1.32
G0 F7200 X30.99 Y63.528 Z1.32
G1 F600 Z0.32
G1 F2400 E37.80343 ;Adjusted e by 0.00241mm
G1 F600 X31.051 Y63.616 E37.81143
G1 X31.082 Y63.66 E37.81544
G0 F7200 X30.99 Y63.528
G1 F2400 E32.81544
G1 F600 Z1.32
G0 F7200 X53.01 Y63.529 Z1.32
G1 F600 Z0.32
G1 F2400 E37.82216 ;Adjusted e by 0.00672mm
G1 F600 X53.01 Y63.66 E37.83194
G1 X52.922 Y63.66 E37.83851
G0 F7200 X53.01 Y63.529
G1 F2400 E32.83851
G1 F600 Z1.32
G0 F7200 X52.913 Y54.34 Z1.32
G1 F600 Z0.32
G1 F2400 E37.84092 ;Adjusted e by 0.00241mm
G1 F600 X53.01 Y54.34 E37.84816
G1 X53.01 Y54.455 E37.85674
G0 F7200 X52.913 Y54.34
G1 F2400 E32.85674
G1 F600 Z1.32
G0 F7200 X31.719 Y53.84 Z1.32
G1 F600 Z0.32
G1 F2400 E37.86318 ;Adjusted e by 0.00644mm
G1 F1200 X32.111 Y53.84 E37.89244
G1 X32.578 Y53.84 E37.92729
G1 F2400 E32.92729
G1 F600 Z1.32
G0 F7200 X31.563 Y54.515 Z1.32
G1 F600 Z0.32
G1 F2400 E37.92729
G1 F1200 X31.162 Y55.112 E37.98097
G1 X30.987 Y55.65 E38.02319
G1 X30.937 Y55.806 E38.03542
G1 X30.91 Y57.597 E38.16911
G1 X30.91 Y58.84 E38.26188
G1 X53.09 Y58.84 E39.9173
G1 X53.09 Y56.172 E40.11643
G1 X53.012 Y55.626 E40.15759
G1 X52.996 Y55.518 E40.16574
G1 X52.698 Y54.861 E40.21959
G1 X52.253 Y54.334 E40.27107
G1 X52.235 Y54.313 E40.27313
G1 X51.638 Y53.912 E40.32681
G1 X51.417 Y53.84 E40.34416
G0 F7200 X51.638 Y53.84
G1 F1200 X52.235 Y53.84 E40.36496
G1 X52.263 Y53.84 E40.36699
G1 X53.09 Y53.84 E40.42871
G1 X53.09 Y51.292 E40.61888
G1 X53.09 Y51.172 E40.62784
G1 X53.036 Y50.794 E40.65634
G1 X52.996 Y50.518 E40.67715
G1 X52.938 Y50.389 E40.68771
G1 X52.729 Y49.929 E40.72542
G1 X52.698 Y49.861 E40.731
G1 X52.476 Y49.599 E40.75663
G1 X52.235 Y49.313 E40.78454
G1 X51.759 Y48.993 E40.82735
G1 X51.638 Y48.912 E40.83822
G1 X51.404 Y48.836 E40.85658
G1 X50.937 Y48.684 E40.89324
G1 X50.458 Y48.684 E40.92899
G1 X33.542 Y48.661 E42.19153
G1 X33.422 Y48.66 E42.20048
G1 X33.044 Y48.714 E42.22898
G1 X32.768 Y48.754 E42.2498
G1 X32.639 Y48.812 E42.26035
G1 X32.179 Y49.021 E42.29806
G1 X32.111 Y49.052 E42.30364
G1 X31.849 Y49.274 E42.32927
G1 X31.563 Y49.515 E42.35718
G1 X31.243 Y49.991 E42.39999
G1 X31.162 Y50.112 E42.41086
G1 X31.087 Y50.346 E42.4292
G1 X30.937 Y50.806 E42.46531
G1 X30.93 Y51.298 E42.50204
G1 X30.91 Y52.597 E42.599
G1 X30.91 Y53.84 E42.69177
G1 X31.719 Y53.84 E42.75215
G0 F7200 X31.41 Y53.34
;TYPE:WALL-OUTER
G1 F1200 X52.59 Y53.34 E44.33294
G1 X52.59 Y51.208 E44.49206
G1 X52.511 Y50.66 E44.53338
G1 X52.271 Y50.131 E44.57674
G1 X51.898 Y49.689 E44.6199
G1 X51.417 Y49.366 E44.66315
G1 X50.857 Y49.184 E44.7071
G1 X33.458 Y49.16 E46.00568
G1 X32.91 Y49.239 E46.04701
G1 X32.381 Y49.479 E46.09036
G1 X31.939 Y49.852 E46.13353
G1 X31.616 Y50.333 E46.17677
G1 X31.436 Y50.889 E46.22039
G1 X31.41 Y52.601 E46.34818
G1 X31.41 Y53.34 E46.40334
G0 F7200 X31.61 Y53.34
G0 X31.61 Y53.89
G1 F2400 E41.40334
G1 F600 Z1.32
G0 F7200 X31.41 Y58.34 Z1.32
G1 F600 Z0.32
G1 F2400 E46.40416 ;Adjusted e by 0.00082mm
G1 F1200 X52.59 Y58.34 E47.98494
G1 X52.59 Y56.208 E48.14407
G1 X52.511 Y55.66 E48.18539
G1 X52.271 Y55.131 E48.22874
G1 X51.898 Y54.689 E48.27191
G1 X51.417 Y54.366 E48.31515
G1 X50.857 Y54.184 E48.3591
G1 X33.458 Y54.16 E49.65769
G1 X32.91 Y54.239 E49.69901
G1 X32.381 Y54.479 E49.74237
G1 X31.939 Y54.852 E49.78553
G1 X31.616 Y55.333 E49.82878
G1 X31.436 Y55.889 E49.8724
G1 X31.41 Y57.601 E50.00019
G1 X31.41 Y58.34 E50.05534
G0 F7200 X31.61 Y58.34
G0 X31.61 Y58.89
G0 X30.91 Y59.16
;TYPE:WALL-INNER
G1 F1200 X30.91 Y61.642 E50.24059
G1 X30.952 Y62.256 E50.28652
G1 X30.987 Y62.361 E50.29478
G1 X31.182 Y62.93 E50.33967
G1 X31.594 Y63.52 E50.39338
G1 X31.811 Y63.696 E50.41424
G1 X32.152 Y63.972 E50.44698
G1 X32.587 Y64.16 E50.48235
G0 F7200 X31.713 Y64.16
G1 F1200 X30.91 Y64.16 E50.54228
G1 X30.91 Y66.642 E50.72753
G1 X30.952 Y67.256 E50.77346
G1 X31.085 Y67.646 E50.80421
G1 X31.182 Y67.93 E50.82661
G1 X31.234 Y68.005 E50.83342
