;FLAVOR:Marlin
;TIME:4866
;Filament used: 10.1635m
;Layer height: 0.32
;MINX:29.706
;MINY:6.831
;MINZ:0.32
;MAXX:170.278
;MAXY:193.169
;MAXZ:16.96
;EOFFSETPROCESSED
;Generated with Cura_SteamEngine mb-master-20200328
M82 ;absolute extrusion mode
;
; Crashspace Printer Farm MP10 Mini (C. Nicks Start Code + John Gwinner Probe Code)
;______________________________________________
;Sliced at: Sat 25-04-2020 02:31:46
;Layer Height: 0.32
;Line Width: 0.5
;Flow: 104
;Z-Hop: False
;______________________________________________
;
M140 S60 ; set bed temp
M104 S180.0 T0 ; set extruder park temp to warm but not ooze during bed probing ;Adjusted temp by 20
M190 S60 ; wait for bed temp
G28 ; home all axis
G29 P1; probes mesh
G29 P3; fill in mesh that can't be reached is good
G29 S0 ; save mesh
G29 F 10.0 ;prints linear above this height
G29 A ; use UBL
M104 S280.0 T0 ; set extruder temp ;Adjusted temp by 20
G92 E0;(Reset the extruder to 0)
G0 X0 Y0 Z2 F1500; (set into park)
M109 S280.0 T0 ; wait for extruder temp ;Adjusted temp by 20
G92 E0
G1 E7 F300; (Unretract from last ending code, plus add some for ooze)
;PRIME
G0 X0 Y0 Z0.2 F1500; (Knock off ooze)
G0 X2 Y0 Z0.4 F1500; (Knock off ooze)
G0 X3 Y0 Z1.0 F1500; (Knock off ooze)
G0 X5 Y0 Z0.32 F1000; (Lower into prime)
G91
G1 X5 Y+20 F1000 E5  ;PRIME
G1 X+0.5 ;PRIME
G1 Y-20 F1000 E5  ;PRIME
G90
; Mini nozzle can't hang over edge to catch ooze
;G0 X0 F1500; (Knock off ooze)
;G0 X0 Z0.2 F1500; (Knock off ooze)
;G0 X2 Z0.4 F1500; (Knock off ooze)
;G0 X3 Z1.0 F1500; (Knock off ooze)
G92 E0
;AND GO!!!!
G92 E0
G92 E0
G1 F2400 E-5
;LAYER_COUNT:53
;LAYER:0
M107
G1 F600 Z1.32
;MESH:Object 2
G0 F7200 X30.99 Y27.34 Z1.32
;TYPE:WALL-INNER
G1 F600 Z0.32
G1 F2400 E0.0
G1 F600 X31.078 Y27.34 E0.00609
G1 X30.99 Y27.471 E0.01133
G0 F7200 X30.99 Y27.34
G1 F2400 E-4.98867
G0 F7200 X30.99 Y36.528
G1 F2400 E0.01374 ;Adjusted e by 0.00241mm
G1 F600 X31.051 Y36.616 E0.02115
G1 X31.082 Y36.66 E0.02487
G0 F7200 X30.99 Y36.528
G1 F2400 E-4.97513
G0 F7200 X53.01 Y36.529
G1 F2400 E0.03159 ;Adjusted e by 0.00672mm
G1 F600 X53.01 Y36.66 E0.04066
G1 X52.922 Y36.66 E0.04675
G0 F7200 X53.01 Y36.529
G1 F2400 E-4.95325
G0 F7200 X52.913 Y27.34
G1 F2400 E0.04916 ;Adjusted e by 0.00241mm
G1 F600 X53.01 Y27.34 E0.05587
G1 X53.01 Y27.455 E0.06382
G0 F7200 X52.913 Y27.34
G1 F2400 E-4.93618
G0 F7200 X31.719 Y26.84
G1 F2400 E0.07026 ;Adjusted e by 0.00644mm
G1 F1200 X32.111 Y26.84 E0.09738
G1 X32.578 Y26.84 E0.12969
G1 F2400 E-4.87031
G0 F7200 X31.563 Y27.515
G1 F2400 E0.12969
G1 F1200 X31.162 Y28.111 E0.17938
G1 X30.987 Y28.646 E0.21833
G1 X30.948 Y28.767 E0.22712
G1 X30.91 Y29.202 E0.25733
G1 X30.91 Y31.84 E0.43983
G1 X53.09 Y31.84 E1.97427
G1 X53.09 Y29.172 E2.15884
G1 X53.012 Y28.626 E2.197
G1 X52.996 Y28.518 E2.20455
G1 X52.698 Y27.861 E2.25446
G1 X52.253 Y27.334 E2.30218
G1 X52.235 Y27.313 E2.30409
G1 X51.639 Y26.912 E2.35379
G1 X51.418 Y26.84 E2.36987
G0 F7200 X51.639 Y26.84
G1 F1200 X52.235 Y26.84 E2.38908
G1 X52.263 Y26.84 E2.39096
G1 X53.09 Y26.84 E2.44817
G1 X53.09 Y24.292 E2.62444
G1 X53.09 Y24.172 E2.63274
G1 X53.036 Y23.794 E2.65916
G1 X52.996 Y23.518 E2.67845
G1 X52.938 Y23.389 E2.68824
G1 X52.729 Y22.929 E2.72319
G1 X52.698 Y22.861 E2.72836
G1 X52.476 Y22.599 E2.75212
G1 X52.235 Y22.313 E2.77799
G1 X51.759 Y21.993 E2.81767
G1 X51.639 Y21.912 E2.82769
G1 X51.404 Y21.836 E2.84478
G1 X50.983 Y21.698 E2.87543
G1 X50.548 Y21.66 E2.90563
G1 X50.458 Y21.66 E2.91186
G1 X33.542 Y21.66 E4.08213
G1 X33.422 Y21.66 E4.09043
G1 X33.044 Y21.714 E4.11685
G1 X32.768 Y21.754 E4.13614
G1 X32.639 Y21.812 E4.14592
G1 X32.179 Y22.021 E4.18088
G1 X32.111 Y22.052 E4.18605
G1 X31.849 Y22.274 E4.2098
G1 X31.563 Y22.515 E4.23568
G1 X31.243 Y22.991 E4.27536
G1 X31.162 Y23.111 E4.28537
G1 X31.086 Y23.346 E4.30246
G1 X30.948 Y23.767 E4.33311
G1 X30.91 Y24.202 E4.36332
G1 X30.91 Y24.292 E4.36955
G1 X30.91 Y26.84 E4.54582
G1 X31.719 Y26.84 E4.60179
G0 F7200 X31.41 Y26.34
;TYPE:WALL-OUTER
G1 F1200 X52.59 Y26.34 E6.06704
G1 X52.59 Y24.208 E6.21454
G1 X52.511 Y23.66 E6.25284
G1 X52.271 Y23.131 E6.29303
G1 X51.898 Y22.689 E6.33304
G1 X51.418 Y22.366 E6.37306
G1 X50.882 Y22.191 E6.41207
G1 X50.526 Y22.16 E6.43679
G1 X33.458 Y22.16 E7.61757
G1 X32.91 Y22.239 E7.65588
G1 X32.381 Y22.479 E7.69606
G1 X31.939 Y22.852 E7.73608
G1 X31.616 Y23.332 E7.7761
G1 X31.441 Y23.868 E7.81511
G1 X31.41 Y24.224 E7.83983
G1 X31.41 Y26.34 E7.98622
G0 F7200 X31.61 Y26.34
G0 X31.61 Y26.89
G1 F2400 E2.98622
G0 F7200 X31.41 Y31.34
G1 F2400 E7.98704 ;Adjusted e by 0.00082mm
G1 F1200 X52.59 Y31.34 E9.45229
G1 X52.59 Y29.208 E9.59979
G1 X52.511 Y28.66 E9.63809
G1 X52.271 Y28.131 E9.67828
G1 X51.898 Y27.689 E9.71829
G1 X51.418 Y27.366 E9.75831
G1 X50.882 Y27.191 E9.79732
G1 X50.526 Y27.16 E9.82204
G1 X33.458 Y27.16 E11.00282
G1 X32.91 Y27.239 E11.04113
G1 X32.381 Y27.479 E11.08132
G1 X31.939 Y27.852 E11.12133
G1 X31.616 Y28.332 E11.16135
G1 X31.441 Y28.868 E11.20036
G1 X31.41 Y29.224 E11.22508
G1 X31.41 Y31.34 E11.37147
G0 F7200 X31.61 Y31.34
G0 X31.61 Y31.89
G0 X30.91 Y32.16
;TYPE:WALL-INNER
G1 F1200 X30.91 Y34.642 E11.54318
G1 X30.952 Y35.256 E11.58575
G1 X30.987 Y35.361 E11.59341
G1 X31.182 Y35.93 E11.63502
G1 X31.594 Y36.52 E11.6848
G1 X31.811 Y36.696 E11.70413
G1 X32.152 Y36.972 E11.73448
G1 X32.587 Y37.16 E11.76727
G0 F7200 X31.713 Y37.16
G1 F1200 X30.91 Y37.16 E11.82282
G1 X30.91 Y39.642 E11.99453
G1 X30.952 Y40.256 E12.0371
G1 X31.085 Y40.646 E12.06561
G1 X31.182 Y40.93 E12.08637
G1 X31.234 Y41.005 E12.09268
G1 X31.538 Y41.44 E12.1294
G1 X31.594 Y41.52 E12.13615
G1 X31.841 Y41.72 E12.15814
G1 X32.152 Y41.972 E12.18583
G1 X32.633 Y42.179 E12.22206
G1 X32.807 Y42.255 E12.2352
G1 X33.04 Y42.287 E12.25147
G1 X33.426 Y42.34 E12.27842
G1 X33.542 Y42.34 E12.28645
G1 X50.578 Y42.34 E13.46502
G1 X50.943 Y42.288 E13.49052
G1 X51.232 Y42.246 E13.51072
G1 X51.358 Y42.189 E13.52029
G1 X51.823 Y41.978 E13.55562
G1 X51.889 Y41.948 E13.56063
G1 X52.151 Y41.726 E13.58439
G1 X52.437 Y41.485 E13.61026
G1 X52.757 Y41.009 E13.64994
G1 X52.838 Y40.889 E13.65996
G1 X52.914 Y40.654 E13.67705
G1 X53.052 Y40.233 E13.7077
G1 X53.09 Y39.798 E13.73791
G1 X53.09 Y39.708 E13.74413
G1 X53.09 Y37.16 E13.9204
G1 X52.281 Y37.16 E13.97637
G1 X51.889 Y37.16 E14.00349
G1 X51.422 Y37.16 E14.0358
G1 F2400 E9.0358
G0 F7200 X52.437 Y36.485
G1 F2400 E14.0358
G1 F1200 X52.838 Y35.889 E14.08549
G1 X53.013 Y35.354 E14.12444
G1 X53.052 Y35.233 E14.13323
G1 X53.09 Y34.798 E14.16344
G1 X53.09 Y32.16 E14.34594
G1 X30.91 Y32.16 E15.32995
G0 F7200 X31.41 Y32.66
;TYPE:WALL-OUTER
G1 F1200 X31.41 Y34.625 E15.46589
G1 X31.446 Y35.157 E15.50278
G1 X31.632 Y35.701 E15.54255
G1 X31.964 Y36.176 E15.58264
G1 X32.413 Y36.54 E15.62263
G1 X32.943 Y36.769 E15.66257
G1 X33.46 Y36.84 E15.69867
G1 X50.542 Y36.84 E16.88042
G1 X51.09 Y36.761 E16.91873
G1 X51.619 Y36.521 E16.95892
G1 X52.061 Y36.148 E16.99893
G1 X52.384 Y35.668 E17.03895
G1 X52.559 Y35.132 E17.07796
G1 X52.59 Y34.776 E17.10268
G1 X52.59 Y32.66 E17.24907
G1 X31.41 Y32.66 E18.71432
G0 F7200 X31.41 Y32.86
G0 X30.86 Y32.86
G1 F2400 E13.71432
G0 F7200 X31.41 Y37.66
G1 F2400 E18.71527 ;Adjusted e by 0.00095mm
G1 F1200 X31.41 Y39.625 E18.85121
G1 X31.446 Y40.157 E18.8881
G1 X31.632 Y40.701 E18.92788
G1 X31.964 Y41.176 E18.96797
G1 X32.413 Y41.54 E19.00796
G1 X32.943 Y41.769 E19.0479
G1 X33.46 Y41.84 E19.084
G1 X50.542 Y41.84 E20.26575
G1 X51.09 Y41.761 E20.30405
G1 X51.619 Y41.521 E20.34424
G1 X52.061 Y41.148 E20.38425
G1 X52.384 Y40.668 E20.42428
G1 X52.559 Y40.132 E20.46329
G1 X52.59 Y39.776 E20.48801
G1 X52.59 Y37.66 E20.63439
G1 X31.41 Y37.66 E22.09965
G0 F7200 X31.41 Y37.86
G0 X30.86 Y37.86
G1 F2400 E17.09965
G0 F7200 X32.006 Y42.358
;TYPE:WALL-INNER
G1 F2400 E22.10054 ;Adjusted e by 0.00089mm
G1 F1200 X31.923 Y42.3 E22.10754
G1 X31.571 Y42.054 E22.13256
G1 X31.316 Y41.799 E22.15361
G1 X31.196 Y41.679 E22.16405
G1 X30.892 Y41.244 E22.19476
G1 X30.824 Y41.098 E22.2047
G1 X30.678 Y40.786 E22.22488
G1 X30.564 Y40.361 E22.25055
G1 X30.539 Y40.268 E22.25722
G1 X30.49 Y39.708 E22.28979
G1 X30.49 Y39.642 E22.29436
G1 X30.49 Y37.16 E22.43888
G1 X30.49 Y35.367 E22.56292
G1 X30.49 Y35.256 E22.57031
G1 X30.49 Y34.642 E22.6078
G1 X30.49 Y32.16 E22.75233
G1 X30.49 Y31.84 E22.77446
G1 X30.49 Y29.202 E22.92807
G1 X30.49 Y28.767 E22.95452
G1 X30.49 Y28.639 E22.96299
G1 X30.49 Y26.84 E23.08745
G1 X30.49 Y24.292 E23.23582
G1 X30.501 Y24.167 E23.24345
G1 X30.539 Y23.732 E23.2683
G1 X30.557 Y23.663 E23.27323
G1 X30.678 Y23.214 E23.30033
G1 X30.804 Y22.944 E23.31792
G1 X30.892 Y22.756 E23.33003
G1 X31.196 Y22.321 E23.3608
G1 X31.282 Y22.235 E23.36921
G1 X31.571 Y21.946 E23.39302
G1 X31.884 Y21.728 E23.41526
G1 X32.006 Y21.642 E23.4246
G1 X32.464 Y21.428 E23.45401
G1 X32.665 Y21.374 E23.46657
G1 X32.982 Y21.289 E23.48586
G1 X33.386 Y21.254 E23.50965
G1 X33.542 Y21.24 E23.51905
G1 X50.458 Y21.24 E24.50405
G1 X50.583 Y21.251 E24.51168
G1 X51.018 Y21.289 E24.53653
G1 X51.087 Y21.307 E24.54146
G1 X51.536 Y21.428 E24.56856
G1 X51.806 Y21.554 E24.58615
G1 X51.994 Y21.642 E24.59826
G1 X52.429 Y21.946 E24.62903
G1 X52.515 Y22.032 E24.63744
G1 X52.804 Y22.321 E24.66125
G1 X53.022 Y22.634 E24.6835
G1 X53.108 Y22.756 E24.69283
G1 X53.322 Y23.214 E24.72224
G1 X53.376 Y23.415 E24.7348
G1 X53.461 Y23.732 E24.75409
G1 X53.496 Y24.136 E24.77788
G1 X53.51 Y24.292 E24.78728
G1 X53.51 Y26.84 E24.93565
G1 X53.51 Y28.62 E25.05879
G1 X53.51 Y29.172 E25.09392
G1 X53.51 Y31.84 E25.24928
G1 X53.51 Y32.16 E25.27142
G1 X53.51 Y34.798 E25.42502
G1 X53.51 Y35.233 E25.45147
G1 X53.51 Y35.361 E25.45995
G1 X53.51 Y37.16 E25.5844
G1 X53.51 Y39.708 E25.73277
G1 X53.499 Y39.833 E25.7404
G1 X53.461 Y40.268 E25.76525
G1 X53.443 Y40.337 E25.77018
G1 X53.322 Y40.786 E25.79728
G1 X53.196 Y41.056 E25.81487
G1 X53.108 Y41.244 E25.82698
G1 X52.804 Y41.679 E25.85775
G1 X52.718 Y41.765 E25.86616
G1 X52.429 Y42.054 E25.88997
G1 X52.117 Y42.272 E25.91216
G1 X51.996 Y42.357 E25.92142
G1 X51.533 Y42.574 E25.95117
G1 X51.334 Y42.627 E25.96363
G1 X51.005 Y42.715 E25.98367
G1 X50.656 Y42.755 E26.00451
G1 X50.579 Y42.755 E26.00983
G1 X33.542 Y42.76 E26.99598
G1 X33.391 Y42.747 E27.00509
G1 X32.982 Y42.711 E27.02915
G1 X32.705 Y42.637 E27.0461
G1 X32.464 Y42.572 E27.06101
G1 X32.006 Y42.358 E27.09052
G0 F7200 X31.751 Y42.791
;TYPE:WALL-OUTER
G1 F1200 X31.247 Y42.438 E27.13309
G1 X30.812 Y42.003 E27.17565
G1 X30.459 Y41.499 E27.21822
G1 X30.206 Y40.957 E27.2596
G1 X30.045 Y40.355 E27.30271
G1 X29.99 Y39.729 E27.34618
G1 X29.99 Y24.271 E28.41558
G1 X30.045 Y23.645 E28.45906
G1 X30.206 Y23.043 E28.50217
G1 X30.459 Y22.501 E28.54355
G1 X30.812 Y21.997 E28.58612
G1 X31.247 Y21.562 E28.62868
G1 X31.751 Y21.209 E28.67124
G1 X32.293 Y20.956 E28.71262
G1 X32.895 Y20.795 E28.75574
G1 X33.521 Y20.74 E28.79921
G1 X50.479 Y20.74 E29.97238
G1 X51.105 Y20.795 E30.01586
G1 X51.707 Y20.956 E30.05897
G1 X52.249 Y21.209 E30.10035
G1 X52.753 Y21.562 E30.14292
G1 X53.188 Y21.997 E30.18548
G1 X53.541 Y22.501 E30.22804
G1 X53.794 Y23.043 E30.26942
G1 X53.955 Y23.645 E30.31253
G1 X54.01 Y24.271 E30.35601
G1 X54.01 Y39.729 E31.42541
G1 X53.955 Y40.355 E31.46888
G1 X53.794 Y40.957 E31.512
G1 X53.541 Y41.499 E31.55338
G1 X53.188 Y42.003 E31.59594
G1 X52.753 Y42.438 E31.6385
G1 X52.249 Y42.791 E31.68107
G1 X51.706 Y43.045 E31.72254
G1 X51.096 Y43.208 E31.76622
G1 X50.687 Y43.255 E31.79471
G1 X33.521 Y43.26 E32.98227
G1 X32.895 Y43.205 E33.02574
G1 X32.293 Y43.044 E33.06885
G1 X31.751 Y42.791 E33.11023
G0 F7200 X31.588 Y42.677
G0 X31.903 Y42.227
G1 F2400 E28.11023
G0 F7200 X32.989 Y37.235
;TYPE:SKIN
G1 F2400 E33.11127 ;Adjusted e by 0.00104mm
G1 F1200 X33.037 Y37.215 E33.11443
G0 F7200 X33.276 Y37.239
G1 F1200 X33.422 Y37.249 E33.12213
G1 X50.568 Y37.25 E33.99753
G1 X51.008 Y37.206 E34.02127
G1 F2400 E29.02127
G0 F7200 X51.019 Y26.761
G1 F2400 E34.0241 ;Adjusted e by 0.00283mm
G1 F1200 X51.024 Y26.807 E34.02653
G0 F7200 X50.822 Y26.761
G1 F1200 X50.55 Y26.75 E34.04092
G1 X33.432 Y26.75 E34.91489
G1 X32.992 Y26.794 E34.93863
G1 F2400 E29.93863
;MESH:Object 3
G0 F7200 X31.078 Y54.34
;TYPE:WALL-INNER
G1 F2400 E34.94722 ;Adjusted e by 0.00859mm
G1 F600 X30.99 Y54.471 E34.95813
G0 F7200 X31.078 Y54.34
G1 F2400 E29.95813
G0 F7200 X30.99 Y63.528
G1 F2400 E34.96054 ;Adjusted e by 0.00241mm
G1 F600 X31.051 Y63.616 E34.96795
G1 X31.082 Y63.66 E34.97167
G0 F7200 X30.99 Y63.528
G1 F2400 E29.97167
G0 F7200 X53.01 Y63.529
G1 F2400 E34.97839 ;Adjusted e by 0.00672mm
G1 F600 X53.01 Y63.66 E34.98746
G1 X52.922 Y63.66 E34.99355
G0 F7200 X53.01 Y63.529
G1 F2400 E29.99355
G0 F7200 X52.913 Y54.34
G1 F2400 E34.99596 ;Adjusted e by 0.00241mm
G1 F600 X53.01 Y54.34 E35.00267
G1 X53.01 Y54.455 E35.01062
G0 F7200 X52.913 Y54.34
G1 F2400 E30.01062
G0 F7200 X31.719 Y53.84
G1 F2400 E35.01706 ;Adjusted e by 0.00644mm
G1 F1200 X32.111 Y53.84 E35.04418
G1 X32.578 Y53.84 E35.07649
G1 F2400 E30.07649
G0 F7200 X31.563 Y54.515
G1 F2400 E35.07649
G1 F1200 X31.162 Y55.111 E35.12618
G1 X30.987 Y55.646 E35.16513
G1 X30.948 Y55.767 E35.17392
G1 X30.91 Y56.202 E35.20413
G1 X30.91 Y58.84 E35.38663
G1 X53.09 Y58.84 E36.92107
G1 X53.09 Y56.172 E37.10564
G1 X53.012 Y55.626 E37.1438
G1 X52.996 Y55.518 E37.15135
G1 X52.698 Y54.861 E37.20126
G1 X52.253 Y54.334 E37.24898
G1 X52.235 Y54.313 E37.25089
G1 X51.639 Y53.912 E37.30059
G1 X51.418 Y53.84 E37.31667
G0 F7200 X51.639 Y53.84
G1 F1200 X52.235 Y53.84 E37.33588
G1 X52.263 Y53.84 E37.33776
G1 X53.09 Y53.84 E37.39497
G1 X53.09 Y51.292 E37.57124
G1 X53.09 Y51.172 E37.57954
G1 X53.036 Y50.794 E37.60596
G1 X52.996 Y50.518 E37.62525
G1 X52.938 Y50.389 E37.63504
G1 X52.729 Y49.929 E37.66999
G1 X52.698 Y49.861 E37.67516
G1 X52.476 Y49.599 E37.69892
G1 X52.235 Y49.313 E37.72479
G1 X51.759 Y48.993 E37.76447
G1 X51.639 Y48.912 E37.77449
G1 X51.404 Y48.836 E37.79158
G1 X50.983 Y48.698 E37.82223
G1 X50.548 Y48.66 E37.85243
G1 X50.458 Y48.66 E37.85866
G1 X33.542 Y48.66 E39.02893
G1 X33.422 Y48.66 E39.03723
G1 X33.044 Y48.714 E39.06364
G1 X32.768 Y48.754 E39.08294
G1 X32.639 Y48.812 E39.09272
G1 X32.179 Y49.021 E39.12768
G1 X32.111 Y49.052 E39.13285
G1 X31.849 Y49.274 E39.1566
G1 X31.563 Y49.515 E39.18248
G1 X31.243 Y49.991 E39.22216
G1 X31.162 Y50.111 E39.23217
G1 X31.086 Y50.346 E39.24926
G1 X30.948 Y50.767 E39.27991
G1 X30.91 Y51.202 E39.31012
G1 X30.91 Y51.292 E39.31635
G1 X30.91 Y53.84 E39.49262
G1 X31.719 Y53.84 E39.54859
G0 F7200 X31.41 Y53.34
;TYPE:WALL-OUTER
G1 F1200 X52.59 Y53.34 E41.01384
G1 X52.59 Y51.208 E41.16134
G1 X52.511 Y50.66 E41.19964
G1 X52.271 Y50.131 E41.23983
G1 X51.898 Y49.689 E41.27984
G1 X51.418 Y49.366 E41.31986
G1 X50.882 Y49.191 E41.35887
G1 X50.526 Y49.16 E41.38359
G1 X33.458 Y49.16 E42.56437
G1 X32.91 Y49.239 E42.60268
G1 X32.381 Y49.479 E42.64286
G1 X31.939 Y49.852 E42.68288
G1 X31.616 Y50.332 E42.7229
G1 X31.441 Y50.868 E42.76191
G1 X31.41 Y51.224 E42.78663
G1 X31.41 Y53.34 E42.93302
G0 F7200 X31.61 Y53.34
G0 X31.61 Y53.89
G1 F2400 E37.93302
G0 F7200 X31.41 Y58.34
G1 F2400 E42.93384 ;Adjusted e by 0.00082mm
G1 F1200 X52.59 Y58.34 E44.39909
G1 X52.59 Y56.208 E44.54659
G1 X52.511 Y55.66 E44.58489
G1 X52.271 Y55.131 E44.62508
G1 X51.898 Y54.689 E44.66509
G1 X51.418 Y54.366 E44.70511
G1 X50.882 Y54.191 E44.74412
G1 X50.526 Y54.16 E44.76884
G1 X33.458 Y54.16 E45.94962
G1 X32.91 Y54.239 E45.98793
G1 X32.381 Y54.479 E46.02811
G1 X31.939 Y54.852 E46.06813
G1 X31.616 Y55.332 E46.10815
G1 X31.441 Y55.868 E46.14716
G1 X31.41 Y56.224 E46.17188
G1 X31.41 Y58.34 E46.31827
G0 F7200 X31.61 Y58.34
G0 X31.61 Y58.89
G0 X30.91 Y59.16
;TYPE:WALL-INNER
G1 F1200 X30.91 Y61.642 E46.48997
G1 X30.952 Y62.256 E46.53255
G1 X30.987 Y62.361 E46.54021
G1 X31.182 Y62.93 E46.58182
G1 X31.594 Y63.52 E46.6316
G1 X31.811 Y63.696 E46.65093
G1 X32.152 Y63.972 E46.68128
G1 X32.587 Y64.16 E46.71407
G0 F7200 X31.713 Y64.16
G1 F1200 X30.91 Y64.16 E46.76962
G1 X30.91 Y66.642 E46.94133
G1 X30.952 Y67.256 E46.9839
G1 X31.085 Y67.646 E47.01241
G1 X31.182 Y67.93 E47.03317
G1 X31.234 Y68.005 E47.03948
G1 X31.538 Y68.44 E47.0762
G1 X31.594 Y68.52 E47.08295
G1 X31.841 Y68.72 E47.10494
G1 X32.152 Y68.972 E47.13263
G1 X32.633 Y69.179 E47.16886
G1 X32.807 Y69.255 E47.182
