;FLAVOR:Marlin
;TIME:2034
;Filament used: 9.97499m
;Layer height: 0.52
;MINX:72.37
;MINY:51.469
;MINZ:0.52
;MAXX:225.647
;MAXY:248.538
;MAXZ:16.64
;EOFFSETPROCESSED
;Generated with Cura_SteamEngine mb-master-20200328
M82 ;absolute extrusion mode
;
; Crashspace Printer Farm MP10 (C. Nicks Start Code + John Gwinner Probe Code)
;______________________________________________
;Sliced at: Sat 25-04-2020 12:16:49
;Layer Height: 0.52
;Line Width: 0.74
;Flow: 100
;Z-Hop: False
;______________________________________________
;
M140 S60 ; set bed temp
M104 S180.0 T0 ; set extruder park temp to warm but not ooze during bed probing ;Adjusted temp by 20
M190 S70 ; wait for bed temp
; Try to grab the ooze off the nozzle here before probing around
G28 ; home all axis
G29 P1; probes mesh
G29 P3; fill in mesh that can't be reached is good
G29 S0 ; save mesh
G29 F 10.0 ;prints linear above this height
G29 A ; use UBL
M104 S280.0 T0 ; set extruder temp ;Adjusted temp by 20
G92 E0;(Reset the extruder to 0)
G0 X0 Y30 Z2 F1500; (set into park)
M109 S280.0 T0 ; wait for extruder temp ;Adjusted temp by 20
G92 E0
G1 E7 F300; (Unretract from last ending code, plus add some for ooze)
;PRIME
G0 X0 Y30 Z0.2 F1500; (Knock off ooze)
G0 X2 Y30 Z0.4 F1500; (Knock off ooze)
G0 X3 Y30 Z1.0 F1500; (Knock off ooze)
G0 X5 Y30 Z0.52 F1000; (Lower into prime)
G91
G1 X5 Y+20 F1000 E5  ;PRIME
G1 X+0.74 ;PRIME
G1 Y-20 F1000 E5  ;PRIME
G90
G92 E0
G0 X0 Y20 F1500; (Knock off ooze)
G0 X0 Y20 Z0.2 F1500; (Knock off ooze)
G0 X2 Y20 Z0.4 F1500; (Knock off ooze)
G0 X3 Y20 Z1.0 F1500; (Knock off ooze)
G92 E0
;AND GO!!!!
G92 E0
G92 E0
G1 F2400 E-5
;LAYER_COUNT:32
;LAYER:0
M107
G1 F600 Z1.52
G0 F7200 X118.018 Y244.992 Z1.52
;TYPE:SKIRT
G1 F600 Z0.52
G1 F2400 E0.0
G1 F1800 X115.314 Y245.08 E0.41983
G1 X112.651 Y245.243 E0.83386
G1 X109.956 Y245.484 E1.25374
G1 X107.312 Y245.795 E1.66687
G1 X104.678 Y246.181 E2.07998
G1 X102.028 Y246.647 E2.49753
G1 X99.037 Y247.265 E2.97148
G1 X98.729 Y247.334 E3.02046
G1 X98.61 Y247.36 E3.03936
G1 X98.27 Y247.428 E3.09317
G1 X97.683 Y247.512 E3.18519
G1 X97.281 Y247.547 E3.24781
G1 X96.921 Y247.566 E3.30375
G1 X95.756 Y247.589 E3.48457
G1 X95.65 Y247.59 E3.50102
G1 X84.148 Y247.59 E5.28592
G1 X83.367 Y247.579 E5.40713
G1 X83.049 Y247.568 E5.45651
G1 X82.803 Y247.552 E5.49477
G1 X82.456 Y247.521 E5.54883
G1 X81.832 Y247.428 E5.64673
G1 X81.36 Y247.329 E5.72157
G1 X81.071 Y247.26 E5.76768
G1 X80.531 Y247.093 E5.85539
G1 X80.103 Y246.935 E5.92619
G1 X79.831 Y246.827 E5.97161
G1 X79.286 Y246.566 E6.06538
G1 X78.844 Y246.323 E6.14365
G1 X78.721 Y246.253 E6.16561
G1 X78.14 Y245.864 E6.27412
G1 X77.652 Y245.489 E6.36962
G1 X77.025 Y244.923 E6.5007
G1 X76.614 Y244.489 E6.59346
G1 X76.32 Y244.152 E6.66286
G1 X76.03 Y243.763 E6.73815
G1 X75.86 Y243.515 E6.78481
G1 X75.687 Y243.247 E6.83431
G1 X75.412 Y242.769 E6.91989
G1 X75.253 Y242.451 E6.97506
G1 X75.114 Y242.157 E7.02553
G1 X74.977 Y241.842 E7.07883
G1 X74.954 Y241.784 E7.08851
G1 X74.833 Y241.447 E7.14408
G1 X74.705 Y241.039 E7.21044
G1 X74.638 Y240.806 E7.24806
G1 X74.503 Y240.209 E7.34304
G1 X74.435 Y239.803 E7.40692
G1 X74.393 Y239.517 E7.45178
G1 X74.343 Y238.873 E7.55202
G1 X74.335 Y238.414 E7.62326
G1 X74.335 Y238.17 E7.66112
G1 X74.38 Y237.531 E7.76053
G1 X74.44 Y237.073 E7.83221
G1 X74.494 Y236.736 E7.88517
G1 X74.626 Y236.166 E7.97597
G1 X74.743 Y235.761 E8.04139
G1 X74.843 Y235.443 E8.09312
G1 X75.065 Y234.87 E8.18848
G1 X75.201 Y234.571 E8.23945
G1 X75.333 Y234.3 E8.28623
G1 X75.44 Y234.096 E8.32198
G1 X75.723 Y233.618 E8.40818
G1 X76.087 Y233.084 E8.50847
G1 X76.279 Y232.821 E8.559
G1 X76.482 Y232.573 E8.60873
G1 X77.383 Y231.536 E8.82191
G1 X78.033 Y230.8 E8.97429
G1 X79.721 Y228.777 E9.38315
G1 X81.408 Y226.636 E9.80614
G1 X83.02 Y224.464 E10.22589
G1 X84.534 Y222.299 E10.63585
G1 X85.967 Y220.124 E11.04005
G1 X87.411 Y217.789 E11.46609
G1 X88.74 Y215.497 E11.87723
G1 X90.039 Y213.106 E12.29949
G1 X91.235 Y210.745 E12.7102
G1 X92.371 Y208.337 E13.12338
G1 X93.45 Y205.871 E13.54108
G1 X94.451 Y203.396 E13.95538
G1 X95.383 Y200.889 E14.37044
G1 X96.254 Y198.329 E14.79007
G1 X97.035 Y195.8 E15.20081
G1 X97.752 Y193.219 E15.6165
G1 X98.385 Y190.665 E16.02483
G1 X98.973 Y187.971 E16.45273
G1 X99.46 Y185.382 E16.86154
G1 X99.882 Y182.736 E17.27734
G1 X100.232 Y180.052 E17.69738
G1 X100.497 Y177.442 E18.10448
G1 X100.695 Y174.74 E18.52491
G1 X100.817 Y172.044 E18.94371
G1 X100.86 Y169.413 E19.35204
G1 X100.829 Y166.716 E19.7706
G1 X100.72 Y164.013 E20.19039
G1 X100.54 Y161.381 E20.59979
G1 X100.282 Y158.71 E21.01621
G1 X99.946 Y156.041 E21.43366
G1 X99.542 Y153.421 E21.84504
G1 X99.055 Y150.765 E22.26407
G1 X98.503 Y148.172 E22.67547
G1 X97.857 Y145.512 E23.10026
G1 X97.167 Y142.982 E23.50721
G1 X96.383 Y140.399 E23.9261
G1 X95.535 Y137.867 E24.34047
G1 X94.616 Y135.357 E24.75526
G1 X93.638 Y132.903 E25.16521
G1 X92.563 Y130.416 E25.58565
G1 X91.437 Y127.998 E25.99957
G1 X90.228 Y125.583 E26.41868
G1 X88.961 Y123.223 E26.83435
G1 X87.64 Y120.92 E27.24635
G1 X86.239 Y118.631 E27.66281
G1 X84.802 Y116.425 E28.07137
G1 X83.239 Y114.169 E28.49727
G1 X81.674 Y112.039 E28.90744
G1 X80.024 Y109.924 E29.32371
G1 X78.313 Y107.852 E29.7407
G1 X76.575 Y105.867 E30.15013
G1 X75.799 Y105.038 E30.32634
G1 X75.686 Y104.901 E30.3539
G1 X74.844 Y103.983 E30.5472
G1 X74.561 Y103.66 E30.61385
G1 X74.372 Y103.433 E30.65968
G1 X74.078 Y103.042 E30.7356
G1 X73.882 Y102.755 E30.78953
G1 X73.71 Y102.488 E30.83882
G1 X73.513 Y102.143 E30.90047
G1 X73.356 Y101.843 E30.95301
G1 X73.214 Y101.552 E31.00326
G1 X73.062 Y101.193 E31.06376
G1 X72.938 Y100.869 E31.11759
G1 X72.841 Y100.599 E31.16211
G1 X72.709 Y100.161 E31.2331
G1 X72.603 Y99.734 E31.30138
G1 X72.565 Y99.562 E31.32871
G1 X72.484 Y99.099 E31.40165
G1 X72.432 Y98.678 E31.46748
G1 X72.412 Y98.475 E31.49914
G1 X72.387 Y98.032 E31.56799
G1 X72.371 Y97.015 E31.72583
G1 X72.37 Y96.931 E31.73887
G1 X72.37 Y82.969 E33.90551
G1 X72.38 Y82.248 E34.01741
G1 X72.384 Y82.088 E34.04225
G1 X72.398 Y81.769 E34.0918
G1 X72.422 Y81.418 E34.14639
G1 X72.475 Y80.964 E34.21733
G1 X72.541 Y80.568 E34.27963
G1 X72.649 Y80.001 E34.3692
G1 X73.126 Y77.288 E34.79666
G1 X73.513 Y74.651 E35.21026
G1 X73.827 Y71.999 E35.62468
G1 X74.068 Y69.306 E36.04425
G1 X74.229 Y66.651 E36.45702
G1 X74.317 Y63.992 E36.86987
G1 X74.316 Y62.678 E37.07378
G1 X74.336 Y61.24 E37.29695
G1 X74.381 Y60.614 E37.39435
G1 X74.446 Y60.12 E37.47167
G1 X74.483 Y59.878 E37.50966
G1 X74.621 Y59.272 E37.6061
G1 X74.763 Y58.78 E37.68557
G1 X74.79 Y58.686 E37.70075
G1 X75.057 Y57.981 E37.81773
G1 X75.276 Y57.506 E37.8989
G1 X75.534 Y57.015 E37.98497
G1 X75.684 Y56.762 E38.03062
G1 X75.909 Y56.414 E38.09493
G1 X76.079 Y56.172 E38.14082
G1 X76.465 Y55.685 E38.23725
G1 X76.835 Y55.27 E38.32353
G1 X77.425 Y54.703 E38.45052
G1 X77.889 Y54.32 E38.54388
G1 X77.918 Y54.296 E38.54972
G1 X78.555 Y53.847 E38.67066
G1 X78.865 Y53.661 E38.72676
G1 X79.101 Y53.526 E38.76895
G1 X79.704 Y53.232 E38.87306
G1 X80.241 Y53.011 E38.96317
G1 X81.004 Y52.762 E39.08772
G1 X81.513 Y52.637 E39.16906
G1 X81.688 Y52.597 E39.19691
G1 X82.375 Y52.489 E39.30483
G1 X82.76 Y52.454 E39.36482
G1 X83.256 Y52.426 E39.44192
G1 X84.247 Y52.409 E39.59572
G1 X84.339 Y52.408 E39.61
G1 X96.008 Y52.408 E41.42082
G1 X96.467 Y52.414 E41.49205
G1 X96.655 Y52.42 E41.52124
G1 X97.34 Y52.453 E41.62766
G1 X98.144 Y52.553 E41.75339
G1 X98.971 Y52.72 E41.88432
G1 X99.14 Y52.753 E41.91104
G1 X101.465 Y53.245 E42.27983
G1 X104.089 Y53.722 E42.6937
G1 X106.706 Y54.121 E43.1045
G1 X109.381 Y54.454 E43.52282
G1 X112.053 Y54.708 E43.93933
G1 X114.698 Y54.886 E44.35072
G1 X118.081 Y55.005 E44.87602
G1 X121.492 Y55.066 E45.40543
G1 X130.51 Y55.205 E46.80503
G1 X133.25 Y55.209 E47.23022
G1 X135.917 Y55.136 E47.64425
G1 X138.613 Y54.987 E48.06326
G1 X141.268 Y54.765 E48.4767
G1 X143.925 Y54.466 E48.89162
G1 X146.564 Y54.094 E49.3052
G1 X149.196 Y53.647 E49.71948
G1 X151.878 Y53.112 E50.14388
G1 X154.435 Y52.526 E50.55097
G1 X156.963 Y51.873 E50.95614
G1 X157.75 Y51.658 E51.08275
G1 X158.391 Y51.524 E51.18437
G1 X159.284 Y51.469 E51.32321
G1 X160.276 Y51.491 E51.47719
G1 X160.381 Y51.495 E51.49349
G1 X163.448 Y51.623 E51.96985
G1 X163.525 Y51.626 E51.98181
G1 X164.237 Y51.666 E52.09247
G1 X164.989 Y51.762 E52.21012
G1 X164.994 Y51.763 E52.21091
G1 X165.628 Y51.931 E52.31269
G1 X166.012 Y52.074 E52.37628
G1 X166.744 Y52.38 E52.49939
G1 X167.985 Y52.916 E52.70917
G1 X170.467 Y53.908 E53.12396
G1 X173.008 Y54.841 E53.54401
G1 X175.507 Y55.68 E53.95309
G1 X178.102 Y56.469 E54.37398
G1 X180.652 Y57.166 E54.78421
G1 X184.431 Y58.063 E55.38694
G1 X184.437 Y58.064 E55.38788
G1 X185.485 Y58.29 E55.55425
G1 X185.975 Y58.388 E55.6318
G1 X186.112 Y58.418 E55.65356
G1 X186.873 Y58.591 E55.77467
G1 X187.093 Y58.642 E55.80971
G1 X187.844 Y58.827 E55.92974
G1 X188.256 Y58.938 E55.99595
G1 X189.147 Y59.169 E56.13879
G1 X189.271 Y59.203 E56.15874
G1 X190.064 Y59.429 E56.2867
G1 X190.169 Y59.46 E56.30369
G1 X191.126 Y59.754 E56.45905
G1 X191.227 Y59.786 E56.47549
G1 X192.127 Y60.082 E56.62252
G1 X193.103 Y60.426 E56.78311
G1 X193.229 Y60.472 E56.80392
G1 X194.1 Y60.804 E56.94857
G1 X194.222 Y60.853 E56.96897
G1 X195.505 Y61.383 E57.18439
G1 X196.23 Y61.707 E57.30762
G1 X196.334 Y61.755 E57.3254
G1 X196.901 Y62.023 E57.42272
G1 X197.002 Y62.072 E57.44014
G1 X197.716 Y62.428 E57.56395
G1 X198.024 Y62.588 E57.61781
G1 X198.76 Y62.985 E57.74758
G1 X198.86 Y63.04 E57.76529
G1 X199.278 Y63.277 E57.83985
G1 X199.611 Y63.472 E57.89974
G1 X199.683 Y63.514 E57.91267
G1 X200.296 Y63.886 E58.02395
G1 X200.43 Y63.97 E58.04849
G1 X201.154 Y64.439 E58.18235
G1 X201.465 Y64.648 E58.2405
G1 X201.584 Y64.73 E58.26293
G1 X202.279 Y65.222 E58.39507
G1 X202.625 Y65.475 E58.46158
G1 X202.812 Y65.618 E58.49811
G1 X203.78 Y66.383 E58.68958
G1 X203.901 Y66.481 E58.71374
G1 X204.44 Y66.933 E58.8229
G1 X204.572 Y67.048 E58.85007
G1 X205.129 Y67.547 E58.96612
G1 X205.235 Y67.645 E58.98852
G1 X206.021 Y68.393 E59.1569
G1 X206.555 Y68.935 E59.27497
G1 X207.437 Y69.88 E59.47557
G1 X207.693 Y70.166 E59.53513
G1 X208.02 Y70.546 E59.61293
G1 X208.088 Y70.627 E59.62934
G1 X208.676 Y71.338 E59.77252
G1 X208.745 Y71.422 E59.78939
G1 X209.014 Y71.761 E59.85654
G1 X209.369 Y72.224 E59.94708
G1 X209.428 Y72.303 E59.96238
G1 X209.895 Y72.938 E60.0847
G1 X210.36 Y73.601 E60.21037
G1 X210.621 Y73.985 E60.28242
G1 X210.79 Y74.238 E60.32964
G1 X211.18 Y74.84 E60.44095
G1 X211.554 Y75.439 E60.55053
G1 X211.595 Y75.505 E60.56259
G1 X212.032 Y76.235 E60.69462
G1 X212.366 Y76.816 E60.79861
G1 X212.418 Y76.909 E60.81515
G1 X212.891 Y77.771 E60.96773
G1 X212.945 Y77.871 E60.98537
G1 X213.383 Y78.711 E61.13238
G1 X213.741 Y79.429 E61.25688
G1 X214.042 Y80.051 E61.36411
G1 X214.081 Y80.133 E61.3782
G1 X214.627 Y81.323 E61.58138
G1 X215.751 Y83.757 E61.99742
G1 X216.945 Y86.16 E62.41382
G1 X218.205 Y88.525 E62.82966
G1 X219.525 Y90.843 E63.2436
G1 X220.912 Y93.126 E63.65814
G1 X222.379 Y95.392 E64.07704
G1 X223.795 Y97.457 E64.46559
G1 X224.132 Y98.019 E64.56728
G1 X224.398 Y98.618 E64.66899
G1 X224.619 Y99.374 E64.79122
G1 X224.837 Y100.395 E64.95323
G1 X224.859 Y100.503 E64.97034
G1 X225.422 Y103.435 E65.43364
G1 X225.564 Y104.232 E65.55927
G1 X225.647 Y105.173 E65.70586
G1 X225.576 Y106.049 E65.84225
G1 X225.361 Y107.352 E66.04718
G1 X225.352 Y107.461 E66.06415
G1 X225.16 Y108.605 E66.24417
G1 X224.789 Y111.296 E66.66571
G1 X224.498 Y113.948 E67.07972
G1 X224.284 Y116.579 E67.48935
G1 X224.142 Y119.304 E67.9128
G1 X224.077 Y121.938 E68.32167
G1 X224.088 Y124.636 E68.74036
G1 X224.175 Y127.311 E69.15569
G1 X224.334 Y129.953 E69.56642
G1 X224.381 Y130.627 E69.67126
G1 X224.425 Y131.314 E69.77809
G1 X224.427 Y131.341 E69.78229
G1 X224.597 Y134.231 E70.23155
G1 X224.599 Y134.277 E70.23869
G1 X224.732 Y136.924 E70.64997
G1 X224.735 Y136.976 E70.65806
G1 X224.827 Y139.253 E71.01169
G1 X224.828 Y139.299 E71.01883
G1 X224.913 Y141.966 E71.43291
G1 X224.915 Y142.02 E71.4413
G1 X224.979 Y144.958 E71.89733
G1 X224.98 Y145.013 E71.90587
G1 X225.011 Y147.719 E72.32582
G1 X225.011 Y147.765 E72.33296
G1 X225.018 Y150.141 E72.70167
G1 X225.018 Y150.178 E72.70741
G1 X225.007 Y152.955 E73.13836
G1 X225.006 Y153.01 E73.14689
G1 X224.968 Y155.71 E73.56592
G1 X224.967 Y155.763 E73.57415
G1 X224.902 Y158.47 E73.99435
G1 X224.901 Y158.526 E74.00304
G1 X224.805 Y161.317 E74.43641
G1 X224.685 Y164.089 E74.86698
G1 X224.682 Y164.143 E74.87537
G1 X224.537 Y166.863 E75.29806
G1 X224.535 Y166.909 E75.30521
G1 X224.389 Y169.265 E75.67152
G1 X224.312 Y170.357 E75.8414
G1 X224.16 Y173.011 E76.25392
G1 X224.082 Y175.71 E76.67293
G1 X224.08 Y178.377 E77.0868
G1 X224.154 Y181.041 E77.50037
G1 X224.305 Y183.743 E77.92032
G1 X224.528 Y186.394 E78.33316
G1 X224.826 Y189.039 E78.74622
G1 X225.206 Y191.723 E79.16688
G1 X225.419 Y193.027 E79.37192
G1 X225.567 Y193.89 E79.50779
G1 X225.639 Y194.527 E79.60727
G1 X225.633 Y195.182 E79.70892
G1 X225.565 Y195.736 E79.79554
G1 X225.414 Y196.598 E79.93134
G1 X225.398 Y196.685 E79.94507
G1 X224.804 Y199.775 E80.43336
G1 X224.791 Y199.844 E80.44426
G1 X224.643 Y200.563 E80.55817
G1 X224.472 Y201.195 E80.65977
G1 X224.225 Y201.802 E80.76147
G1 X223.988 Y202.243 E80.83916
G1 X223.985 Y202.248 E80.84006
G1 X223.813 Y202.516 E80.88948
G1 X223.021 Y203.674 E81.10719
G1 X222.986 Y203.732 E81.1177
G1 X222.712 Y204.124 E81.19192
G1 X221.252 Y206.349 E81.6049
G1 X219.83 Y208.654 E82.02518
G1 X218.496 Y210.963 E82.439
G1 X217.208 Y213.343 E82.85895
G1 X216.01 Y215.714 E83.27119
G1 X214.74 Y218.429 E83.73632
G1 X214.47 Y219.029 E83.83842
G1 X214.361 Y219.27 E83.87947
G1 X213.951 Y220.14 E84.02872
G1 X213.755 Y220.545 E84.09854
G1 X213.485 Y221.086 E84.19237
G1 X213.236 Y221.575 E84.27752
G1 X213.204 Y221.638 E84.28849
G1 X212.936 Y222.148 E84.37789
G1 X212.688 Y222.607 E84.45885
G1 X212.441 Y223.05 E84.53756
G1 X212.377 Y223.165 E84.55798
G1 X211.907 Y223.977 E84.70358
G1 X211.615 Y224.464 E84.7917
G1 X211.234 Y225.075 E84.90344
G1 X211.178 Y225.163 E84.91962
G1 X210.706 Y225.888 E85.05387
G1 X210.612 Y226.028 E85.08004
G1 X209.872 Y227.09 E85.2809
G1 X209.782 Y227.215 E85.30481
G1 X209.346 Y227.804 E85.41853
G1 X209.088 Y228.143 E85.48464
G1 X209.025 Y228.224 E85.50056
G1 X208.643 Y228.705 E85.59588
G1 X208.516 Y228.861 E85.62709
G1 X208.171 Y229.276 E85.71084
G1 X208.103 Y229.357 E85.72725
G1 X207.596 Y229.943 E85.8475
G1 X207.298 Y230.275 E85.91673
G1 X207.231 Y230.348 E85.93211
G1 X206.699 Y230.917 E86.05299
G1 X206.605 Y231.015 E86.07406
G1 X206.135 Y231.493 E86.17809
G1 X206.027 Y231.6 E86.20168
G1 X205.361 Y232.24 E86.34502
G1 X205.217 Y232.373 E86.37544
G1 X204.562 Y232.958 E86.51172
G1 X204.249 Y233.228 E86.57587
G1 X203.802 Y233.601 E86.66621
G1 X203.461 Y233.876 E86.73419
G1 X203.123 Y234.142 E86.80094
G1 X203.049 Y234.199 E86.81543
G1 X202.52 Y234.599 E86.91835
G1 X202.42 Y234.673 E86.93766
G1 X201.905 Y235.044 E87.03615
G1 X201.817 Y235.106 E87.05286
G1 X201.368 Y235.416 E87.13753
G1 X201.137 Y235.571 E87.1807
G1 X200.603 Y235.919 E87.27961
G1 X200.205 Y236.17 E87.35263
G1 X199.483 Y236.603 E87.48327
G1 X199.387 Y236.659 E87.50052
G1 X198.881 Y236.948 E87.59094
G1 X198.494 Y237.162 E87.65957
G1 X197.978 Y237.436 E87.75023
G1 X197.883 Y237.485 E87.76682
G1 X197.167 Y237.846 E87.89125
G1 X197.003 Y237.926 E87.91957
G1 X195.983 Y238.404 E88.09438
G1 X195.846 Y238.465 E88.11765
G1 X195.193 Y238.749 E88.22815
G1 X195.089 Y238.793 E88.24567
G1 X194.177 Y239.167 E88.39864
G1 X193.873 Y239.286 E88.4493
G1 X193.245 Y239.521 E88.55335
G1 X192.999 Y239.612 E88.59406
G1 X192.329 Y239.849 E88.70434
G1 X191.51 Y240.123 E88.83836
G1 X191.197 Y240.224 E88.8894
G1 X190.963 Y240.298 E88.92748
G1 X190.02 Y240.583 E89.08035
G1 X189.924 Y240.611 E89.09587
G1 X189.027 Y240.864 E89.2405
G1 X188.857 Y240.911 E89.26787
G1 X188.225 Y241.077 E89.36927
G1 X187.98 Y241.139 E89.40849
G1 X187.047 Y241.367 E89.55754
G1 X186.967 Y241.386 E89.5703
G1 X185.758 Y241.661 E89.7627
G1 X185.048 Y241.81 E89.87528
G1 X182.437 Y242.393 E90.29044
G1 X179.807 Y243.058 E90.71141
G1 X177.27 Y243.777 E91.12061
G1 X174.699 Y244.585 E91.53883
