;FLAVOR:Marlin
;TIME:4004
;Filament used: 10.5298m
;Layer height: 0.4
;MINX:39.033
;MINY:40.491
;MINZ:0.4
;MAXX:260.967
;MAXY:259.509
;MAXZ:5.8
;EOFFSETPROCESSED
;Generated with Cura_SteamEngine mb-master-20200525
M82 ;absolute extrusion mode
;
; Crashspace Printer Farm MP10 (C. Nicks Start Code + John Gwinner Probe Code)
;______________________________________________
;Sliced at: Mon 22-06-2020 00:14:59
;Layer Height: 0.4
;Line Width: 0.6
;Flow: 100
;Z-Hop: True
;______________________________________________
;
M140 S60 ; set bed temp
M104 S170.0 T0 ; set extruder park temp to warm but not ooze during bed probing ;Adjusted temp by 10
M190 S60 ; wait for bed temp
; Try to grab the ooze off the nozzle here before probing around
G28 ; home all axis
;G29 P1; probes mesh
;G29 P3; fill in mesh that can't be reached is good
;G29 S0 ; save mesh
;G29 F 10.0 ;prints linear above this height
;G29 A ; use UBL
M104 S270.0 T0 ; set extruder temp ;Adjusted temp by 10
G92 E0;(Reset the extruder to 0)
G0 X0 Y30 Z2 F1500; (set into park)
M109 S270.0 T0 ; wait for extruder temp ;Adjusted temp by 10
G92 E0
G1 E7 F300; (Unretract from last ending code, plus add some for ooze)
;PRIME
G0 X0 Y30 Z0.2 F1500; (Knock off ooze)
G0 X2 Y30 Z0.4 F1500; (Knock off ooze)
G0 X3 Y30 Z1.0 F1500; (Knock off ooze)
G0 X5 Y30 Z0.4 F1000; (Lower into prime)
G91
G1 X5 Y+20 F1000 E5  ;PRIME
G1 X+0.6 ;PRIME
G1 Y-20 F1000 E5  ;PRIME
G90
G92 E0
G0 X0 Y20 F1500; (Knock off ooze)
G0 X0 Y20 Z0.2 F1500; (Knock off ooze)
G0 X2 Y20 Z0.4 F1500; (Knock off ooze)
G0 X3 Y20 Z1.0 F1500; (Knock off ooze)
G92 E0
;AND GO!!!!
G92 E0
G92 E0
G1 F2400 E-5
;LAYER_COUNT:12
;LAYER:0
M107
G1 F600 Z1.4
;MESH:PLA_04_2X_Verkstan_MP10.3mf
G0 F7200 X190.583 Y187.057 Z1.4
;TYPE:WALL-INNER
G1 F600 Z0.4
G1 F2400 E0.0
G1 F1800 X190.902 Y187.053 E0.03151
G1 X194.043 Y187.001 E0.34183
G1 X194.342 Y186.997 E0.37137
G0 F7200 X194.346 Y187.296
G1 F1800 X194.37 Y188.765 E0.5165
G1 X194.374 Y189.064 E0.54604
G0 F7200 X194.075 Y189.068
G1 F1800 X190.757 Y189.115 E0.87383
G1 X190.609 Y187.375 E1.04634
G0 F7200 X190.583 Y187.057
G0 X191.235 Y187.647
G1 F1800 X191.554 Y187.643 E1.07785
G1 X193.751 Y187.607 E1.29491
G1 X193.761 Y188.172 E1.35073
G1 X193.765 Y188.472 E1.38036
G0 F7200 X193.465 Y188.476
G1 F1800 X191.308 Y188.507 E1.59346
G1 X191.262 Y187.965 E1.64719
G0 F7200 X191.235 Y187.647
G1 F2400 E-3.35281
G1 F600 Z1.4
G0 F7200 X191.235 Y187.647 Z1.4
G0 X190.896 Y211.5
G1 F600 Z0.4
G1 F2400 E1.65159 ;Adjusted e by 0.0044mm
G1 F1800 X194.436 Y211.434 E2.00134
G1 X194.736 Y211.429 E2.03098
G0 F7200 X194.74 Y211.729
G1 F1800 X194.779 Y214.161 E2.27125
G1 X194.783 Y214.461 E2.30089
G0 F7200 X194.483 Y214.465
G1 F1800 X190.998 Y214.513 E2.64518
G1 X190.666 Y214.517 E2.67798
G0 F7200 X190.696 Y214.187
G1 F1800 X190.778 Y213.288 E2.76715
G1 X190.896 Y211.5 E2.94416
G0 F7200 X191.459 Y212.09
G1 F1800 X193.845 Y212.045 E3.1799
G1 X194.145 Y212.04 E3.20954
G0 F7200 X194.149 Y212.34
G1 F1800 X194.17 Y213.569 E3.33096
G1 X194.174 Y213.869 E3.3606
G0 F7200 X193.874 Y213.873
G1 F1800 X191.656 Y213.904 E3.57972
G1 X191.324 Y213.908 E3.61251
G0 F7200 X191.376 Y213.335
G1 F1800 X191.459 Y212.09 E3.73577
G0 F7200 X192.021 Y212.68
G1 F1800 X193.255 Y212.656 E3.85769
G1 X193.555 Y212.651 E3.88733
G0 F7200 X193.265 Y213.281
G1 F1800 X192.304 Y213.295 E3.98227
G1 X191.98 Y213.299 E4.01428
G0 F7200 X192.021 Y212.68
G1 F2400 E-0.98572
G1 F600 Z1.4
G0 F7200 X191.768 Y212.984 Z1.4
G0 X70.308 Y232.221
G1 F600 Z0.4
G1 F2400 E4.03872 ;Adjusted e by 0.02444mm
G1 F1800 X72.77 Y233.715 E4.3232
G1 X75.354 Y235.167 E4.61599
G1 X77.982 Y236.533 E4.90857
G1 X80.656 Y237.811 E5.20133
G1 X83.369 Y239 E5.49393
G1 X86.121 Y240.098 E5.78662
G1 X88.907 Y241.107 E6.07932
G1 X91.725 Y242.021 E6.37197
G1 X94.572 Y242.841 E6.66464
G1 X97.446 Y243.567 E6.95746
G1 X100.339 Y244.198 E7.24995
G1 X103.252 Y244.735 E7.54255
G1 X106.182 Y245.174 E7.83522
G1 X109.126 Y245.515 E8.12798
G1 X112.077 Y245.76 E8.42049
G1 X115.038 Y245.907 E8.71334
G1 X118 Y245.955 E9.00598
G1 X120.962 Y245.907 E9.29861
G1 X123.923 Y245.76 E9.59146
G1 X126.874 Y245.515 E9.88397
G1 X129.818 Y245.174 E10.17674
G1 X132.748 Y244.735 E10.4694
G1 X135.661 Y244.198 E10.762
G1 X138.554 Y243.567 E11.0545
G1 X141.428 Y242.841 E11.34732
G1 X144.275 Y242.021 E11.63998
G1 X147.093 Y241.107 E11.93263
G1 X149.879 Y240.098 E12.22533
G1 X152.631 Y239 E12.51802
G1 X155.344 Y237.811 E12.81062
G1 X158.018 Y236.533 E13.10339
G1 X160.646 Y235.167 E13.39596
G1 X163.23 Y233.715 E13.68876
G1 X165.69 Y232.222 E13.97301
G1 X165.767 Y232.22 E13.98062
G1 X165.884 Y232.239 E13.99233
G1 X166 Y232.276 E14.00436
G1 X166.097 Y232.325 E14.01509
G1 X166.195 Y232.396 E14.02705
G1 X166.279 Y232.479 E14.03871
G1 X166.346 Y232.572 E14.05004
G1 X166.404 Y232.685 E14.06258
G1 X166.44 Y232.797 E14.0742
G1 X166.467 Y232.962 E14.09072
G1 X167.136 Y241.594 E14.94597
G1 X167.14 Y241.818 E14.9681
G1 X167.122 Y241.984 E14.98459
G1 X167.066 Y242.2 E15.00664
G1 X167.001 Y242.353 E15.02306
G1 X165.858 Y244.466 E15.26037
G1 X165.664 Y245.147 E15.33031
G1 X165.748 Y246.003 E15.41528
G1 X166.266 Y246.705 E15.50146
G1 X166.353 Y246.823 E15.51594
G1 X166.777 Y246.981 E15.56064
G0 F7200 X166.015 Y247.205
G1 F1800 X163.538 Y247.912 E15.81509
G1 X159.879 Y248.87 E16.18872
G1 X156.167 Y249.752 E16.56561
G1 X152.409 Y250.56 E16.94532
G1 X148.7 Y251.271 E17.31838
G1 X144.928 Y251.908 E17.69626
G1 X141.189 Y252.457 E18.06957
G1 X137.389 Y252.929 E18.44783
G1 X132.108 Y253.468 E18.97221
G1 X132.117 Y257.06 E19.32704
G1 X132.117 Y257.36 E19.35667
G0 F7200 X131.817 Y257.36
G1 F1800 X129.584 Y257.359 E19.57725
G1 X129.284 Y257.359 E19.60689
G0 F7200 X129.284 Y257.059
G1 F1800 X129.295 Y253.992 E19.90986
G1 X129.295 Y253.679 E19.94077
G0 F7200 X128.983 Y253.692
G1 F1800 X123.752 Y253.924 E20.45801
G1 X119.897 Y254.01 E20.83892
G1 X116.1 Y254.01 E21.21399
G1 X115.18 Y253.991 E21.30489
G1 X112.251 Y253.925 E21.5943
G1 X107.018 Y253.693 E22.11174
G1 X106.706 Y253.68 E22.14258
G0 F7200 X106.706 Y253.993
G1 F1800 X106.715 Y257.06 E22.44555
G1 X106.715 Y257.36 E22.47519
G0 F7200 X106.415 Y257.36
G1 F1800 X104.184 Y257.359 E22.69557
G1 X103.884 Y257.359 E22.72521
G0 F7200 X103.884 Y257.059
G1 F1800 X103.895 Y253.466 E23.08013
G1 X98.611 Y252.93 E23.60478
G1 X94.846 Y252.463 E23.97955
G1 X91.072 Y251.907 E24.35638
G1 X87.301 Y251.27 E24.73416
G1 X83.592 Y250.559 E25.10722
G1 X79.834 Y249.751 E25.48693
G1 X76.135 Y248.87 E25.86254
G1 X72.45 Y247.907 E26.23878
G1 X69.519 Y247.071 E26.53986
G1 X69.419 Y247.043 E26.55012
G1 X68.891 Y246.892 E26.60437
G1 X69.537 Y246.628 E26.63442
G1 X69.585 Y246.537 E26.6426
G1 X70.093 Y245.585 E26.74919
G1 X70.022 Y244.676 E26.83926
G1 X69.737 Y243.991 E26.91255
G1 X69.075 Y242.534 E27.07064
G1 X68.938 Y242.205 E27.10584
G1 X68.901 Y242.103 E27.11656
G1 X68.864 Y241.893 E27.13762
G1 X68.86 Y241.637 E27.16291
G1 X69.533 Y232.962 E28.02243
G1 X69.56 Y232.797 E28.03894
G1 X69.596 Y232.685 E28.05057
G1 X69.654 Y232.572 E28.06311
G1 X69.721 Y232.479 E28.07443
G1 X69.805 Y232.396 E28.0861
G1 X69.903 Y232.325 E28.09805
G1 X70 Y232.276 E28.10879
G1 X70.116 Y232.239 E28.12082
G1 X70.233 Y232.22 E28.13253
G1 X70.308 Y232.221 E28.13994
G0 F7200 X70.196 Y232.854
G1 F1800 X70.48 Y233.026 E28.17273
G1 X72.467 Y234.233 E28.40239
G1 X75.069 Y235.695 E28.69722
G1 X77.714 Y237.07 E28.99169
G1 X80.406 Y238.357 E29.28644
G1 X83.137 Y239.554 E29.58099
G1 X85.908 Y240.659 E29.87568
G1 X88.712 Y241.675 E30.17029
G1 X91.549 Y242.595 E30.4649
G1 X94.415 Y243.42 E30.75951
G1 X97.309 Y244.151 E31.05437
G1 X100.221 Y244.786 E31.34878
G1 X103.153 Y245.327 E31.6433
G1 X106.103 Y245.769 E31.93796
G1 X109.067 Y246.112 E32.23271
G1 X112.037 Y246.359 E32.5271
G1 X115.018 Y246.507 E32.82194
G1 X118 Y246.555 E33.11655
G1 X120.982 Y246.507 E33.41115
G1 X123.963 Y246.359 E33.70599
G1 X126.933 Y246.112 E34.00039
G1 X129.897 Y245.769 E34.29513
G1 X132.847 Y245.327 E34.58979
G1 X135.779 Y244.786 E34.88431
G1 X138.691 Y244.151 E35.17873
G1 X141.585 Y243.42 E35.47358
G1 X144.451 Y242.595 E35.76819
G1 X147.288 Y241.675 E36.0628
G1 X150.092 Y240.659 E36.35741
G1 X152.863 Y239.554 E36.6521
G1 X155.594 Y238.357 E36.94665
G1 X158.286 Y237.07 E37.2414
G1 X160.931 Y235.695 E37.53588
G1 X163.533 Y234.233 E37.8307
G1 X165.523 Y233.025 E38.06066
G1 X165.805 Y232.854 E38.09324
G1 X165.833 Y232.887 E38.09752
G1 X165.855 Y232.938 E38.103
G1 X165.871 Y233.035 E38.11272
G1 X165.896 Y233.364 E38.13103
G1 X166.536 Y241.617 E38.94873
G1 X166.539 Y241.788 E38.96562
G1 X166.53 Y241.877 E38.97446
G1 X166.495 Y242.009 E38.98795
G1 X166.46 Y242.092 E38.99684
G1 X165.299 Y244.238 E39.23787
G1 X165.056 Y245.092 E39.32558
G1 X165.167 Y246.226 E39.43813
G1 X165.275 Y246.372 E39.45607
G1 X165.531 Y246.719 E39.49867
G1 X165.117 Y246.837 E39.51304
G1 X163.373 Y247.335 E39.6922
G1 X159.74 Y248.287 E40.06319
G1 X156.041 Y249.165 E40.43874
G1 X152.283 Y249.973 E40.81845
G1 X148.6 Y250.679 E41.18889
G1 X144.832 Y251.315 E41.56637
G1 X141.102 Y251.863 E41.93878
G1 X137.328 Y252.332 E42.31446
G1 X131.507 Y252.926 E42.89246
G1 X131.516 Y256.46 E43.24156
G1 X131.516 Y256.76 E43.27119
G0 F7200 X131.216 Y256.76
G1 F1800 X130.186 Y256.759 E43.37294
G1 X129.886 Y256.759 E43.40257
G0 F7200 X129.886 Y256.459
G1 F1800 X129.897 Y253.365 E43.70821
G1 X129.897 Y253.052 E43.73913
G0 F7200 X129.585 Y253.065
G1 F1800 X123.739 Y253.324 E44.31718
G1 X119.884 Y253.41 E44.69808
G1 X116.112 Y253.41 E45.07069
G1 X115.194 Y253.391 E45.16139
G1 X112.265 Y253.325 E45.45079
G1 X106.416 Y253.066 E46.02914
G1 X106.104 Y253.053 E46.05999
G0 F7200 X106.104 Y253.366
G1 F1800 X106.113 Y256.46 E46.36562
G1 X106.113 Y256.76 E46.39526
G0 F7200 X105.813 Y256.76
G1 F1800 X104.786 Y256.759 E46.49671
G1 X104.486 Y256.759 E46.52634
G0 F7200 X104.486 Y256.459
G1 F1800 X104.497 Y252.924 E46.87554
G1 X98.672 Y252.333 E47.4539
G1 X94.933 Y251.87 E47.82607
G1 X91.168 Y251.314 E48.20202
G1 X87.401 Y250.678 E48.5794
G1 X83.718 Y249.972 E48.94984
G1 X79.96 Y249.164 E49.32955
G1 X76.287 Y248.289 E49.70253
G1 X72.602 Y247.326 E50.07877
G1 X70.564 Y246.745 E50.28811
G1 X70.209 Y246.644 E50.32457
G1 X70.383 Y246.318 E50.3356
G1 X70.705 Y245.713 E50.4033
G1 X70.613 Y244.534 E50.52012
G1 X70.287 Y243.752 E50.60381
G1 X69.629 Y242.303 E50.76101
G1 X69.483 Y241.947 E50.79902
G1 X69.463 Y241.833 E50.81046
G1 X69.46 Y241.652 E50.82834
G1 X70.104 Y233.367 E51.64922
G1 X70.129 Y233.035 E51.66781
G1 X70.152 Y232.917 E51.67968
G1 X70.18 Y232.869 E51.68517
G1 X70.196 Y232.854 E51.68734
G0 F7200 X70.668 Y233.842
G1 F1800 X71.084 Y234.094 E51.73538
G1 X72.164 Y234.751 E51.86026
G1 X74.784 Y236.223 E52.15712
G1 X77.446 Y237.607 E52.4535
G1 X80.156 Y238.903 E52.75023
G1 X82.905 Y240.108 E53.04673
G1 X85.695 Y241.22 E53.34342
G1 X88.517 Y242.243 E53.63993
G1 X91.373 Y243.169 E53.93652
G1 X94.259 Y243.999 E54.23316
G1 X97.172 Y244.735 E54.52995
G1 X100.103 Y245.374 E54.82629
G1 X103.054 Y245.919 E55.12272
G1 X106.024 Y246.364 E55.41938
G1 X109.008 Y246.709 E55.71611
G1 X111.997 Y246.958 E56.0124
G1 X114.998 Y247.107 E56.30921
G1 X118 Y247.155 E56.60579
G1 X121.002 Y247.107 E56.90238
G1 X124.003 Y246.958 E57.19919
G1 X126.992 Y246.709 E57.49547
G1 X129.976 Y246.364 E57.7922
G1 X132.946 Y245.919 E58.08886
G1 X135.897 Y245.374 E58.3853
G1 X138.828 Y244.735 E58.68163
G1 X141.741 Y243.999 E58.97843
G1 X144.627 Y243.169 E59.27507
G1 X147.483 Y242.243 E59.57165
G1 X150.305 Y241.22 E59.86817
G1 X153.095 Y240.108 E60.16486
G1 X155.844 Y238.903 E60.46135
G1 X158.554 Y237.607 E60.75809
G1 X161.216 Y236.223 E61.05447
G1 X163.836 Y234.751 E61.35133
G1 X164.916 Y234.095 E61.47615
G1 X165.332 Y233.843 E61.5242
G1 X165.369 Y234.328 E61.5416
G1 X165.936 Y241.64 E62.26607
G1 X165.938 Y241.764 E62.27832
G1 X165.92 Y241.828 E62.28489
G1 X164.74 Y244.01 E62.52993
G1 X164.448 Y245.037 E62.6354
G1 X164.578 Y246.367 E62.76741
G1 X163.208 Y246.758 E62.90814
G1 X159.601 Y247.704 E63.2765
G1 X155.915 Y248.578 E63.65071
G1 X152.157 Y249.386 E64.03042
G1 X148.5 Y250.087 E64.39824
G1 X144.736 Y250.722 E64.77532
G1 X141.015 Y251.269 E65.14684
G1 X137.267 Y251.735 E65.51992
G1 X130.906 Y252.384 E66.15154
G1 X130.915 Y256.16 E66.52455
G1 X130.488 Y256.159 E66.56673
G1 X130.499 Y252.738 E66.90466
G1 X130.499 Y252.425 E66.93558
G0 F7200 X130.187 Y252.438
G1 F1800 X123.726 Y252.724 E67.57444
G1 X119.871 Y252.81 E67.95534
G1 X116.124 Y252.81 E68.32548
G1 X115.208 Y252.791 E68.41599
G1 X112.279 Y252.725 E68.70539
G1 X105.814 Y252.439 E69.34465
G1 X105.502 Y252.426 E69.3755
G0 F7200 X105.502 Y252.739
G1 F1800 X105.511 Y256.16 E69.71343
G1 X105.088 Y256.159 E69.75522
G1 X105.099 Y252.382 E70.12832
G1 X98.733 Y251.736 E70.7604
G1 X95.021 Y251.277 E71.12987
G1 X91.256 Y250.72 E71.50584
G1 X87.501 Y250.086 E71.88202
G1 X83.844 Y249.385 E72.24984
G1 X80.086 Y248.577 E72.62955
G1 X76.439 Y247.708 E72.9999
G1 X72.754 Y246.745 E73.37614
G1 X71.187 Y246.3 E73.53705
G1 X71.088 Y246.271 E73.54724
G1 X71.317 Y245.841 E73.58605
G1 X71.204 Y244.392 E73.72962
G1 X70.837 Y243.512 E73.82381
G1 X70.183 Y242.073 E73.97995
G1 X70.063 Y241.78 E74.01122
G1 X70.06 Y241.667 E74.02239
G1 X70.631 Y234.327 E74.74965
G1 X70.668 Y233.842 E74.76709
G1 F2400 E69.76709
G1 F600 Z1.4
G0 F7200 X70.665 Y233.835 Z1.4
G0 X43.979 Y212.679
G1 F600 Z0.4
G1 F2400 E74.77355 ;Adjusted e by 0.00646mm
G1 F1800 X44 Y212.977 E74.80306
G1 X44.021 Y213.301 E74.83514
G0 F7200 X43.696 Y213.297
G1 F1800 X42.436 Y213.278 E74.95962
G1 X42.441 Y212.95 E74.99202
G1 X42.445 Y212.65 E75.02166
G0 F7200 X42.745 Y212.655
G1 F1800 X43.979 Y212.679 E75.14358
G0 F7200 X44.541 Y212.089
G1 F1800 X44.624 Y213.335 E75.26693
G1 X44.647 Y213.58 E75.29124
G1 X44.676 Y213.91 E75.32397
G0 F7200 X44.344 Y213.906
G1 F1800 X41.826 Y213.87 E75.57273
G1 X41.851 Y212.339 E75.72398
G1 X41.855 Y212.039 E75.75362
G0 F7200 X42.155 Y212.044
G1 F1800 X44.541 Y212.089 E75.98936
G0 F7200 X45.104 Y211.499
G1 F1800 X45.222 Y213.288 E76.16646
G1 X45.304 Y214.19 E76.25593
G1 X45.334 Y214.52 E76.28867
G0 F7200 X45.002 Y214.516
G1 F1800 X41.216 Y214.461 E76.6627
G1 X41.261 Y211.728 E76.93271
G1 X41.265 Y211.428 E76.96234
G0 F7200 X41.565 Y211.433
G1 F1800 X45.104 Y211.499 E77.312
G1 F2400 E72.312
G1 F600 Z1.4
G0 F7200 X45.104 Y211.499 Z1.4
G0 X44.764 Y187.654
G1 F600 Z0.4
G1 F2400 E77.3164 ;Adjusted e by 0.0044mm
G1 F1800 X44.737 Y187.972 E77.34792
G1 X44.691 Y188.512 E77.40146
G1 X42.125 Y188.476 E77.65496
G1 X41.826 Y188.472 E77.6845
G0 F7200 X42.138 Y187.61
G1 F1800 X44.444 Y187.649 E77.91232
G0 F7200 X44.764 Y187.654
G0 X45.416 Y187.064
G1 F1800 X45.39 Y187.382 E77.94384
G1 X45.242 Y189.12 E78.11614
G1 X41.516 Y189.068 E78.48424
G1 X41.216 Y189.064 E78.51388
G0 F7200 X41.22 Y188.764
G1 F1800 X41.249 Y186.996 E78.68855
G1 X45.096 Y187.059 E79.06862
G0 F7200 X45.416 Y187.064
G1 F2400 E74.06862
G1 F600 Z1.4
G0 F7200 X45.416 Y187.064 Z1.4
G0 X79.24 Y80.566
G1 F600 Z0.4
G1 F2400 E79.09072 ;Adjusted e by 0.0221mm
G1 F1800 X79.841 Y79.97 E79.17433
G1 X80.51 Y79.431 E79.2592
G1 X80.667 Y79.316 E79.27842
G1 X81.39 Y78.87 E79.36234
G1 X81.968 Y78.587 E79.42591
G1 X82.151 Y78.503 E79.4458
G1 X82.947 Y78.212 E79.52952
G1 X83.776 Y78.003 E79.61397
G1 X84.615 Y77.88 E79.69774
G1 X85.242 Y77.851 E79.75974
G1 X85.667 Y77.854 E79.80173
G1 X86.312 Y77.891 E79.86555
G1 X87.139 Y78.023 E79.94827
G1 X87.96 Y78.241 E80.03218
G1 X88.757 Y78.543 E80.11638
G1 X89.505 Y78.917 E80.19899
G1 X90.222 Y79.371 E80.28282
G1 X90.893 Y79.898 E80.3671
G1 X91.493 Y80.479 E80.4496
G1 X92.051 Y81.139 E80.53498
G1 X92.521 Y81.827 E80.61729
G1 X92.932 Y82.581 E80.70211
G1 X93.256 Y83.353 E80.78482
G1 X93.504 Y84.17 E80.86916
G1 X93.668 Y85 E80.95274
G1 X93.744 Y85.829 E81.03497
G1 X93.735 Y86.693 E81.12032
G1 X93.641 Y87.547 E81.20519
G1 X93.613 Y87.725 E81.22299
G1 X93.464 Y88.362 E81.28761
G1 X93.414 Y88.551 E81.30693
G1 X93.2 Y89.168 E81.37144
G1 X93.127 Y89.363 E81.39201
G1 X92.772 Y90.118 E81.47442
G1 X92.33 Y90.854 E81.55923
G1 X91.818 Y91.537 E81.64355
G1 X91.394 Y91.997 E81.70535
G1 X88.55 Y94.862 E82.10412
G1 X85.926 Y97.63 E82.48089
G1 X83.37 Y100.463 E82.8578
G1 X80.888 Y103.36 E83.23464
