;FLAVOR:Marlin
;TIME:2034
;Filament used: 9.80223m
;Layer height: 0.52
;MINX:72.37
;MINY:51.469
;MINZ:0.52
;MAXX:225.647
;MAXY:248.538
;MAXZ:16.64
;EOFFSETPROCESSED
;Generated with Cura_SteamEngine mb-master-20200328
M82 ;absolute extrusion mode
;
; Crashspace Printer Farm MP10 (C. Nicks Start Code + John Gwinner Probe Code)
;______________________________________________
;Sliced at: Sat 25-04-2020 12:17:12
;Layer Height: 0.52
;Line Width: 0.74
;Flow: 98
;Z-Hop: False
;______________________________________________
;
M140 S60 ; set bed temp
M104 S180.0 T0 ; set extruder park temp to warm but not ooze during bed probing ;Adjusted temp by 20
M190 S70 ; wait for bed temp
; Try to grab the ooze off the nozzle here before probing around
G28 ; home all axis
G29 P1; probes mesh
G29 P3; fill in mesh that can't be reached is good
G29 S0 ; save mesh
G29 F 10.0 ;prints linear above this height
G29 A ; use UBL
M104 S280.0 T0 ; set extruder temp ;Adjusted temp by 20
G92 E0;(Reset the extruder to 0)
G0 X0 Y30 Z2 F1500; (set into park)
M109 S280.0 T0 ; wait for extruder temp ;Adjusted temp by 20
G92 E0
G1 E7 F300; (Unretract from last ending code, plus add some for ooze)
;PRIME
G0 X0 Y30 Z0.2 F1500; (Knock off ooze)
G0 X2 Y30 Z0.4 F1500; (Knock off ooze)
G0 X3 Y30 Z1.0 F1500; (Knock off ooze)
G0 X5 Y30 Z0.52 F1000; (Lower into prime)
G91
G1 X5 Y+20 F1000 E5  ;PRIME
G1 X+0.74 ;PRIME
G1 Y-20 F1000 E5  ;PRIME
G90
G92 E0
G0 X0 Y20 F1500; (Knock off ooze)
G0 X0 Y20 Z0.2 F1500; (Knock off ooze)
G0 X2 Y20 Z0.4 F1500; (Knock off ooze)
G0 X3 Y20 Z1.0 F1500; (Knock off ooze)
G92 E0
;AND GO!!!!
G92 E0
G92 E0
G1 F2400 E-5
;LAYER_COUNT:32
;LAYER:0
M107
G1 F600 Z1.52
G0 F7200 X118.018 Y244.992 Z1.52
;TYPE:SKIRT
G1 F600 Z0.52
G1 F2400 E0.0
G1 F1800 X115.314 Y245.08 E0.41144
G1 X112.651 Y245.243 E0.81718
G1 X109.956 Y245.484 E1.22867
G1 X107.312 Y245.795 E1.63353
G1 X104.678 Y246.181 E2.03838
G1 X102.028 Y246.647 E2.44758
G1 X99.037 Y247.265 E2.91205
G1 X98.729 Y247.334 E2.96005
G1 X98.61 Y247.36 E2.97857
G1 X98.27 Y247.428 E3.03131
G1 X97.683 Y247.512 E3.12148
G1 X97.281 Y247.547 E3.18285
G1 X96.921 Y247.566 E3.23768
G1 X95.756 Y247.589 E3.41488
G1 X95.65 Y247.59 E3.431
G1 X84.148 Y247.59 E5.18021
G1 X83.367 Y247.579 E5.29899
G1 X83.049 Y247.568 E5.34738
G1 X82.803 Y247.552 E5.38487
G1 X82.456 Y247.521 E5.43785
G1 X81.832 Y247.428 E5.5338
G1 X81.36 Y247.329 E5.60714
G1 X81.071 Y247.26 E5.65232
G1 X80.531 Y247.093 E5.73828
G1 X80.103 Y246.935 E5.80767
G1 X79.831 Y246.827 E5.85217
G1 X79.286 Y246.566 E5.94407
G1 X78.844 Y246.323 E6.02078
G1 X78.721 Y246.253 E6.0423
G1 X78.14 Y245.864 E6.14863
G1 X77.652 Y245.489 E6.24223
G1 X77.025 Y244.923 E6.37069
G1 X76.614 Y244.489 E6.46159
G1 X76.32 Y244.152 E6.5296
G1 X76.03 Y243.763 E6.60339
G1 X75.86 Y243.515 E6.64911
G1 X75.687 Y243.247 E6.69763
G1 X75.412 Y242.769 E6.78149
G1 X75.253 Y242.451 E6.83556
G1 X75.114 Y242.157 E6.88502
G1 X74.977 Y241.842 E6.93726
G1 X74.954 Y241.784 E6.94674
G1 X74.833 Y241.447 E7.0012
G1 X74.705 Y241.039 E7.06623
G1 X74.638 Y240.806 E7.1031
G1 X74.503 Y240.209 E7.19618
G1 X74.435 Y239.803 E7.25878
G1 X74.393 Y239.517 E7.30275
G1 X74.343 Y238.873 E7.40098
G1 X74.335 Y238.414 E7.47079
G1 X74.335 Y238.17 E7.5079
G1 X74.38 Y237.531 E7.60532
G1 X74.44 Y237.073 E7.67557
G1 X74.494 Y236.736 E7.72747
G1 X74.626 Y236.166 E7.81645
G1 X74.743 Y235.761 E7.88056
G1 X74.843 Y235.443 E7.93125
G1 X75.065 Y234.87 E8.02471
G1 X75.201 Y234.571 E8.07466
G1 X75.333 Y234.3 E8.1205
G1 X75.44 Y234.096 E8.15554
G1 X75.723 Y233.618 E8.24001
G1 X76.087 Y233.084 E8.3383
G1 X76.279 Y232.821 E8.38782
G1 X76.482 Y232.573 E8.43656
G1 X77.383 Y231.536 E8.64547
G1 X78.033 Y230.8 E8.7948
G1 X79.721 Y228.777 E9.19549
G1 X81.408 Y226.636 E9.61002
G1 X83.02 Y224.464 E10.02137
G1 X84.534 Y222.299 E10.42314
G1 X85.967 Y220.124 E10.81924
G1 X87.411 Y217.789 E11.23676
G1 X88.74 Y215.497 E11.63969
G1 X90.039 Y213.106 E12.0535
G1 X91.235 Y210.745 E12.456
G1 X92.371 Y208.337 E12.86091
G1 X93.45 Y205.871 E13.27026
G1 X94.451 Y203.396 E13.67627
G1 X95.383 Y200.889 E14.08303
G1 X96.254 Y198.329 E14.49427
G1 X97.035 Y195.8 E14.89679
G1 X97.752 Y193.219 E15.30417
G1 X98.385 Y190.665 E15.70433
G1 X98.973 Y187.971 E16.12367
G1 X99.46 Y185.382 E16.52431
G1 X99.882 Y182.736 E16.93179
G1 X100.232 Y180.052 E17.34343
G1 X100.497 Y177.442 E17.74239
G1 X100.695 Y174.74 E18.15441
G1 X100.817 Y172.044 E18.56483
G1 X100.86 Y169.413 E18.965
G1 X100.829 Y166.716 E19.37518
G1 X100.72 Y164.013 E19.78659
G1 X100.54 Y161.381 E20.18779
G1 X100.282 Y158.71 E20.59588
G1 X99.946 Y156.041 E21.00498
G1 X99.542 Y153.421 E21.40814
G1 X99.055 Y150.765 E21.81879
G1 X98.503 Y148.172 E22.22197
G1 X97.857 Y145.512 E22.63825
G1 X97.167 Y142.982 E23.03706
G1 X96.383 Y140.399 E23.44758
G1 X95.535 Y137.867 E23.85366
G1 X94.616 Y135.357 E24.26016
G1 X93.638 Y132.903 E24.6619
G1 X92.563 Y130.416 E25.07394
G1 X91.437 Y127.998 E25.47958
G1 X90.228 Y125.583 E25.8903
G1 X88.961 Y123.223 E26.29766
G1 X87.64 Y120.92 E26.70142
G1 X86.239 Y118.631 E27.10956
G1 X84.802 Y116.425 E27.50994
G1 X83.239 Y114.169 E27.92733
G1 X81.674 Y112.039 E28.32929
G1 X80.024 Y109.924 E28.73724
G1 X78.313 Y107.852 E29.14589
G1 X76.575 Y105.867 E29.54713
G1 X75.799 Y105.038 E29.71981
G1 X75.686 Y104.901 E29.74682
G1 X74.844 Y103.983 E29.93626
G1 X74.561 Y103.66 E30.00157
G1 X74.372 Y103.433 E30.04649
G1 X74.078 Y103.042 E30.12089
G1 X73.882 Y102.755 E30.17374
G1 X73.71 Y102.488 E30.22204
G1 X73.513 Y102.143 E30.28246
G1 X73.356 Y101.843 E30.33395
G1 X73.214 Y101.552 E30.3832
G1 X73.062 Y101.193 E30.44248
G1 X72.938 Y100.869 E30.49524
G1 X72.841 Y100.599 E30.53887
G1 X72.709 Y100.161 E30.60844
G1 X72.603 Y99.734 E30.67535
G1 X72.565 Y99.562 E30.70214
G1 X72.484 Y99.099 E30.77362
G1 X72.432 Y98.678 E30.83813
G1 X72.412 Y98.475 E30.86915
G1 X72.387 Y98.032 E30.93663
G1 X72.371 Y97.015 E31.09131
G1 X72.37 Y96.931 E31.10409
G1 X72.37 Y82.969 E33.2274
G1 X72.38 Y82.248 E33.33706
G1 X72.384 Y82.088 E33.3614
G1 X72.398 Y81.769 E33.40996
G1 X72.422 Y81.418 E33.46347
G1 X72.475 Y80.964 E33.53298
G1 X72.541 Y80.568 E33.59403
G1 X72.649 Y80.001 E33.68181
G1 X73.126 Y77.288 E34.10073
G1 X73.513 Y74.651 E34.50605
G1 X73.827 Y71.999 E34.91218
G1 X74.068 Y69.306 E35.32337
G1 X74.229 Y66.651 E35.72787
G1 X74.317 Y63.992 E36.13247
G1 X74.316 Y62.678 E36.3323
G1 X74.336 Y61.24 E36.55101
G1 X74.381 Y60.614 E36.64646
G1 X74.446 Y60.12 E36.72223
G1 X74.483 Y59.878 E36.75946
G1 X74.621 Y59.272 E36.85398
G1 X74.763 Y58.78 E36.93186
G1 X74.79 Y58.686 E36.94673
G1 X75.057 Y57.981 E37.06138
G1 X75.276 Y57.506 E37.14092
G1 X75.534 Y57.015 E37.22528
G1 X75.684 Y56.762 E37.27001
G1 X75.909 Y56.414 E37.33303
G1 X76.079 Y56.172 E37.378
G1 X76.465 Y55.685 E37.47251
G1 X76.835 Y55.27 E37.55706
G1 X77.425 Y54.703 E37.6815
G1 X77.889 Y54.32 E37.773
G1 X77.918 Y54.296 E37.77873
G1 X78.555 Y53.847 E37.89725
G1 X78.865 Y53.661 E37.95223
G1 X79.101 Y53.526 E37.99357
G1 X79.704 Y53.232 E38.0956
G1 X80.241 Y53.011 E38.18391
G1 X81.004 Y52.762 E38.30597
G1 X81.513 Y52.637 E38.38567
G1 X81.688 Y52.597 E38.41297
G1 X82.375 Y52.489 E38.51874
G1 X82.76 Y52.454 E38.57753
G1 X83.256 Y52.426 E38.65308
G1 X84.247 Y52.409 E38.80381
G1 X84.339 Y52.408 E38.8178
G1 X96.008 Y52.408 E40.5924
G1 X96.467 Y52.414 E40.66221
G1 X96.655 Y52.42 E40.69082
G1 X97.34 Y52.453 E40.79511
G1 X98.144 Y52.553 E40.91832
G1 X98.971 Y52.72 E41.04663
G1 X99.14 Y52.753 E41.07282
G1 X101.465 Y53.245 E41.43423
G1 X104.089 Y53.722 E41.83982
G1 X106.706 Y54.121 E42.24241
G1 X109.381 Y54.454 E42.65236
G1 X112.053 Y54.708 E43.06054
G1 X114.698 Y54.886 E43.4637
G1 X118.081 Y55.005 E43.9785
G1 X121.492 Y55.066 E44.49732
G1 X130.51 Y55.205 E45.86893
G1 X133.25 Y55.209 E46.28562
G1 X135.917 Y55.136 E46.69136
G1 X138.613 Y54.987 E47.10199
G1 X141.268 Y54.765 E47.50717
G1 X143.925 Y54.466 E47.91379
G1 X146.564 Y54.094 E48.31909
G1 X149.196 Y53.647 E48.72509
G1 X151.878 Y53.112 E49.141
G1 X154.435 Y52.526 E49.53995
G1 X156.963 Y51.873 E49.93702
G1 X157.75 Y51.658 E50.06109
G1 X158.391 Y51.524 E50.16068
G1 X159.284 Y51.469 E50.29675
G1 X160.276 Y51.491 E50.44764
G1 X160.381 Y51.495 E50.46362
G1 X163.448 Y51.623 E50.93045
G1 X163.525 Y51.626 E50.94217
G1 X164.237 Y51.666 E51.05062
G1 X164.989 Y51.762 E51.16591
G1 X164.994 Y51.763 E51.16669
G1 X165.628 Y51.931 E51.26643
G1 X166.012 Y52.074 E51.32875
G1 X166.744 Y52.38 E51.44941
G1 X167.985 Y52.916 E51.65499
G1 X170.467 Y53.908 E52.06148
G1 X173.008 Y54.841 E52.47313
G1 X175.507 Y55.68 E52.87402
G1 X178.102 Y56.469 E53.2865
G1 X180.652 Y57.166 E53.68853
G1 X184.431 Y58.063 E54.2792
G1 X184.437 Y58.064 E54.28013
G1 X185.485 Y58.29 E54.44317
G1 X185.975 Y58.388 E54.51916
G1 X186.112 Y58.418 E54.54049
G1 X186.873 Y58.591 E54.65917
G1 X187.093 Y58.642 E54.69352
G1 X187.844 Y58.827 E54.81114
G1 X188.256 Y58.938 E54.87603
G1 X189.147 Y59.169 E55.01602
G1 X189.271 Y59.203 E55.03557
G1 X190.064 Y59.429 E55.16097
G1 X190.169 Y59.46 E55.17762
G1 X191.126 Y59.754 E55.32987
G1 X191.227 Y59.786 E55.34598
G1 X192.127 Y60.082 E55.49007
G1 X193.103 Y60.426 E55.64744
G1 X193.229 Y60.472 E55.66784
G1 X194.1 Y60.804 E55.8096
G1 X194.222 Y60.853 E55.82959
G1 X195.505 Y61.383 E56.0407
G1 X196.23 Y61.707 E56.16147
G1 X196.334 Y61.755 E56.17889
G1 X196.901 Y62.023 E56.27426
G1 X197.002 Y62.072 E56.29134
G1 X197.716 Y62.428 E56.41267
G1 X198.024 Y62.588 E56.46545
G1 X198.76 Y62.985 E56.59263
G1 X198.86 Y63.04 E56.60998
G1 X199.278 Y63.277 E56.68306
G1 X199.611 Y63.472 E56.74174
G1 X199.683 Y63.514 E56.75442
G1 X200.296 Y63.886 E56.86347
G1 X200.43 Y63.97 E56.88752
G1 X201.154 Y64.439 E57.01871
G1 X201.465 Y64.648 E57.07569
G1 X201.584 Y64.73 E57.09767
G1 X202.279 Y65.222 E57.22717
G1 X202.625 Y65.475 E57.29235
G1 X202.812 Y65.618 E57.32815
G1 X203.78 Y66.383 E57.51578
G1 X203.901 Y66.481 E57.53946
G1 X204.44 Y66.933 E57.64644
G1 X204.572 Y67.048 E57.67307
G1 X205.129 Y67.547 E57.78679
G1 X205.235 Y67.645 E57.80875
G1 X206.021 Y68.393 E57.97376
G1 X206.555 Y68.935 E58.08947
G1 X207.437 Y69.88 E58.28605
G1 X207.693 Y70.166 E58.34443
G1 X208.02 Y70.546 E58.42067
G1 X208.088 Y70.627 E58.43675
G1 X208.676 Y71.338 E58.57707
G1 X208.745 Y71.422 E58.5936
G1 X209.014 Y71.761 E58.65941
G1 X209.369 Y72.224 E58.74814
G1 X209.428 Y72.303 E58.76313
G1 X209.895 Y72.938 E58.88301
G1 X210.36 Y73.601 E59.00616
G1 X210.621 Y73.985 E59.07677
G1 X210.79 Y74.238 E59.12304
G1 X211.18 Y74.84 E59.23213
G1 X211.554 Y75.439 E59.33952
G1 X211.595 Y75.505 E59.35134
G1 X212.032 Y76.235 E59.48072
G1 X212.366 Y76.816 E59.58264
G1 X212.418 Y76.909 E59.59885
G1 X212.891 Y77.771 E59.74838
G1 X212.945 Y77.871 E59.76566
G1 X213.383 Y78.711 E59.90973
G1 X213.741 Y79.429 E60.03174
G1 X214.042 Y80.051 E60.13683
G1 X214.081 Y80.133 E60.15064
G1 X214.627 Y81.323 E60.34975
G1 X215.751 Y83.757 E60.75747
G1 X216.945 Y86.16 E61.16554
G1 X218.205 Y88.525 E61.57306
G1 X219.525 Y90.843 E61.97873
G1 X220.912 Y93.126 E62.38498
G1 X222.379 Y95.392 E62.7955
G1 X223.795 Y97.457 E63.17628
G1 X224.132 Y98.019 E63.27594
G1 X224.398 Y98.618 E63.37561
G1 X224.619 Y99.374 E63.49539
G1 X224.837 Y100.395 E63.65417
G1 X224.859 Y100.503 E63.67093
G1 X225.422 Y103.435 E64.12497
G1 X225.564 Y104.232 E64.24808
G1 X225.647 Y105.173 E64.39174
G1 X225.576 Y106.049 E64.5254
G1 X225.361 Y107.352 E64.72624
G1 X225.352 Y107.461 E64.74287
G1 X225.16 Y108.605 E64.91928
G1 X224.789 Y111.296 E65.3324
G1 X224.498 Y113.948 E65.73813
G1 X224.284 Y116.579 E66.13957
G1 X224.142 Y119.304 E66.55454
G1 X224.077 Y121.938 E66.95524
G1 X224.088 Y124.636 E67.36555
G1 X224.175 Y127.311 E67.77257
G1 X224.334 Y129.953 E68.17509
G1 X224.381 Y130.627 E68.27784
G1 X224.425 Y131.314 E68.38253
G1 X224.427 Y131.341 E68.38665
G1 X224.597 Y134.231 E68.82691
G1 X224.599 Y134.277 E68.83392
G1 X224.732 Y136.924 E69.23698
G1 X224.735 Y136.976 E69.2449
G1 X224.827 Y139.253 E69.59146
G1 X224.828 Y139.299 E69.59846
G1 X224.913 Y141.966 E70.00426
G1 X224.915 Y142.02 E70.01247
G1 X224.979 Y144.958 E70.45939
G1 X224.98 Y145.013 E70.46775
G1 X225.011 Y147.719 E70.8793
G1 X225.011 Y147.765 E70.8863
G1 X225.018 Y150.141 E71.24764
G1 X225.018 Y150.178 E71.25326
G1 X225.007 Y152.955 E71.67559
G1 X225.006 Y153.01 E71.68395
G1 X224.968 Y155.71 E72.09461
G1 X224.967 Y155.763 E72.10267
G1 X224.902 Y158.47 E72.51446
G1 X224.901 Y158.526 E72.52298
G1 X224.805 Y161.317 E72.94768
G1 X224.685 Y164.089 E73.36964
G1 X224.682 Y164.143 E73.37786
G1 X224.537 Y166.863 E73.7921
G1 X224.535 Y166.909 E73.7991
G1 X224.389 Y169.265 E74.15809
G1 X224.312 Y170.357 E74.32457
G1 X224.16 Y173.011 E74.72885
G1 X224.082 Y175.71 E75.13948
G1 X224.08 Y178.377 E75.54507
G1 X224.154 Y181.041 E75.95036
G1 X224.305 Y183.743 E76.36192
G1 X224.528 Y186.394 E76.7665
G1 X224.826 Y189.039 E77.17129
G1 X225.206 Y191.723 E77.58354
G1 X225.419 Y193.027 E77.78448
G1 X225.567 Y193.89 E77.91764
G1 X225.639 Y194.527 E78.01513
G1 X225.633 Y195.182 E78.11474
G1 X225.565 Y195.736 E78.19963
G1 X225.414 Y196.598 E78.33272
G1 X225.398 Y196.685 E78.34617
G1 X224.804 Y199.775 E78.82469
G1 X224.791 Y199.844 E78.83537
G1 X224.643 Y200.563 E78.94701
G1 X224.472 Y201.195 E79.04658
G1 X224.225 Y201.802 E79.14624
G1 X223.988 Y202.243 E79.22238
G1 X223.985 Y202.248 E79.22326
G1 X223.813 Y202.516 E79.27169
G1 X223.021 Y203.674 E79.48505
G1 X222.986 Y203.732 E79.49535
G1 X222.712 Y204.124 E79.56808
G1 X221.252 Y206.349 E79.9728
G1 X219.83 Y208.654 E80.38468
G1 X218.496 Y210.963 E80.79022
G1 X217.208 Y213.343 E81.20177
G1 X216.01 Y215.714 E81.60576
G1 X214.74 Y218.429 E82.06159
G1 X214.47 Y219.029 E82.16165
G1 X214.361 Y219.27 E82.20188
G1 X213.951 Y220.14 E82.34814
G1 X213.755 Y220.545 E82.41657
G1 X213.485 Y221.086 E82.50852
G1 X213.236 Y221.575 E82.59197
G1 X213.204 Y221.638 E82.60272
G1 X212.936 Y222.148 E82.69033
G1 X212.688 Y222.607 E82.76968
G1 X212.441 Y223.05 E82.84681
G1 X212.377 Y223.165 E82.86683
G1 X211.907 Y223.977 E83.00951
G1 X211.615 Y224.464 E83.09586
G1 X211.234 Y225.075 E83.20537
G1 X211.178 Y225.163 E83.22123
G1 X210.706 Y225.888 E83.35279
G1 X210.612 Y226.028 E83.37844
G1 X209.872 Y227.09 E83.57529
G1 X209.782 Y227.215 E83.59871
G1 X209.346 Y227.804 E83.71016
G1 X209.088 Y228.143 E83.77494
G1 X209.025 Y228.224 E83.79055
G1 X208.643 Y228.705 E83.88396
G1 X208.516 Y228.861 E83.91455
G1 X208.171 Y229.276 E83.99663
G1 X208.103 Y229.357 E84.01271
G1 X207.596 Y229.943 E84.13055
G1 X207.298 Y230.275 E84.1984
G1 X207.231 Y230.348 E84.21347
G1 X206.699 Y230.917 E84.33193
G1 X206.605 Y231.015 E84.35258
G1 X206.135 Y231.493 E84.45453
G1 X206.027 Y231.6 E84.47765
G1 X205.361 Y232.24 E84.61812
G1 X205.217 Y232.373 E84.64793
G1 X204.562 Y232.958 E84.78149
G1 X204.249 Y233.228 E84.84435
G1 X203.802 Y233.601 E84.93289
G1 X203.461 Y233.876 E84.99951
G1 X203.123 Y234.142 E85.06492
G1 X203.049 Y234.199 E85.07912
G1 X202.52 Y234.599 E85.17998
G1 X202.42 Y234.673 E85.1989
G1 X201.905 Y235.044 E85.29543
G1 X201.817 Y235.106 E85.3118
G1 X201.368 Y235.416 E85.39478
G1 X201.137 Y235.571 E85.43708
G1 X200.603 Y235.919 E85.53401
G1 X200.205 Y236.17 E85.60557
G1 X199.483 Y236.603 E85.73361
G1 X199.387 Y236.659 E85.75051
G1 X198.881 Y236.948 E85.83913
G1 X198.494 Y237.162 E85.90638
G1 X197.978 Y237.436 E85.99523
G1 X197.883 Y237.485 E86.01148
G1 X197.167 Y237.846 E86.13343
G1 X197.003 Y237.926 E86.16118
G1 X195.983 Y238.404 E86.33249
G1 X195.846 Y238.465 E86.35529
G1 X195.193 Y238.749 E86.46359
G1 X195.089 Y238.793 E86.48076
G1 X194.177 Y239.167 E86.63066
G1 X193.873 Y239.286 E86.68031
G1 X193.245 Y239.521 E86.78229
G1 X192.999 Y239.612 E86.82217
G1 X192.329 Y239.849 E86.93025
G1 X191.51 Y240.123 E87.06159
G1 X191.197 Y240.224 E87.11161
G1 X190.963 Y240.298 E87.14893
G1 X190.02 Y240.583 E87.29875
G1 X189.924 Y240.611 E87.31396
G1 X189.027 Y240.864 E87.45569
G1 X188.857 Y240.911 E87.48252
G1 X188.225 Y241.077 E87.58189
G1 X187.98 Y241.139 E87.62032
G1 X187.047 Y241.367 E87.76639
G1 X186.967 Y241.386 E87.77889
G1 X185.758 Y241.661 E87.96745
G1 X185.048 Y241.81 E88.07778
G1 X182.437 Y242.393 E88.48463
G1 X179.807 Y243.058 E88.89718
G1 X177.27 Y243.777 E89.2982
G1 X174.699 Y244.585 E89.70805
