;FLAVOR:Marlin
;TIME:4048
;Filament used: 20.1045m
;Layer height: 0.52
;MINX:15.336
;MINY:51.469
;MINZ:0.52
;MAXX:284.639
;MAXY:248.538
;MAXZ:16.64
;EOFFSETPROCESSED
;Generated with Cura_SteamEngine mb-master-20200424
M82 ;absolute extrusion mode
;
; Crashspace Printer Farm MP10 (C. Nicks Start Code + John Gwinner Probe Code)
;______________________________________________
;Sliced at: Sun 26-04-2020 21:13:58
;Layer Height: 0.52
;Line Width: 0.74
;Flow: 100
;Z-Hop: False
;______________________________________________
;
M140 S60 ; set bed temp
M104 S180.0 T0 ; set extruder park temp to warm but not ooze during bed probing ;Adjusted temp by 20
M190 S60 ; wait for bed temp
; Try to grab the ooze off the nozzle here before probing around
G28 ; home all axis
G29 P1; probes mesh
G29 P3; fill in mesh that can't be reached is good
G29 S0 ; save mesh
G29 F 10.0 ;prints linear above this height
G29 A ; use UBL
M104 S280.0 T0 ; set extruder temp ;Adjusted temp by 20
G92 E0;(Reset the extruder to 0)
G0 X0 Y30 Z2 F1500; (set into park)
M109 S280.0 T0 ; wait for extruder temp ;Adjusted temp by 20
G92 E0
G1 E7 F300; (Unretract from last ending code, plus add some for ooze)
;PRIME
G0 X0 Y30 Z0.2 F1500; (Knock off ooze)
G0 X2 Y30 Z0.4 F1500; (Knock off ooze)
G0 X3 Y30 Z1.0 F1500; (Knock off ooze)
G0 X5 Y30 Z0.52 F1000; (Lower into prime)
G91
G1 X5 Y+20 F1000 E5  ;PRIME
G1 X+0.74 ;PRIME
G1 Y-20 F1000 E5  ;PRIME
G90
G92 E0
G0 X0 Y20 F1500; (Knock off ooze)
G0 X0 Y20 Z0.2 F1500; (Knock off ooze)
G0 X2 Y20 Z0.4 F1500; (Knock off ooze)
G0 X3 Y20 Z1.0 F1500; (Knock off ooze)
G92 E0
;AND GO!!!!
G92 E0
G92 E0
G1 F2400 E-5
;LAYER_COUNT:32
;LAYER:0
M107
G1 F600 Z1.52
G0 F7200 X21.08 Y53.075 Z1.52
;TYPE:SKIRT
G1 F600 Z0.52
G1 F2400 E0.0
G1 F1800 X21.947 Y52.779 E0.14217
G1 X22.571 Y52.624 E0.24194
G1 X23.37 Y52.489 E0.36769
G1 X23.715 Y52.457 E0.42146
G1 X24.109 Y52.43 E0.48274
G1 X24.546 Y52.412 E0.55062
G1 X25.036 Y52.408 E0.62666
G1 X36.938 Y52.408 E2.47363
G1 X37.421 Y52.415 E2.54859
G1 X38.394 Y52.458 E2.69973
G1 X39.264 Y52.571 E2.83587
G1 X40.207 Y52.773 E2.98553
G1 X42.873 Y53.324 E3.40799
G1 X45.506 Y53.79 E3.82293
G1 X48.15 Y54.182 E4.23772
G1 X50.803 Y54.5 E4.65236
G1 X53.456 Y54.741 E5.06575
G1 X56.151 Y54.909 E5.48478
G1 X59.005 Y55.005 E5.92792
G1 X61.464 Y55.05 E6.30958
G1 X71.555 Y55.202 E7.87569
G1 X74.298 Y55.204 E8.30136
G1 X76.959 Y55.131 E8.71445
G1 X79.663 Y54.98 E9.13472
G1 X82.313 Y54.757 E9.5474
G1 X84.97 Y54.458 E9.96232
G1 X87.609 Y54.084 E10.37594
G1 X90.276 Y53.63 E10.79576
G1 X92.872 Y53.112 E11.20656
G1 X95.485 Y52.513 E11.62256
G1 X97.951 Y51.876 E12.0178
G1 X98.748 Y51.658 E12.14603
G1 X99.389 Y51.524 E12.24765
G1 X100.283 Y51.469 E12.38664
G1 X101.276 Y51.491 E12.54078
G1 X104.448 Y51.623 E13.03344
G1 X105.237 Y51.666 E13.15606
G1 X105.987 Y51.762 E13.2734
G1 X106.951 Y51.954 E13.42593
G1 X109.608 Y52.446 E13.84526
G1 X112.266 Y52.861 E14.26273
G1 X114.917 Y53.198 E14.67743
G1 X117.576 Y53.461 E15.09207
G1 X120.271 Y53.65 E15.51131
G1 X122.898 Y53.76 E15.91933
G1 X125.634 Y53.796 E16.34394
G1 X128.264 Y53.757 E16.75212
G1 X130.963 Y53.641 E17.17134
G1 X133.624 Y53.45 E17.58534
G1 X136.274 Y53.186 E17.99861
G1 X139.685 Y52.733 E18.53258
G1 X141.04 Y52.528 E18.74524
G1 X141.349 Y52.491 E18.79354
G1 X141.717 Y52.457 E18.85089
G1 X142.109 Y52.43 E18.91186
G1 X142.546 Y52.412 E18.97974
G1 X143.037 Y52.408 E19.05593
G1 X154.939 Y52.408 E20.90291
G1 X155.421 Y52.415 E20.97771
G1 X156.388 Y52.457 E21.12791
G1 X157.269 Y52.571 E21.26577
G1 X158.207 Y52.773 E21.41467
G1 X160.873 Y53.324 E21.83712
G1 X163.506 Y53.79 E22.25207
G1 X166.15 Y54.182 E22.66685
G1 X168.803 Y54.5 E23.0815
G1 X171.456 Y54.741 E23.49489
G1 X174.151 Y54.909 E23.91392
G1 X177.005 Y55.005 E24.35706
G1 X179.464 Y55.05 E24.73871
G1 X189.555 Y55.202 E26.30483
G1 X192.298 Y55.204 E26.73049
G1 X194.959 Y55.131 E27.14359
G1 X197.663 Y54.98 E27.56385
G1 X200.313 Y54.757 E27.97654
G1 X202.97 Y54.458 E28.39146
G1 X205.609 Y54.084 E28.80508
G1 X208.276 Y53.63 E29.2249
G1 X210.872 Y53.112 E29.63569
G1 X213.485 Y52.513 E30.0517
G1 X215.951 Y51.876 E30.44694
G1 X216.748 Y51.658 E30.57516
G1 X217.389 Y51.524 E30.67679
G1 X218.283 Y51.469 E30.81578
G1 X219.276 Y51.491 E30.96991
G1 X222.448 Y51.623 E31.46258
G1 X223.237 Y51.666 E31.5852
G1 X223.888 Y51.743 E31.68692
G1 X224.524 Y51.898 E31.78851
G1 X225 Y52.07 E31.86705
G1 X225.764 Y52.388 E31.99547
G1 X226.942 Y52.899 E32.19473
G1 X229.421 Y53.891 E32.60908
G1 X231.917 Y54.81 E33.02184
G1 X234.446 Y55.658 E33.43577
G1 X237.034 Y56.448 E33.85567
G1 X239.601 Y57.152 E34.26873
G1 X242.234 Y57.795 E34.68933
G1 X243.982 Y58.176 E34.96696
G1 X244.984 Y58.388 E35.1259
G1 X245.812 Y58.576 E35.25766
G1 X246.913 Y58.844 E35.4335
G1 X247.949 Y59.114 E35.59964
G1 X249.095 Y59.438 E35.78445
G1 X250.126 Y59.754 E35.95179
G1 X251.127 Y60.082 E36.11525
G1 X252.108 Y60.428 E36.27668
G1 X253.092 Y60.801 E36.43998
G1 X254.072 Y61.201 E36.60424
G1 X254.949 Y61.583 E36.75268
G1 X255.877 Y62.017 E36.91166
G1 X256.845 Y62.499 E37.07947
G1 X257.689 Y62.951 E37.22804
G1 X258.57 Y63.454 E37.38547
G1 X259.343 Y63.924 E37.52586
G1 X260.3 Y64.545 E37.70289
G1 X261.044 Y65.061 E37.8434
G1 X261.818 Y65.63 E37.99247
G1 X262.683 Y66.308 E38.16303
G1 X263.353 Y66.866 E38.29833
G1 X264.099 Y67.529 E38.45321
G1 X264.933 Y68.315 E38.63105
G1 X265.539 Y68.925 E38.76448
G1 X266.277 Y69.709 E38.93157
G1 X266.957 Y70.479 E39.09098
G1 X267.591 Y71.239 E39.24457
G1 X268.293 Y72.132 E39.42084
G1 X268.87 Y72.912 E39.5714
G1 X269.53 Y73.858 E39.7504
G1 X270.084 Y74.696 E39.90629
G1 X270.728 Y75.731 E40.09546
G1 X271.277 Y76.665 E40.26358
G1 X271.806 Y77.616 E40.43246
G1 X272.418 Y78.784 E40.63708
G1 X272.894 Y79.746 E40.80364
G1 X274.868 Y84.002 E41.53168
G1 X276.056 Y86.377 E41.94377
G1 X277.327 Y88.748 E42.36124
G1 X278.657 Y91.067 E42.77609
G1 X280.062 Y93.365 E43.19407
G1 X281.512 Y95.594 E43.60672
G1 X282.79 Y97.45 E43.95641
G1 X283.128 Y98.011 E44.05805
G1 X283.395 Y98.61 E44.15982
G1 X283.619 Y99.376 E44.28367
G1 X283.84 Y100.413 E44.4482
G1 X284.422 Y103.435 E44.92578
G1 X284.564 Y104.232 E45.05141
G1 X284.639 Y104.883 E45.1531
G1 X284.635 Y105.538 E45.25475
G1 X284.576 Y106.044 E45.3338
G1 X284.346 Y107.443 E45.55381
G1 X284.063 Y109.249 E45.83749
G1 X283.711 Y111.922 E46.25587
G1 X283.438 Y114.588 E46.67175
G1 X283.239 Y117.264 E47.08817
G1 X283.118 Y119.919 E47.5006
G1 X283.072 Y122.586 E47.91453
G1 X283.1 Y125.286 E48.33355
G1 X283.206 Y127.98 E48.75193
G1 X283.3 Y129.512 E48.99012
G1 X283.447 Y131.663 E49.32469
G1 X283.6 Y134.293 E49.73351
G1 X283.732 Y136.924 E50.1423
G1 X283.827 Y139.253 E50.50402
G1 X283.913 Y141.966 E50.92524
G1 X283.979 Y144.958 E51.38966
G1 X284.011 Y147.719 E51.81815
G1 X284.018 Y150.141 E52.194
G1 X284.007 Y152.955 E52.63068
G1 X283.968 Y155.71 E53.05825
G1 X283.902 Y158.47 E53.48668
G1 X283.805 Y161.317 E53.92874
G1 X283.685 Y164.089 E54.3593
G1 X283.537 Y166.863 E54.79039
G1 X283.361 Y169.659 E55.22514
G1 X283.32 Y170.23 E55.31397
G1 X283.161 Y172.966 E55.73927
G1 X283.082 Y175.663 E56.15797
G1 X283.078 Y178.33 E56.57184
G1 X283.151 Y180.997 E56.98587
G1 X283.3 Y183.691 E57.40457
G1 X283.522 Y186.346 E57.81801
G1 X283.821 Y189.002 E58.23278
G1 X284.194 Y191.649 E58.6476
G1 X284.424 Y193.058 E58.86915
G1 X284.569 Y193.914 E59.00387
G1 X284.638 Y194.566 E59.10562
G1 X284.628 Y195.221 E59.20727
G1 X284.565 Y195.728 E59.28656
G1 X284.416 Y196.588 E59.422
G1 X283.804 Y199.775 E59.9256
G1 X283.643 Y200.563 E60.05041
G1 X283.472 Y201.195 E60.15201
G1 X283.225 Y201.802 E60.25371
G1 X282.816 Y202.51 E60.38059
G1 X282.085 Y203.58 E60.58169
G1 X280.467 Y206.012 E61.03498
G1 X279.044 Y208.297 E61.45271
G1 X277.72 Y210.563 E61.85998
G1 X276.423 Y212.932 E62.27909
G1 X275.211 Y215.307 E62.69287
G1 X273.719 Y218.473 E63.23599
G1 X273.59 Y218.761 E63.28496
G1 X273.146 Y219.724 E63.44952
G1 X272.58 Y220.892 E63.65094
G1 X272.036 Y221.954 E63.8361
G1 X271.515 Y222.915 E64.00574
G1 X270.868 Y224.036 E64.20659
G1 X270.36 Y224.869 E64.358
G1 X269.726 Y225.854 E64.53978
G1 X269.136 Y226.715 E64.70175
G1 X268.536 Y227.544 E64.86056
G1 X267.823 Y228.471 E65.04204
G1 X267.248 Y229.176 E65.18322
G1 X266.496 Y230.046 E65.36167
G1 X265.908 Y230.689 E65.49688
G1 X265.118 Y231.501 E65.67269
G1 X264.443 Y232.153 E65.81832
G1 X263.67 Y232.855 E65.98036
G1 X262.972 Y233.453 E66.12299
G1 X262.187 Y234.085 E66.27938
G1 X261.334 Y234.728 E66.44515
G1 X260.588 Y235.258 E66.58716
G1 X259.799 Y235.786 E66.73448
G1 X258.809 Y236.404 E66.91559
G1 X258.101 Y236.817 E67.04278
G1 X257.108 Y237.361 E67.21849
G1 X256.296 Y237.777 E67.36007
G1 X255.302 Y238.254 E67.53116
G1 X254.377 Y238.666 E67.6883
G1 X253.497 Y239.035 E67.83638
G1 X252.383 Y239.467 E68.0218
G1 X251.544 Y239.77 E68.16022
G1 X250.477 Y240.132 E68.33507
G1 X249.406 Y240.467 E68.50921
G1 X248.403 Y240.757 E68.67123
G1 X247.366 Y241.039 E68.838
G1 X246.27 Y241.313 E69.01332
G1 X245.092 Y241.585 E69.20093
G1 X243.759 Y241.87 E69.41246
G1 X241.495 Y242.378 E69.77253
G1 X238.892 Y243.035 E70.18914
G1 X236.296 Y243.77 E70.60782
G1 X233.721 Y244.576 E71.02653
G1 X231.214 Y245.443 E71.43818
G1 X228.726 Y246.382 E71.85086
G1 X226.208 Y247.413 E72.27309
G1 X225.925 Y247.538 E72.3211
G1 X225.028 Y247.916 E72.47215
G1 X224.41 Y248.133 E72.5738
G1 X223.77 Y248.273 E72.67546
G1 X223.257 Y248.328 E72.75553
G1 X222.455 Y248.375 E72.8802
G1 X219.147 Y248.514 E73.39399
G1 X218.354 Y248.538 E73.51711
G1 X217.699 Y248.517 E73.6188
G1 X216.849 Y248.368 E73.75272
G1 X216.044 Y248.159 E73.88178
G1 X214.871 Y247.836 E74.07058
G1 X212.231 Y247.189 E74.49239
G1 X209.62 Y246.626 E74.90688
G1 X206.982 Y246.139 E75.32317
G1 X204.372 Y245.73 E75.73313
G1 X201.696 Y245.388 E76.15178
G1 X199.042 Y245.125 E76.56565
G1 X196.349 Y244.935 E76.98459
G1 X193.68 Y244.822 E77.39914
G1 X191.029 Y244.785 E77.81057
G1 X189.598 Y244.796 E78.03264
G1 X178.557 Y244.964 E79.7462
G1 X176.96 Y244.994 E79.99407
G1 X174.249 Y245.084 E80.415
G1 X171.556 Y245.249 E80.83369
G1 X168.938 Y245.485 E81.2416
G1 X166.249 Y245.803 E81.66179
G1 X163.578 Y246.197 E82.08077
G1 X160.992 Y246.652 E82.48823
G1 X158.108 Y247.249 E82.94527
G1 X157.6 Y247.362 E83.02603
G1 X157.17 Y247.447 E83.09405
G1 X156.555 Y247.528 E83.19031
G1 X156.037 Y247.566 E83.27091
G1 X155.437 Y247.588 E83.36408
G1 X143.157 Y247.59 E85.26971
G1 X142.375 Y247.579 E85.39108
G1 X142.05 Y247.565 E85.44156
G1 X141.476 Y247.522 E85.53088
G1 X141.101 Y247.481 E85.58942
G1 X140.259 Y247.358 E85.72147
G1 X139.229 Y247.193 E85.88334
G1 X136.588 Y246.845 E86.29672
G1 X133.906 Y246.569 E86.71512
G1 X131.238 Y246.369 E87.1303
G1 X128.575 Y246.246 E87.54399
G1 X125.913 Y246.199 E87.95715
G1 X123.211 Y246.226 E88.37648
G1 X120.546 Y246.329 E88.79034
G1 X117.888 Y246.507 E89.20374
G1 X115.202 Y246.764 E89.62246
G1 X112.533 Y247.096 E90.03983
G1 X109.952 Y247.49 E90.445
G1 X106.495 Y248.133 E90.99066
G1 X106.026 Y248.228 E91.06492
G1 X105.27 Y248.327 E91.18324
G1 X104.457 Y248.375 E91.30962
G1 X101.147 Y248.514 E91.82373
G1 X100.354 Y248.538 E91.94684
G1 X99.699 Y248.517 E92.04854
G1 X98.849 Y248.368 E92.18246
G1 X98.044 Y248.159 E92.31152
G1 X96.871 Y247.836 E92.50032
G1 X94.231 Y247.189 E92.92213
G1 X91.62 Y246.626 E93.33662
G1 X88.982 Y246.139 E93.7529
G1 X86.372 Y245.73 E94.16287
G1 X83.696 Y245.388 E94.58152
G1 X81.042 Y245.125 E94.99539
G1 X78.349 Y244.935 E95.41433
G1 X75.68 Y244.822 E95.82888
G1 X73.029 Y244.785 E96.24031
G1 X71.598 Y244.796 E96.46238
G1 X60.557 Y244.964 E98.17594
G1 X58.96 Y244.994 E98.42381
G1 X56.249 Y245.084 E98.84474
G1 X53.556 Y245.249 E99.26343
G1 X50.938 Y245.485 E99.67134
G1 X48.249 Y245.803 E100.09153
G1 X45.578 Y246.197 E100.51051
G1 X42.992 Y246.652 E100.91797
G1 X40.108 Y247.249 E101.375
G1 X39.6 Y247.362 E101.45576
G1 X39.17 Y247.447 E101.52378
G1 X38.555 Y247.528 E101.62004
G1 X38.037 Y247.566 E101.70064
G1 X37.437 Y247.588 E101.79382
G1 X25.157 Y247.59 E103.69945
G1 X24.375 Y247.579 E103.82081
G1 X24.062 Y247.566 E103.86943
G1 X23.553 Y247.529 E103.94862
G1 X22.843 Y247.429 E104.05989
G1 X22.36 Y247.328 E104.13646
G1 X21.71 Y247.149 E104.24109
G1 X21.289 Y247.004 E104.31018
G1 X20.595 Y246.709 E104.42721
G1 X19.992 Y246.401 E104.53228
G1 X19.203 Y245.908 E104.67666
G1 X18.72 Y245.544 E104.77051
G1 X18.1 Y244.996 E104.89892
G1 X17.762 Y244.648 E104.9742
G1 X17.284 Y244.083 E105.08905
G1 X16.926 Y243.595 E105.18297
G1 X16.498 Y242.908 E105.30857
G1 X16.271 Y242.474 E105.38458
G1 X15.962 Y241.764 E105.50474
G1 X15.746 Y241.149 E105.60589
G1 X15.525 Y240.303 E105.74158
G1 X15.438 Y239.81 E105.81927
G1 X15.36 Y239.089 E105.93181
G1 X15.339 Y238.557 E106.01443
G1 X15.37 Y237.733 E106.14239
G1 X15.444 Y237.088 E106.24314
G1 X15.607 Y236.256 E106.3747
G1 X15.736 Y235.794 E106.44914
G1 X15.994 Y235.073 E106.56797
G1 X16.254 Y234.483 E106.66803
G1 X16.665 Y233.723 E106.80211
G1 X16.943 Y233.295 E106.88131
G1 X18.016 Y231.746 E107.17372
G1 X19.522 Y229.507 E107.59246
G1 X20.957 Y227.234 E108.0096
G1 X22.323 Y224.927 E108.42565
G1 X23.606 Y222.618 E108.83557
G1 X24.832 Y220.253 E109.24895
G1 X26.012 Y217.812 E109.66969
G1 X27.105 Y215.376 E110.08402
G1 X28.147 Y212.866 E110.50576
G1 X29.092 Y210.399 E110.91572
G1 X29.973 Y207.877 E111.33028
G1 X30.785 Y205.332 E111.74483
G1 X31.534 Y202.732 E112.16471
G1 X32.187 Y200.194 E112.57139
G1 X32.796 Y197.522 E112.99667
G1 X33.307 Y194.947 E113.40406
G1 X33.756 Y192.286 E113.82283
G1 X34.126 Y189.646 E114.23651
G1 X34.422 Y186.99 E114.65123
G1 X34.644 Y184.302 E115.06978
G1 X34.788 Y181.638 E115.48379
G1 X34.857 Y178.973 E115.89748
G1 X34.85 Y176.305 E116.31151
G1 X34.768 Y173.608 E116.73023
G1 X34.61 Y170.941 E117.14483
G1 X34.376 Y168.255 E117.56322
G1 X34.069 Y165.611 E117.97628
G1 X33.689 Y162.988 E118.38757
G1 X33.227 Y160.333 E118.80577
G1 X32.694 Y157.704 E119.22204
G1 X32.095 Y155.13 E119.63215
G1 X31.404 Y152.5 E120.05413
G1 X30.649 Y149.926 E120.4704
G1 X29.832 Y147.406 E120.8815
G1 X28.934 Y144.882 E121.29723
G1 X27.971 Y142.401 E121.71022
G1 X26.928 Y139.92 E122.12786
G1 X25.826 Y137.494 E122.54135
G1 X24.634 Y135.058 E122.96221
G1 X23.41 Y132.725 E123.37105
G1 X22.073 Y130.344 E123.7948
G1 X20.726 Y128.095 E124.20162
G1 X19.252 Y125.785 E124.62685
G1 X18.409 Y124.527 E124.86185
G1 X17.883 Y123.755 E125.00681
G1 X17.616 Y123.319 E125.08615
G1 X17.416 Y122.955 E125.1506
G1 X17.142 Y122.378 E125.24972
G1 X16.973 Y121.959 E125.31983
G1 X16.787 Y121.414 E125.4092
G1 X16.681 Y121.04 E125.46952
G1 X16.548 Y120.449 E125.56353
G1 X16.473 Y119.994 E125.63509
G1 X16.404 Y119.26 E125.74949
G1 X16.379 Y118.294 E125.89945
G1 X16.37 Y103.943 E128.12646
G1 X16.379 Y103.283 E128.22889
G1 X16.423 Y102.216 E128.39461
G1 X16.503 Y99.478 E128.81968
G1 X16.507 Y96.833 E129.23014
G1 X16.393 Y93.161 E129.80024
G1 X16.378 Y92.243 E129.94272
G1 X16.37 Y77.999 E132.15313
G1 X16.375 Y77.658 E132.20605
G1 X16.373 Y74.912 E132.63218
G1 X16.296 Y72.212 E133.05134
G1 X16.144 Y69.551 E133.46495
G1 X15.92 Y66.929 E133.87332
G1 X15.489 Y63.304 E134.43982
G1 X15.396 Y62.631 E134.54525
G1 X15.346 Y61.989 E134.64518
G1 X15.336 Y61.431 E134.73178
G1 X15.379 Y60.65 E134.85316
G1 X15.446 Y60.129 E134.93468
G1 X15.594 Y59.389 E135.05179
G1 X15.739 Y58.862 E135.13661
G1 X16.004 Y58.119 E135.25902
G1 X16.226 Y57.616 E135.34434
G1 X16.589 Y56.933 E135.46437
G1 X16.876 Y56.475 E135.54824
G1 X17.365 Y55.813 E135.67596
G1 X17.782 Y55.331 E135.77487
G1 X18.419 Y54.707 E135.91324
G1 X18.872 Y54.332 E136.0045
G1 X19.526 Y53.869 E136.12885
G1 X19.908 Y53.639 E136.19805
G1 X20.516 Y53.323 E136.30438
G1 X21.08 Y53.075 E136.39999
G1 F2400 E131.39999
;MESH:Object 1
G0 F7200 X24.905 Y73.863
;TYPE:WALL-OUTER
G1 F2400 E136.40384 ;Adjusted e by 0.00385mm
G1 F1800 X25.298 Y73.817 E136.45801
G1 X42.484 Y73.81 E138.81069
G1 X42.903 Y73.835 E138.86815
G1 X43.286 Y73.902 E138.92138
G1 X43.68 Y74.019 E138.97765
G1 X44.042 Y74.176 E139.03166
G1 X44.393 Y74.378 E139.0871
G1 X44.701 Y74.608 E139.13972
G1 X45.006 Y74.896 E139.19715
G1 X45.262 Y75.201 E139.25166
G1 X45.477 Y75.527 E139.30512
G1 X45.656 Y75.884 E139.35979
G1 X45.795 Y76.267 E139.41557
