;FLAVOR:Marlin
;TIME:2034
;Filament used: 10.0852m
;Layer height: 0.52
;MINX:72.37
;MINY:51.469
;MINZ:0.52
;MAXX:225.639
;MAXY:248.538
;MAXZ:16.64
;EOFFSETPROCESSED
;Generated with Cura_SteamEngine mb-master-20200424
M82 ;absolute extrusion mode
;
; Crashspace Printer Farm MP10 (C. Nicks Start Code + John Gwinner Probe Code)
;______________________________________________
;Sliced at: Sat 25-04-2020 23:08:55
;Layer Height: 0.52
;Line Width: 0.74
;Flow: 100
;Z-Hop: False
;______________________________________________
;
M140 S60 ; set bed temp
M104 S180.0 T0 ; set extruder park temp to warm but not ooze during bed probing ;Adjusted temp by 20
M190 S60 ; wait for bed temp
; Try to grab the ooze off the nozzle here before probing around
G28 ; home all axis
G29 P1; probes mesh
G29 P3; fill in mesh that can't be reached is good
G29 S0 ; save mesh
G29 F 10.0 ;prints linear above this height
G29 A ; use UBL
M104 S280.0 T0 ; set extruder temp ;Adjusted temp by 20
G92 E0;(Reset the extruder to 0)
G0 X0 Y30 Z2 F1500; (set into park)
M109 S280.0 T0 ; wait for extruder temp ;Adjusted temp by 20
G92 E0
G1 E7 F300; (Unretract from last ending code, plus add some for ooze)
;PRIME
G0 X0 Y30 Z0.2 F1500; (Knock off ooze)
G0 X2 Y30 Z0.4 F1500; (Knock off ooze)
G0 X3 Y30 Z1.0 F1500; (Knock off ooze)
G0 X5 Y30 Z0.52 F1000; (Lower into prime)
G91
G1 X5 Y+20 F1000 E5  ;PRIME
G1 X+0.74 ;PRIME
G1 Y-20 F1000 E5  ;PRIME
G90
G92 E0
G0 X0 Y20 F1500; (Knock off ooze)
G0 X0 Y20 Z0.2 F1500; (Knock off ooze)
G0 X2 Y20 Z0.4 F1500; (Knock off ooze)
G0 X3 Y20 Z1.0 F1500; (Knock off ooze)
G92 E0
;AND GO!!!!
G92 E0
G92 E0
G1 F2400 E-5
;LAYER_COUNT:32
;LAYER:0
M107
G1 F600 Z1.52
G0 F7200 X75.876 Y56.475 Z1.52
;TYPE:SKIRT
G1 F600 Z0.52
G1 F2400 E0.0
G1 F1800 X76.365 Y55.813 E0.12772
G1 X76.782 Y55.331 E0.22662
G1 X77.419 Y54.707 E0.365
G1 X77.872 Y54.332 E0.45626
G1 X78.526 Y53.869 E0.58061
G1 X78.908 Y53.639 E0.6498
G1 X79.516 Y53.323 E0.75613
G1 X80.08 Y53.075 E0.85174
G1 X80.951 Y52.778 E0.99455
G1 X81.577 Y52.623 E1.09463
G1 X82.369 Y52.489 E1.21928
G1 X82.712 Y52.457 E1.27274
G1 X83.109 Y52.43 E1.33449
G1 X83.546 Y52.412 E1.40236
G1 X84.036 Y52.408 E1.4784
G1 X95.938 Y52.408 E3.32537
G1 X96.421 Y52.415 E3.40033
G1 X97.394 Y52.458 E3.55147
G1 X98.264 Y52.571 E3.68762
G1 X99.207 Y52.773 E3.83727
G1 X101.873 Y53.324 E4.25973
G1 X104.506 Y53.79 E4.67467
G1 X107.15 Y54.182 E5.08946
G1 X109.803 Y54.5 E5.5041
G1 X112.456 Y54.741 E5.9175
G1 X115.151 Y54.909 E6.33652
G1 X118.005 Y55.005 E6.77966
G1 X120.464 Y55.05 E7.16132
G1 X130.555 Y55.202 E8.72744
G1 X133.298 Y55.204 E9.1531
G1 X135.959 Y55.131 E9.56619
G1 X138.663 Y54.98 E9.98646
G1 X141.313 Y54.757 E10.39914
G1 X143.97 Y54.458 E10.81406
G1 X146.609 Y54.084 E11.22768
G1 X149.276 Y53.63 E11.64751
G1 X151.872 Y53.112 E12.0583
G1 X154.485 Y52.513 E12.47431
G1 X156.951 Y51.876 E12.86955
G1 X157.748 Y51.658 E12.99777
G1 X158.389 Y51.524 E13.09939
G1 X159.283 Y51.469 E13.23839
G1 X160.276 Y51.491 E13.39252
G1 X163.448 Y51.623 E13.88518
G1 X164.237 Y51.666 E14.0078
G1 X164.888 Y51.743 E14.10953
G1 X165.524 Y51.898 E14.21111
G1 X166 Y52.07 E14.28965
G1 X166.764 Y52.388 E14.41807
G1 X167.942 Y52.899 E14.61734
G1 X170.421 Y53.891 E15.03169
G1 X172.917 Y54.81 E15.44444
G1 X175.446 Y55.658 E15.85837
G1 X178.034 Y56.448 E16.27828
G1 X180.601 Y57.152 E16.69134
G1 X183.234 Y57.795 E17.11194
G1 X184.982 Y58.176 E17.38957
G1 X185.984 Y58.388 E17.5485
G1 X186.812 Y58.576 E17.68026
G1 X187.913 Y58.844 E17.85611
G1 X188.949 Y59.114 E18.02224
G1 X190.095 Y59.438 E18.20705
G1 X191.126 Y59.754 E18.37439
G1 X192.127 Y60.082 E18.53786
G1 X193.108 Y60.428 E18.69928
G1 X194.092 Y60.801 E18.86258
G1 X195.072 Y61.201 E19.02684
G1 X195.949 Y61.583 E19.17528
G1 X196.877 Y62.017 E19.33426
G1 X197.845 Y62.499 E19.50207
G1 X198.689 Y62.951 E19.65064
G1 X199.57 Y63.454 E19.80807
G1 X200.343 Y63.924 E19.94846
G1 X201.3 Y64.545 E20.1255
G1 X202.044 Y65.061 E20.266
G1 X202.818 Y65.63 E20.41508
G1 X203.683 Y66.308 E20.58563
G1 X204.353 Y66.866 E20.72094
G1 X205.099 Y67.529 E20.87582
G1 X205.933 Y68.315 E21.05366
G1 X206.539 Y68.925 E21.18709
G1 X207.277 Y69.709 E21.35417
G1 X207.957 Y70.479 E21.51359
G1 X208.591 Y71.239 E21.66718
G1 X209.293 Y72.132 E21.84345
G1 X209.87 Y72.912 E21.99401
G1 X210.53 Y73.858 E22.17301
G1 X211.084 Y74.696 E22.3289
G1 X211.728 Y75.731 E22.51806
G1 X212.277 Y76.665 E22.68619
G1 X212.806 Y77.616 E22.85506
G1 X213.418 Y78.784 E23.05969
G1 X213.894 Y79.746 E23.22625
G1 X215.868 Y84.002 E23.95428
G1 X217.056 Y86.377 E24.36638
G1 X218.327 Y88.748 E24.78385
G1 X219.657 Y91.067 E25.1987
G1 X221.062 Y93.365 E25.61668
G1 X222.512 Y95.594 E26.02932
G1 X223.79 Y97.45 E26.37902
G1 X224.128 Y98.011 E26.48065
G1 X224.395 Y98.61 E26.58242
G1 X224.619 Y99.376 E26.70627
G1 X224.84 Y100.413 E26.87081
G1 X225.422 Y103.435 E27.34839
G1 X225.564 Y104.232 E27.47401
G1 X225.639 Y104.883 E27.57571
G1 X225.635 Y105.538 E27.67735
G1 X225.576 Y106.044 E27.75641
G1 X225.346 Y107.443 E27.97642
G1 X225.063 Y109.249 E28.2601
G1 X224.711 Y111.922 E28.67848
G1 X224.438 Y114.588 E29.09436
G1 X224.239 Y117.264 E29.51077
G1 X224.118 Y119.919 E29.92321
G1 X224.072 Y122.586 E30.33714
G1 X224.1 Y125.286 E30.75615
G1 X224.206 Y127.98 E31.17453
G1 X224.3 Y129.512 E31.41272
G1 X224.447 Y131.663 E31.74729
G1 X224.6 Y134.293 E32.15611
G1 X224.732 Y136.924 E32.56491
G1 X224.827 Y139.253 E32.92663
G1 X224.913 Y141.966 E33.34785
G1 X224.979 Y144.958 E33.81227
G1 X225.011 Y147.719 E34.24075
G1 X225.018 Y150.141 E34.6166
G1 X225.007 Y152.955 E35.05329
G1 X224.968 Y155.71 E35.48086
G1 X224.902 Y158.47 E35.90928
G1 X224.805 Y161.317 E36.35134
G1 X224.685 Y164.089 E36.78191
G1 X224.537 Y166.863 E37.21299
G1 X224.361 Y169.659 E37.64774
G1 X224.32 Y170.23 E37.73658
G1 X224.161 Y172.966 E38.16187
G1 X224.082 Y175.663 E38.58058
G1 X224.078 Y178.33 E38.99445
G1 X224.151 Y180.997 E39.40847
G1 X224.3 Y183.691 E39.82717
G1 X224.522 Y186.346 E40.24062
G1 X224.821 Y189.002 E40.65538
G1 X225.194 Y191.649 E41.07021
G1 X225.424 Y193.058 E41.29175
G1 X225.569 Y193.914 E41.42648
G1 X225.638 Y194.566 E41.52822
G1 X225.628 Y195.221 E41.62988
G1 X225.565 Y195.728 E41.70916
G1 X225.416 Y196.588 E41.84461
G1 X224.804 Y199.775 E42.34821
G1 X224.643 Y200.563 E42.47302
G1 X224.472 Y201.195 E42.57462
G1 X224.225 Y201.802 E42.67631
G1 X223.816 Y202.51 E42.8032
G1 X223.085 Y203.58 E43.00429
G1 X221.467 Y206.012 E43.45759
G1 X220.044 Y208.297 E43.87531
G1 X218.72 Y210.563 E44.28258
G1 X217.423 Y212.932 E44.7017
G1 X216.209 Y215.311 E45.11616
G1 X214.719 Y218.473 E45.6586
G1 X214.59 Y218.761 E45.70757
G1 X214.146 Y219.724 E45.87213
G1 X213.58 Y220.892 E46.07354
G1 X213.036 Y221.954 E46.25871
G1 X212.515 Y222.915 E46.42834
G1 X211.868 Y224.036 E46.6292
G1 X211.36 Y224.869 E46.78061
G1 X210.726 Y225.854 E46.96239
G1 X210.136 Y226.715 E47.12436
G1 X209.536 Y227.544 E47.28316
G1 X208.823 Y228.471 E47.46465
G1 X208.248 Y229.176 E47.60582
G1 X207.496 Y230.046 E47.78427
G1 X206.908 Y230.689 E47.91949
G1 X206.118 Y231.501 E48.09529
G1 X205.443 Y232.153 E48.24093
G1 X204.67 Y232.855 E48.40296
G1 X203.972 Y233.453 E48.5456
G1 X203.187 Y234.085 E48.70199
G1 X202.334 Y234.728 E48.86775
G1 X201.588 Y235.258 E49.00976
G1 X200.799 Y235.786 E49.15709
G1 X199.809 Y236.404 E49.33819
G1 X199.101 Y236.817 E49.46539
G1 X198.108 Y237.361 E49.64109
G1 X197.296 Y237.777 E49.78267
G1 X196.302 Y238.254 E49.95377
G1 X195.377 Y238.666 E50.1109
G1 X194.497 Y239.035 E50.25898
G1 X193.383 Y239.467 E50.4444
G1 X192.544 Y239.77 E50.58283
G1 X191.477 Y240.132 E50.75768
G1 X190.406 Y240.467 E50.93182
G1 X189.403 Y240.757 E51.09384
G1 X188.366 Y241.039 E51.26061
G1 X187.27 Y241.313 E51.43592
G1 X186.092 Y241.585 E51.62354
G1 X184.759 Y241.87 E51.83507
G1 X182.495 Y242.378 E52.19513
G1 X179.892 Y243.035 E52.61174
G1 X177.296 Y243.77 E53.03043
G1 X174.721 Y244.576 E53.44914
G1 X172.214 Y245.443 E53.86079
G1 X169.726 Y246.382 E54.27346
G1 X167.208 Y247.413 E54.6957
G1 X166.925 Y247.538 E54.74371
G1 X166.028 Y247.916 E54.89476
G1 X165.41 Y248.133 E54.9964
G1 X164.77 Y248.273 E55.09807
G1 X164.257 Y248.328 E55.17813
G1 X163.455 Y248.375 E55.3028
G1 X160.147 Y248.514 E55.81659
G1 X159.354 Y248.538 E55.93971
G1 X158.699 Y248.517 E56.04141
G1 X157.849 Y248.368 E56.17532
G1 X157.044 Y248.159 E56.30439
G1 X155.871 Y247.836 E56.49319
G1 X153.231 Y247.189 E56.91499
G1 X150.62 Y246.626 E57.32948
G1 X147.982 Y246.139 E57.74577
G1 X145.372 Y245.73 E58.15574
G1 X142.696 Y245.388 E58.57438
G1 X140.042 Y245.125 E58.98825
G1 X137.349 Y244.935 E59.4072
G1 X134.68 Y244.822 E59.82175
G1 X132.029 Y244.785 E60.23317
G1 X130.598 Y244.796 E60.45525
G1 X119.557 Y244.964 E62.16881
G1 X117.96 Y244.994 E62.41668
G1 X115.249 Y245.084 E62.83761
G1 X112.556 Y245.249 E63.25629
G1 X109.938 Y245.485 E63.66421
G1 X107.249 Y245.803 E64.0844
G1 X104.578 Y246.197 E64.50337
G1 X101.992 Y246.652 E64.91084
G1 X99.108 Y247.249 E65.36787
G1 X98.6 Y247.362 E65.44863
G1 X98.17 Y247.447 E65.51665
G1 X97.555 Y247.528 E65.61291
G1 X97.037 Y247.566 E65.69351
G1 X96.437 Y247.588 E65.78668
G1 X84.157 Y247.59 E67.69232
G1 X83.375 Y247.579 E67.81368
G1 X83.062 Y247.566 E67.86229
G1 X82.553 Y247.529 E67.94149
G1 X81.843 Y247.429 E68.05276
G1 X81.36 Y247.328 E68.12933
G1 X80.71 Y247.149 E68.23395
G1 X80.289 Y247.004 E68.30305
G1 X79.595 Y246.709 E68.42007
G1 X78.992 Y246.401 E68.52515
G1 X78.203 Y245.908 E68.66952
G1 X77.72 Y245.544 E68.76338
G1 X77.1 Y244.996 E68.89179
G1 X76.762 Y244.648 E68.96707
G1 X76.284 Y244.083 E69.08191
G1 X75.926 Y243.595 E69.17584
G1 X75.498 Y242.908 E69.30144
G1 X75.271 Y242.474 E69.37745
G1 X74.962 Y241.764 E69.49761
G1 X74.746 Y241.149 E69.59876
G1 X74.525 Y240.303 E69.73445
G1 X74.438 Y239.81 E69.81214
G1 X74.36 Y239.089 E69.92468
G1 X74.339 Y238.557 E70.0073
G1 X74.37 Y237.733 E70.13526
G1 X74.444 Y237.088 E70.23601
G1 X74.607 Y236.254 E70.36788
G1 X74.739 Y235.782 E70.44393
G1 X75.001 Y235.053 E70.56414
G1 X75.258 Y234.473 E70.66259
G1 X75.665 Y233.723 E70.79501
G1 X75.943 Y233.295 E70.87421
G1 X76.406 Y232.682 E70.99342
G1 X77.068 Y231.926 E71.14936
G1 X78.83 Y229.878 E71.56861
G1 X80.523 Y227.794 E71.98527
G1 X82.154 Y225.668 E72.40109
G1 X83.703 Y223.523 E72.81167
G1 X85.224 Y221.287 E73.23133
G1 X86.668 Y219.031 E73.64699
G1 X88.036 Y216.753 E74.05934
G1 X89.361 Y214.399 E74.47853
G1 X90.603 Y212.039 E74.89238
G1 X91.785 Y209.627 E75.30921
G1 X92.884 Y207.218 E75.7201
G1 X93.94 Y204.719 E76.14111
G1 X94.91 Y202.22 E76.5571
G1 X95.799 Y199.729 E76.96753
G1 X96.629 Y197.179 E77.38368
G1 X97.383 Y194.618 E77.79797
G1 X98.072 Y192.008 E78.21687
G1 X98.683 Y189.402 E78.63224
G1 X99.212 Y186.803 E79.04382
G1 X99.672 Y184.171 E79.45845
G1 X100.062 Y181.504 E79.87673
G1 X100.374 Y178.833 E80.29403
G1 X100.609 Y176.179 E80.7075
G1 X100.769 Y173.511 E81.12227
G1 X100.854 Y170.849 E81.53557
G1 X100.863 Y168.147 E81.95488
G1 X100.797 Y165.482 E82.36856
G1 X100.655 Y162.82 E82.78224
G1 X100.439 Y160.166 E83.19546
G1 X100.142 Y157.47 E83.61636
G1 X99.776 Y154.839 E84.02857
G1 X99.332 Y152.193 E84.44493
G1 X98.814 Y149.56 E84.86135
G1 X98.231 Y146.99 E85.2703
G1 X97.558 Y144.362 E85.69128
G1 X96.819 Y141.784 E86.10745
G1 X96.011 Y139.243 E86.52122
G1 X95.132 Y136.724 E86.93524
G1 X94.173 Y134.211 E87.35264
G1 X93.147 Y131.732 E87.76899
G1 X92.053 Y129.289 E88.18437
G1 X90.909 Y126.914 E88.59346
G1 X89.668 Y124.515 E89.0126
G1 X88.359 Y122.149 E89.43221
G1 X87.017 Y119.881 E89.84116
G1 X85.583 Y117.605 E90.25861
G1 X84.092 Y115.379 E90.67437
G1 X82.517 Y113.168 E91.09563
G1 X80.951 Y111.096 E91.49867
G1 X79.233 Y108.95 E91.92526
G1 X77.531 Y106.946 E92.33327
G1 X75.714 Y104.924 E92.75512
G1 X75.486 Y104.682 E92.80672
G1 X74.846 Y103.985 E92.95356
G1 X74.561 Y103.66 E93.02064
G1 X74.28 Y103.306 E93.09078
G1 X73.975 Y102.887 E93.1712
G1 X73.601 Y102.296 E93.27974
G1 X73.406 Y101.938 E93.343
G1 X73.142 Y101.378 E93.43907
G1 X72.973 Y100.959 E93.50918
G1 X72.787 Y100.414 E93.59855
G1 X72.681 Y100.04 E93.65887
G1 X72.548 Y99.449 E93.75288
G1 X72.473 Y98.994 E93.82444
G1 X72.404 Y98.26 E93.93884
G1 X72.379 Y97.294 E94.0888
G1 X72.37 Y82.943 E96.31581
G1 X72.379 Y82.299 E96.41576
G1 X72.401 Y81.731 E96.50397
G1 X72.436 Y81.316 E96.5686
G1 X72.481 Y80.948 E96.62613
G1 X72.536 Y80.592 E96.68203
G1 X72.661 Y79.938 E96.78536
G1 X73.126 Y77.293 E97.20211
G1 X73.512 Y74.662 E97.61476
G1 X73.826 Y72.01 E98.02918
G1 X74.066 Y69.32 E98.44828
G1 X74.23 Y66.657 E98.86231
G1 X74.317 Y64.003 E99.27438
G1 X74.316 Y62.674 E99.48062
G1 X74.336 Y61.24 E99.70317
G1 X74.382 Y60.603 E99.80228
G1 X74.449 Y60.102 E99.88072
G1 X74.594 Y59.389 E99.99363
G1 X74.739 Y58.862 E100.07845
G1 X75.004 Y58.119 E100.20086
G1 X75.226 Y57.616 E100.28618
G1 X75.589 Y56.933 E100.40621
G1 X75.876 Y56.475 E100.49009
G1 F2400 E95.49009
;MESH:Object 1
G0 F7200 X80.905 Y78.863
;TYPE:WALL-OUTER
G1 F2400 E100.49431 ;Adjusted e by 0.00422mm
G1 F1800 X81.298 Y78.817 E100.54847
G1 X98.484 Y78.81 E102.90116
G1 X98.903 Y78.835 E102.95862
G1 X99.286 Y78.902 E103.01185
G1 X99.68 Y79.019 E103.06811
G1 X100.042 Y79.176 E103.12213
G1 X100.393 Y79.378 E103.17757
G1 X100.701 Y79.608 E103.23019
G1 X101.006 Y79.896 E103.28762
G1 X101.262 Y80.201 E103.34213
G1 X101.477 Y80.527 E103.39559
G1 X101.656 Y80.884 E103.45026
G1 X101.795 Y81.267 E103.50604
G1 X101.887 Y81.655 E103.56062
G1 X101.933 Y82.048 E103.61479
G1 X101.94 Y97.736 E105.76241
G1 X101.915 Y98.153 E105.8196
G1 X101.848 Y98.534 E105.87255
G1 X101.731 Y98.93 E105.92908
G1 X101.574 Y99.292 E105.9831
G1 X101.372 Y99.643 E106.03854
G1 X101.142 Y99.951 E106.09116
G1 X100.854 Y100.256 E106.14859
G1 X100.549 Y100.512 E106.2031
G1 X100.223 Y100.727 E106.25656
G1 X99.866 Y100.906 E106.31123
G1 X99.483 Y101.045 E106.367
G1 X99.103 Y101.135 E106.42046
G1 X98.66 Y101.185 E106.48149
G1 X81.516 Y101.19 E108.82843
G1 X81.097 Y101.165 E108.88589
G1 X80.714 Y101.098 E108.93912
G1 X80.32 Y100.981 E108.99538
G1 X79.958 Y100.824 E109.0494
G1 X79.607 Y100.622 E109.10484
G1 X79.299 Y100.392 E109.15746
G1 X78.994 Y100.104 E109.21489
G1 X78.738 Y99.799 E109.2694
G1 X78.523 Y99.473 E109.32286
G1 X78.344 Y99.116 E109.37753
G1 X78.205 Y98.733 E109.43331
G1 X78.113 Y98.345 E109.48789
G1 X78.067 Y97.952 E109.54206
G1 X78.06 Y82.264 E111.68968
G1 X78.085 Y81.847 E111.74687
G1 X78.152 Y81.464 E111.80009
G1 X78.269 Y81.07 E111.85636
G1 X78.426 Y80.708 E111.91038
G1 X78.628 Y80.357 E111.96581
G1 X78.858 Y80.049 E112.01844
G1 X79.146 Y79.744 E112.07586
G1 X79.451 Y79.488 E112.13037
G1 X79.777 Y79.273 E112.18383
G1 X80.134 Y79.094 E112.2385
G1 X80.517 Y78.955 E112.29428
G1 X80.905 Y78.863 E112.34887
G0 F7200 X81.203 Y78.829
G0 X81.454 Y80.09
G1 F1800 X80.907 Y80.166 E112.42447
G1 X80.36 Y80.408 E112.50635
G1 X79.898 Y80.79 E112.58842
G1 X79.561 Y81.284 E112.67028
G1 X79.368 Y81.861 E112.75357
G1 X79.34 Y83.511 E112.97948
G1 X79.34 Y84.41 E113.10255
G1 X100.66 Y84.41 E116.02117
G1 X100.66 Y82.204 E116.32316
G1 X100.584 Y81.657 E116.39876
G1 X100.342 Y81.11 E116.48064
G1 X99.96 Y80.648 E116.56271
G1 X99.466 Y80.311 E116.64457
G1 X98.914 Y80.127 E116.72422
G1 X98.531 Y80.09 E116.7769
G1 X81.454 Y80.09 E119.11466
G0 F7200 X81.157 Y80.131
G0 X81.454 Y85.09
G1 E119.11532 ;Adjusted e by 0.00066mm
G1 F1800 X80.907 Y85.166 E119.19092
G1 X80.36 Y85.408 E119.27281
G1 X79.898 Y85.79 E119.35487
G1 X79.561 Y86.284 E119.43674
G1 X79.368 Y86.861 E119.52003
G1 X79.34 Y88.511 E119.74594
G1 X79.34 Y89.41 E119.86901
G1 X100.66 Y89.41 E122.78762
G1 X100.66 Y87.204 E123.08961
G1 X100.584 Y86.657 E123.16521
G1 X100.342 Y86.11 E123.24709
G1 X99.96 Y85.648 E123.32916
G1 X99.466 Y85.311 E123.41102
G1 X98.914 Y85.127 E123.49068
G1 X98.531 Y85.09 E123.54335
G1 X81.454 Y85.09 E125.88112
G0 F7200 X81.157 Y85.131
G1 F2400 E120.88112
G0 F7200 X79.34 Y90.59
G1 F2400 E125.88188 ;Adjusted e by 0.00076mm
G1 F1800 X79.34 Y92.522 E126.14636
G1 X79.347 Y92.97 E126.2077
G1 X79.48 Y93.534 E126.28702
G1 X79.771 Y94.056 E126.36884
G1 X80.194 Y94.479 E126.45073
G1 X80.716 Y94.77 E126.53254
G1 X81.285 Y94.904 E126.61257
G1 X98.546 Y94.91 E128.97552
G1 X99.093 Y94.834 E129.05112
G1 X99.64 Y94.592 E129.133
