;FLAVOR:Marlin
;TIME:2034
;Filament used: 10.2203m
;Layer height: 0.52
;MINX:72.37
;MINY:51.469
;MINZ:0.52
;MAXX:225.647
;MAXY:248.538
;MAXZ:16.64
;EOFFSETPROCESSED
;Generated with Cura_SteamEngine mb-master-20200328
M82 ;absolute extrusion mode
;
; Crashspace Printer Farm MP10 (C. Nicks Start Code + John Gwinner Probe Code)
;______________________________________________
;Sliced at: Sat 25-04-2020 12:18:08
;Layer Height: 0.52
;Line Width: 0.74
;Flow: 102
;Z-Hop: False
;______________________________________________
;
M140 S60 ; set bed temp
M104 S180.0 T0 ; set extruder park temp to warm but not ooze during bed probing ;Adjusted temp by 20
M190 S70 ; wait for bed temp
; Try to grab the ooze off the nozzle here before probing around
G28 ; home all axis
G29 P1; probes mesh
G29 P3; fill in mesh that can't be reached is good
G29 S0 ; save mesh
G29 F 10.0 ;prints linear above this height
G29 A ; use UBL
M104 S280.0 T0 ; set extruder temp ;Adjusted temp by 20
G92 E0;(Reset the extruder to 0)
G0 X0 Y30 Z2 F1500; (set into park)
M109 S280.0 T0 ; wait for extruder temp ;Adjusted temp by 20
G92 E0
G1 E7 F300; (Unretract from last ending code, plus add some for ooze)
;PRIME
G0 X0 Y30 Z0.2 F1500; (Knock off ooze)
G0 X2 Y30 Z0.4 F1500; (Knock off ooze)
G0 X3 Y30 Z1.0 F1500; (Knock off ooze)
G0 X5 Y30 Z0.52 F1000; (Lower into prime)
G91
G1 X5 Y+20 F1000 E5  ;PRIME
G1 X+0.74 ;PRIME
G1 Y-20 F1000 E5  ;PRIME
G90
G92 E0
G0 X0 Y20 F1500; (Knock off ooze)
G0 X0 Y20 Z0.2 F1500; (Knock off ooze)
G0 X2 Y20 Z0.4 F1500; (Knock off ooze)
G0 X3 Y20 Z1.0 F1500; (Knock off ooze)
G92 E0
;AND GO!!!!
G92 E0
G92 E0
G1 F2400 E-5
;LAYER_COUNT:32
;LAYER:0
M107
G1 F600 Z1.52
G0 F7200 X118.018 Y244.992 Z1.52
;TYPE:SKIRT
G1 F600 Z0.52
G1 F2400 E0.0
G1 F1800 X115.314 Y245.08 E0.43706
G1 X112.651 Y245.243 E0.86807
G1 X109.956 Y245.484 E1.30518
G1 X107.312 Y245.795 E1.73526
G1 X104.678 Y246.181 E2.16533
G1 X102.028 Y246.647 E2.6
G1 X99.037 Y247.265 E3.0934
G1 X98.729 Y247.334 E3.14439
G1 X98.61 Y247.36 E3.16407
G1 X98.27 Y247.428 E3.22008
G1 X97.683 Y247.512 E3.31588
G1 X97.281 Y247.547 E3.38107
G1 X96.921 Y247.566 E3.43931
G1 X95.756 Y247.589 E3.62755
G1 X95.65 Y247.59 E3.64467
G1 X84.148 Y247.59 E5.50281
G1 X83.367 Y247.579 E5.62899
G1 X83.049 Y247.568 E5.6804
G1 X82.803 Y247.552 E5.72022
G1 X82.456 Y247.521 E5.7765
G1 X81.832 Y247.428 E5.87842
G1 X81.36 Y247.329 E5.95633
G1 X81.071 Y247.26 E6.00433
G1 X80.531 Y247.093 E6.09564
G1 X80.103 Y246.935 E6.16935
G1 X79.831 Y246.827 E6.21663
G1 X79.286 Y246.566 E6.31425
G1 X78.844 Y246.323 E6.39573
G1 X78.721 Y246.253 E6.41859
G1 X78.14 Y245.864 E6.53155
G1 X77.652 Y245.489 E6.63097
G1 X77.025 Y244.923 E6.76743
G1 X76.614 Y244.489 E6.86399
G1 X76.32 Y244.152 E6.93624
G1 X76.03 Y243.763 E7.01462
G1 X75.86 Y243.515 E7.0632
G1 X75.687 Y243.247 E7.11473
G1 X75.412 Y242.769 E7.20382
G1 X75.253 Y242.451 E7.26125
G1 X75.114 Y242.157 E7.31379
G1 X74.977 Y241.842 E7.36928
G1 X74.954 Y241.784 E7.37936
G1 X74.833 Y241.447 E7.43721
G1 X74.705 Y241.039 E7.50629
G1 X74.638 Y240.806 E7.54545
G1 X74.503 Y240.209 E7.64433
G1 X74.435 Y239.803 E7.71084
G1 X74.393 Y239.517 E7.75753
G1 X74.343 Y238.873 E7.86189
G1 X74.335 Y238.414 E7.93605
G1 X74.335 Y238.17 E7.97547
G1 X74.38 Y237.531 E8.07895
G1 X74.44 Y237.073 E8.15357
G1 X74.494 Y236.736 E8.20871
G1 X74.626 Y236.166 E8.30323
G1 X74.743 Y235.761 E8.37133
G1 X74.843 Y235.443 E8.42519
G1 X75.065 Y234.87 E8.52446
G1 X75.201 Y234.571 E8.57752
G1 X75.333 Y234.3 E8.62622
G1 X75.44 Y234.096 E8.66343
G1 X75.723 Y233.618 E8.75317
G1 X76.087 Y233.084 E8.85758
G1 X76.279 Y232.821 E8.91018
G1 X76.482 Y232.573 E8.96196
G1 X77.383 Y231.536 E9.18388
G1 X78.033 Y230.8 E9.34251
G1 X79.721 Y228.777 E9.76815
G1 X81.408 Y226.636 E10.2085
G1 X83.02 Y224.464 E10.64546
G1 X84.534 Y222.299 E11.07225
G1 X85.967 Y220.124 E11.49303
G1 X87.411 Y217.789 E11.93655
G1 X88.74 Y215.497 E12.36456
G1 X90.039 Y213.106 E12.80415
G1 X91.235 Y210.745 E13.23171
G1 X92.371 Y208.337 E13.66184
G1 X93.45 Y205.871 E14.09669
G1 X94.451 Y203.396 E14.52798
G1 X95.383 Y200.889 E14.96007
G1 X96.254 Y198.329 E15.39692
G1 X97.035 Y195.8 E15.82451
G1 X97.752 Y193.219 E16.25726
G1 X98.385 Y190.665 E16.68234
G1 X98.973 Y187.971 E17.1278
G1 X99.46 Y185.382 E17.55339
G1 X99.882 Y182.736 E17.98625
G1 X100.232 Y180.052 E18.42351
G1 X100.497 Y177.442 E18.84733
G1 X100.695 Y174.74 E19.285
G1 X100.817 Y172.044 E19.72098
G1 X100.86 Y169.413 E20.14608
G1 X100.829 Y166.716 E20.5818
G1 X100.72 Y164.013 E21.01882
G1 X100.54 Y161.381 E21.44501
G1 X100.282 Y158.71 E21.87852
G1 X99.946 Y156.041 E22.3131
G1 X99.542 Y153.421 E22.74136
G1 X99.055 Y150.765 E23.17759
G1 X98.503 Y148.172 E23.60587
G1 X97.857 Y145.512 E24.04808
G1 X97.167 Y142.982 E24.47173
G1 X96.383 Y140.399 E24.90781
G1 X95.535 Y137.867 E25.33918
G1 X94.616 Y135.357 E25.77099
G1 X93.638 Y132.903 E26.19776
G1 X92.563 Y130.416 E26.63546
G1 X91.437 Y127.998 E27.06636
G1 X90.228 Y125.583 E27.50266
G1 X88.961 Y123.223 E27.93539
G1 X87.64 Y120.92 E28.36429
G1 X86.239 Y118.631 E28.79784
G1 X84.802 Y116.425 E29.22316
G1 X83.239 Y114.169 E29.66654
G1 X81.674 Y112.039 E30.09354
G1 X80.024 Y109.924 E30.52689
G1 X78.313 Y107.852 E30.96099
G1 X76.575 Y105.867 E31.38722
G1 X75.799 Y105.038 E31.57066
G1 X75.686 Y104.901 E31.59935
G1 X74.844 Y103.983 E31.80058
G1 X74.561 Y103.66 E31.86996
G1 X74.372 Y103.433 E31.91768
G1 X74.078 Y103.042 E31.99671
G1 X73.882 Y102.755 E32.05285
G1 X73.71 Y102.488 E32.10416
G1 X73.513 Y102.143 E32.16834
G1 X73.356 Y101.843 E32.22304
G1 X73.214 Y101.552 E32.27535
G1 X73.062 Y101.193 E32.33833
G1 X72.938 Y100.869 E32.39438
G1 X72.841 Y100.599 E32.44073
G1 X72.709 Y100.161 E32.51463
G1 X72.603 Y99.734 E32.5857
G1 X72.565 Y99.562 E32.61416
G1 X72.484 Y99.099 E32.69009
G1 X72.432 Y98.678 E32.75862
G1 X72.412 Y98.475 E32.79157
G1 X72.387 Y98.032 E32.86325
G1 X72.371 Y97.015 E33.02757
G1 X72.37 Y96.931 E33.04114
G1 X72.37 Y82.969 E35.29669
G1 X72.38 Y82.248 E35.41318
G1 X72.384 Y82.088 E35.43903
G1 X72.398 Y81.769 E35.49062
G1 X72.422 Y81.418 E35.54745
G1 X72.475 Y80.964 E35.62129
G1 X72.541 Y80.568 E35.68615
G1 X72.649 Y80.001 E35.7794
G1 X73.126 Y77.288 E36.2244
G1 X73.513 Y74.651 E36.65497
G1 X73.827 Y71.999 E37.08639
G1 X74.068 Y69.306 E37.52318
G1 X74.229 Y66.651 E37.95288
G1 X74.317 Y63.992 E38.38267
G1 X74.316 Y62.678 E38.59495
G1 X74.336 Y61.24 E38.82728
G1 X74.381 Y60.614 E38.92867
G1 X74.446 Y60.12 E39.00916
G1 X74.483 Y59.878 E39.04871
G1 X74.621 Y59.272 E39.14912
G1 X74.763 Y58.78 E39.23184
G1 X74.79 Y58.686 E39.24764
G1 X75.057 Y57.981 E39.36943
G1 X75.276 Y57.506 E39.45393
G1 X75.534 Y57.015 E39.54353
G1 X75.684 Y56.762 E39.59105
G1 X75.909 Y56.414 E39.658
G1 X76.079 Y56.172 E39.70577
G1 X76.465 Y55.685 E39.80616
G1 X76.835 Y55.27 E39.89598
G1 X77.425 Y54.703 E40.02818
G1 X77.889 Y54.32 E40.12537
G1 X77.918 Y54.296 E40.13145
G1 X78.555 Y53.847 E40.25735
G1 X78.865 Y53.661 E40.31576
G1 X79.101 Y53.526 E40.35968
G1 X79.704 Y53.232 E40.46806
G1 X80.241 Y53.011 E40.56187
G1 X81.004 Y52.762 E40.69153
G1 X81.513 Y52.637 E40.7762
G1 X81.688 Y52.597 E40.8052
G1 X82.375 Y52.489 E40.91755
G1 X82.76 Y52.454 E40.98
G1 X83.256 Y52.426 E41.06025
G1 X84.247 Y52.409 E41.22037
G1 X84.339 Y52.408 E41.23524
G1 X96.008 Y52.408 E43.12035
G1 X96.467 Y52.414 E43.19451
G1 X96.655 Y52.42 E43.2249
G1 X97.34 Y52.453 E43.33569
G1 X98.144 Y52.553 E43.46657
G1 X98.971 Y52.72 E43.60287
G1 X99.14 Y52.753 E43.63069
G1 X101.465 Y53.245 E44.01461
G1 X104.089 Y53.722 E44.44546
G1 X106.706 Y54.121 E44.87312
G1 X109.381 Y54.454 E45.3086
G1 X112.053 Y54.708 E45.7422
G1 X114.698 Y54.886 E46.17047
G1 X118.081 Y55.005 E46.71732
G1 X121.492 Y55.066 E47.26846
G1 X130.51 Y55.205 E48.72548
G1 X133.25 Y55.209 E49.16812
G1 X135.917 Y55.136 E49.59914
G1 X138.613 Y54.987 E50.03534
G1 X141.268 Y54.765 E50.46575
G1 X143.925 Y54.466 E50.89769
G1 X146.564 Y54.094 E51.32824
G1 X149.196 Y53.647 E51.75952
G1 X151.878 Y53.112 E52.20133
G1 X154.435 Y52.526 E52.62512
G1 X156.963 Y51.873 E53.04692
G1 X157.75 Y51.658 E53.17872
G1 X158.391 Y51.524 E53.28451
G1 X159.284 Y51.469 E53.42905
G1 X160.276 Y51.491 E53.58934
G1 X160.381 Y51.495 E53.60632
G1 X163.448 Y51.623 E54.10222
G1 X163.525 Y51.626 E54.11467
G1 X164.237 Y51.666 E54.22988
G1 X164.989 Y51.762 E54.35235
G1 X164.994 Y51.763 E54.35317
G1 X165.628 Y51.931 E54.45913
G1 X166.012 Y52.074 E54.52532
G1 X166.744 Y52.38 E54.65349
G1 X167.985 Y52.916 E54.87188
G1 X170.467 Y53.908 E55.30368
G1 X173.008 Y54.841 E55.74097
G1 X175.507 Y55.68 E56.16683
G1 X178.102 Y56.469 E56.605
G1 X180.652 Y57.166 E57.03206
G1 X184.431 Y58.063 E57.65952
G1 X184.437 Y58.064 E57.6605
G1 X185.485 Y58.29 E57.8337
G1 X185.975 Y58.388 E57.91442
G1 X186.112 Y58.418 E57.93708
G1 X186.873 Y58.591 E58.06315
G1 X187.093 Y58.642 E58.09964
G1 X187.844 Y58.827 E58.22459
G1 X188.256 Y58.938 E58.29352
G1 X189.147 Y59.169 E58.44222
G1 X189.271 Y59.203 E58.46299
G1 X190.064 Y59.429 E58.5962
G1 X190.169 Y59.46 E58.61389
G1 X191.126 Y59.754 E58.77562
G1 X191.227 Y59.786 E58.79274
G1 X192.127 Y60.082 E58.94579
G1 X193.103 Y60.426 E59.11297
G1 X193.229 Y60.472 E59.13464
G1 X194.1 Y60.804 E59.28522
G1 X194.222 Y60.853 E59.30646
G1 X195.505 Y61.383 E59.53072
G1 X196.23 Y61.707 E59.65901
G1 X196.334 Y61.755 E59.67751
G1 X196.901 Y62.023 E59.77882
G1 X197.002 Y62.072 E59.79696
G1 X197.716 Y62.428 E59.92585
G1 X198.024 Y62.588 E59.98192
G1 X198.76 Y62.985 E60.11701
G1 X198.86 Y63.04 E60.13545
G1 X199.278 Y63.277 E60.21308
G1 X199.611 Y63.472 E60.27542
G1 X199.683 Y63.514 E60.28888
G1 X200.296 Y63.886 E60.40472
G1 X200.43 Y63.97 E60.43027
G1 X201.154 Y64.439 E60.56963
G1 X201.465 Y64.648 E60.63016
G1 X201.584 Y64.73 E60.65351
G1 X202.279 Y65.222 E60.79107
G1 X202.625 Y65.475 E60.86032
G1 X202.812 Y65.618 E60.89835
G1 X203.78 Y66.383 E61.09766
G1 X203.901 Y66.481 E61.12282
G1 X204.44 Y66.933 E61.23646
G1 X204.572 Y67.048 E61.26474
G1 X205.129 Y67.547 E61.38555
G1 X205.235 Y67.645 E61.40887
G1 X206.021 Y68.393 E61.58416
G1 X206.555 Y68.935 E61.70708
G1 X207.437 Y69.88 E61.9159
G1 X207.693 Y70.166 E61.97791
G1 X208.02 Y70.546 E62.0589
G1 X208.088 Y70.627 E62.07599
G1 X208.676 Y71.338 E62.22504
G1 X208.745 Y71.422 E62.2426
G1 X209.014 Y71.761 E62.31251
G1 X209.369 Y72.224 E62.40676
G1 X209.428 Y72.303 E62.42269
G1 X209.895 Y72.938 E62.55003
G1 X210.36 Y73.601 E62.68086
G1 X210.621 Y73.985 E62.75586
G1 X210.79 Y74.238 E62.80502
G1 X211.18 Y74.84 E62.92089
G1 X211.554 Y75.439 E63.03497
G1 X211.595 Y75.505 E63.04753
G1 X212.032 Y76.235 E63.18497
G1 X212.366 Y76.816 E63.29324
G1 X212.418 Y76.909 E63.31045
G1 X212.891 Y77.771 E63.46929
G1 X212.945 Y77.871 E63.48765
G1 X213.383 Y78.711 E63.64069
G1 X213.741 Y79.429 E63.77031
G1 X214.042 Y80.051 E63.88194
G1 X214.081 Y80.133 E63.8966
G1 X214.627 Y81.323 E64.10812
G1 X215.751 Y83.757 E64.54123
G1 X216.945 Y86.16 E64.97471
G1 X218.205 Y88.525 E65.40762
G1 X219.525 Y90.843 E65.83855
G1 X220.912 Y93.126 E66.27009
G1 X222.379 Y95.392 E66.70618
G1 X223.795 Y97.457 E67.11068
G1 X224.132 Y98.019 E67.21654
G1 X224.398 Y98.618 E67.32242
G1 X224.619 Y99.374 E67.44966
G1 X224.837 Y100.395 E67.61832
G1 X224.859 Y100.503 E67.63613
G1 X225.422 Y103.435 E68.11844
G1 X225.564 Y104.232 E68.24923
G1 X225.647 Y105.173 E68.40183
G1 X225.576 Y106.049 E68.54381
G1 X225.361 Y107.352 E68.75716
G1 X225.352 Y107.461 E68.77483
G1 X225.16 Y108.605 E68.96222
G1 X224.789 Y111.296 E69.40107
G1 X224.498 Y113.948 E69.83207
G1 X224.284 Y116.579 E70.2585
G1 X224.142 Y119.304 E70.69932
G1 X224.077 Y121.938 E71.12497
G1 X224.088 Y124.636 E71.56084
G1 X224.175 Y127.311 E71.99321
G1 X224.334 Y129.953 E72.42079
G1 X224.381 Y130.627 E72.52994
G1 X224.425 Y131.314 E72.64115
G1 X224.427 Y131.341 E72.64553
G1 X224.597 Y134.231 E73.11321
G1 X224.599 Y134.277 E73.12065
G1 X224.732 Y136.924 E73.54881
G1 X224.735 Y136.976 E73.55722
G1 X224.827 Y139.253 E73.92537
G1 X224.828 Y139.299 E73.9328
G1 X224.913 Y141.966 E74.36387
G1 X224.915 Y142.02 E74.3726
G1 X224.979 Y144.958 E74.84735
G1 X224.98 Y145.013 E74.85623
G1 X225.011 Y147.719 E75.29341
G1 X225.011 Y147.765 E75.30085
G1 X225.018 Y150.141 E75.68469
G1 X225.018 Y150.178 E75.69066
G1 X225.007 Y152.955 E76.13929
G1 X225.006 Y153.01 E76.14818
G1 X224.968 Y155.71 E76.5844
G1 X224.967 Y155.763 E76.59297
G1 X224.902 Y158.47 E77.03041
G1 X224.901 Y158.526 E77.03945
G1 X224.805 Y161.317 E77.4906
G1 X224.685 Y164.089 E77.93884
G1 X224.682 Y164.143 E77.94757
G1 X224.537 Y166.863 E78.38761
G1 X224.535 Y166.909 E78.39505
G1 X224.389 Y169.265 E78.77639
G1 X224.312 Y170.357 E78.95324
G1 X224.16 Y173.011 E79.38269
G1 X224.082 Y175.71 E79.8189
G1 X224.08 Y178.377 E80.24975
G1 X224.154 Y181.041 E80.68028
G1 X224.305 Y183.743 E81.11747
G1 X224.528 Y186.394 E81.54725
G1 X224.826 Y189.039 E81.97725
G1 X225.206 Y191.723 E82.41517
G1 X225.419 Y193.027 E82.62862
G1 X225.567 Y193.89 E82.77007
G1 X225.639 Y194.527 E82.87363
G1 X225.633 Y195.182 E82.97945
G1 X225.565 Y195.736 E83.06962
G1 X225.414 Y196.598 E83.211
G1 X225.398 Y196.685 E83.22529
G1 X224.804 Y199.775 E83.73362
G1 X224.791 Y199.844 E83.74496
G1 X224.643 Y200.563 E83.86355
G1 X224.472 Y201.195 E83.96932
G1 X224.225 Y201.802 E84.07519
G1 X223.988 Y202.243 E84.15607
G1 X223.985 Y202.248 E84.15701
G1 X223.813 Y202.516 E84.20845
G1 X223.021 Y203.674 E84.4351
G1 X222.986 Y203.732 E84.44604
G1 X222.712 Y204.124 E84.5233
G1 X221.252 Y206.349 E84.95322
G1 X219.83 Y208.654 E85.39075
G1 X218.496 Y210.963 E85.82155
G1 X217.208 Y213.343 E86.25873
G1 X216.01 Y215.714 E86.68788
G1 X214.74 Y218.429 E87.1721
G1 X214.47 Y219.029 E87.27839
G1 X214.361 Y219.27 E87.32112
G1 X213.951 Y220.14 E87.47649
G1 X213.755 Y220.545 E87.54918
G1 X213.485 Y221.086 E87.64686
G1 X213.236 Y221.575 E87.73551
G1 X213.204 Y221.638 E87.74692
G1 X212.936 Y222.148 E87.84
G1 X212.688 Y222.607 E87.92428
G1 X212.441 Y223.05 E88.00622
G1 X212.377 Y223.165 E88.02748
G1 X211.907 Y223.977 E88.17905
G1 X211.615 Y224.464 E88.27078
G1 X211.234 Y225.075 E88.3871
G1 X211.178 Y225.163 E88.40395
G1 X210.706 Y225.888 E88.54371
G1 X210.612 Y226.028 E88.57095
G1 X209.872 Y227.09 E88.78006
G1 X209.782 Y227.215 E88.80494
G1 X209.346 Y227.804 E88.92333
G1 X209.088 Y228.143 E88.99215
G1 X209.025 Y228.224 E89.00873
G1 X208.643 Y228.705 E89.10796
G1 X208.516 Y228.861 E89.14045
G1 X208.171 Y229.276 E89.22764
G1 X208.103 Y229.357 E89.24472
G1 X207.596 Y229.943 E89.3699
G1 X207.298 Y230.275 E89.44198
G1 X207.231 Y230.348 E89.45798
G1 X206.699 Y230.917 E89.58382
G1 X206.605 Y231.015 E89.60576
G1 X206.135 Y231.493 E89.71406
G1 X206.027 Y231.6 E89.73862
G1 X205.361 Y232.24 E89.88784
G1 X205.217 Y232.373 E89.9195
G1 X204.562 Y232.958 E90.06138
G1 X204.249 Y233.228 E90.12815
G1 X203.802 Y233.601 E90.22221
G1 X203.461 Y233.876 E90.29298
G1 X203.123 Y234.142 E90.36246
G1 X203.049 Y234.199 E90.37755
G1 X202.52 Y234.599 E90.48469
G1 X202.42 Y234.673 E90.50479
G1 X201.905 Y235.044 E90.60733
G1 X201.817 Y235.106 E90.62472
G1 X201.368 Y235.416 E90.71286
G1 X201.137 Y235.571 E90.7578
G1 X200.603 Y235.919 E90.86077
G1 X200.205 Y236.17 E90.93678
G1 X199.483 Y236.603 E91.07279
G1 X199.387 Y236.659 E91.09075
G1 X198.881 Y236.948 E91.18488
G1 X198.494 Y237.162 E91.25632
G1 X197.978 Y237.436 E91.35071
G1 X197.883 Y237.485 E91.36797
G1 X197.167 Y237.846 E91.49751
G1 X197.003 Y237.926 E91.52699
G1 X195.983 Y238.404 E91.70897
G1 X195.846 Y238.465 E91.7332
G1 X195.193 Y238.749 E91.84823
G1 X195.089 Y238.793 E91.86648
G1 X194.177 Y239.167 E92.02572
G1 X193.873 Y239.286 E92.07846
G1 X193.245 Y239.521 E92.18678
G1 X192.999 Y239.612 E92.22915
G1 X192.329 Y239.849 E92.34396
G1 X191.51 Y240.123 E92.48348
G1 X191.197 Y240.224 E92.53661
G1 X190.963 Y240.298 E92.57626
G1 X190.02 Y240.583 E92.7354
G1 X189.924 Y240.611 E92.75156
G1 X189.027 Y240.864 E92.90212
G1 X188.857 Y240.911 E92.93062
G1 X188.225 Y241.077 E93.03618
G1 X187.98 Y241.139 E93.07701
G1 X187.047 Y241.367 E93.23217
G1 X186.967 Y241.386 E93.24545
G1 X185.758 Y241.661 E93.44575
G1 X185.048 Y241.81 E93.56295
G1 X182.437 Y242.393 E93.99514
G1 X179.807 Y243.058 E94.43339
G1 X177.27 Y243.777 E94.85938
G1 X174.699 Y244.585 E95.29475
