;FLAVOR:Marlin
;TIME:2977
;Filament used: 5.5051m
;Layer height: 0.3
;MINX:20.931
;MINY:8.391
;MINZ:0.3
;MAXX:179.069
;MAXY:191.609
;MAXZ:4.8
;Generated with Cura_SteamEngine mb-master-20200525
M82 ;absolute extrusion mode
;
; Crashspace Printer Farm MP10 Mini (C. Nicks Start Code + John Gwinner Probe Code)
;______________________________________________
;Sliced at: Sun 07-06-2020 13:41:54
;Layer Height: 0.3
;Line Width: 0.4
;Flow: 108
;Z-Hop: False
;______________________________________________
;
M140 S60 ; set bed temp
M104 S165.0 T0 ; set extruder park temp to warm but not ooze during bed probing ;Adjusted temp by 5
M190 S60 ; wait for bed temp
G28 ; home all axis
;G29 P1; probes mesh
;G29 P3; fill in mesh that can't be reached is good
;G29 S0 ; save mesh
;G29 F 10.0 ;prints linear above this height
;G29 A ; use UBL
M104 S245.0 T0 ; set extruder temp ;Adjusted temp by 5
G92 E0;(Reset the extruder to 0)
G0 X0 Y0 Z2 F1500; (set into park)
M109 S245.0 T0 ; wait for extruder temp ;Adjusted temp by 5
G92 E0
G1 E7 F300; (Unretract from last ending code, plus add some for ooze)
;PRIME
G0 X0 Y0 Z0.2 F1500; (Knock off ooze)
G0 X2 Y0 Z0.4 F1500; (Knock off ooze)
G0 X3 Y0 Z1.0 F1500; (Knock off ooze)
G0 X5 Y0 Z0.3 F1000; (Lower into prime)
G91
G1 X5 Y+20 F1000 E5  ;PRIME
G1 X+0.4 ;PRIME
G1 Y-20 F1000 E5  ;PRIME
G90
; Mini nozzle can't hang over edge to catch ooze
;G0 X0 F1500; (Knock off ooze)
;G0 X0 Z0.2 F1500; (Knock off ooze)
;G0 X2 Z0.4 F1500; (Knock off ooze)
;G0 X3 Z1.0 F1500; (Knock off ooze)
G92 E0
;AND GO!!!!
G92 E0
G92 E0
G1 F2400 E-5
;LAYER_COUNT:16
;LAYER:0
M107
;MESH:Visor_Frame_NORTH_AMERICA_letter_6-hole_v5.stl
G0 F7200 X49.598 Y179.925 Z0.3
;TYPE:WALL-OUTER
G1 F2400 E0
G1 F1200 X48.839 Y179.564 E0.04619
G1 X48.121 Y179.128 E0.09236
G1 X47.458 Y178.624 E0.13813
G1 X46.841 Y178.045 E0.18463
G1 X46.295 Y177.416 E0.23041
G1 X45.81 Y176.724 E0.27685
G1 X45.404 Y175.994 E0.32276
G1 X45.072 Y175.221 E0.36899
G1 X44.822 Y174.419 E0.41516
G1 X44.656 Y173.596 E0.46131
G1 X44.576 Y172.761 E0.50741
G1 X44.583 Y171.918 E0.55374
G1 X44.619 Y170.749 E0.61802
G1 X44.554 Y169.737 E0.67375
G1 X44.396 Y168.734 E0.72955
G1 X44.194 Y167.933 E0.77495
G1 X43.87 Y166.973 E0.83064
G1 X43.457 Y166.047 E0.88636
G1 X42.96 Y165.163 E0.9421
G1 X42.382 Y164.329 E0.99787
G1 X41.729 Y163.553 E1.0536
G1 X41.006 Y162.843 E1.1093
G1 X40.219 Y162.201 E1.16511
G1 X39.377 Y161.637 E1.22081
G1 X38.484 Y161.153 E1.27664
G1 X37.552 Y160.755 E1.33233
G1 X36.585 Y160.447 E1.38811
G1 X35.595 Y160.23 E1.44381
G1 X33.758 Y160 E1.54556
G1 X32.927 Y159.805 E1.59247
G1 X32.13 Y159.528 E1.63884
G1 X31.364 Y159.168 E1.68536
G1 X30.652 Y158.739 E1.73104
G1 X29.963 Y158.219 E1.77848
G1 X29.36 Y157.658 E1.82375
G1 X28.793 Y157.009 E1.87111
G1 X28.307 Y156.317 E1.91759
G1 X27.902 Y155.594 E1.96313
G1 X27.567 Y154.813 E2.00984
G1 X27.315 Y154.008 E2.0562
G1 X27.146 Y153.171 E2.10312
G1 X26.916 Y151.379 E2.20242
G1 X26.73 Y149.729 E2.29368
G1 X26.545 Y147.919 E2.39367
G1 X21.993 Y147.85 E2.64387
G1 X21.793 Y147.848 E2.65486
G0 F7200 X21.796 Y147.648
G1 F1200 X21.888 Y141.994 E2.96564
G1 X23.139 Y142.014 E3.03441
G1 X25.887 Y142.066 E3.18546
G1 X26.1 Y142.069 E3.19717
G0 F7200 X26.091 Y141.857
G1 F1200 X25.942 Y138.563 E3.37839
G1 X25.874 Y135.94 E3.52259
G1 X25.863 Y135.255 E3.56025
G1 X25.852 Y132.632 E3.70441
G1 X25.857 Y131.948 E3.742
G1 X25.901 Y129.324 E3.88623
G1 X25.922 Y128.639 E3.9239
G1 X26.021 Y126.017 E4.0681
G1 X26.21 Y122.723 E4.24943
G1 X26.221 Y122.516 E4.26083
G0 F7200 X26.013 Y122.513
G1 F1200 X21.993 Y122.453 E4.48179
G1 X21.793 Y122.451 E4.49278
G0 F7200 X21.796 Y122.251
G1 F1200 X21.885 Y116.798 E4.79251
G1 X21.888 Y116.598 E4.8035
G0 F7200 X22.088 Y116.601
G1 F1200 X22.956 Y116.617 E4.85122
G1 X23.158 Y116.62 E4.86232
G0 F7200 X23.152 Y116.822
G1 F1200 X23.135 Y117.392 E4.89366
G1 X23.13 Y117.594 E4.90476
G0 F7200 X23.332 Y117.597
G1 F1200 X26.64 Y117.651 E5.08659
G1 X27.1 Y113.678 E5.3064
G1 X27.632 Y109.897 E5.51625
G1 X28.258 Y106.131 E5.72607
G1 X28.977 Y102.379 E5.93603
G1 X29.788 Y98.648 E6.14587
G1 X30.692 Y94.938 E6.35573
G1 X31.688 Y91.252 E6.56557
G1 X32.776 Y87.587 E6.77569
G1 X33.951 Y83.958 E6.98533
G1 X35.217 Y80.356 E7.19516
G1 X36.571 Y76.786 E7.405
G1 X38.015 Y73.25 E7.61492
G1 X39.545 Y69.752 E7.82475
G1 X41.162 Y66.292 E8.03465
G1 X42.864 Y62.874 E8.2445
G1 X44.648 Y59.498 E8.45435
G1 X46.518 Y56.168 E8.66425
G1 X48.472 Y52.882 E8.87436
G1 X50.499 Y49.652 E9.08394
G1 X52.611 Y46.471 E9.29379
G1 X54.8 Y43.342 E9.50366
G1 X57.066 Y40.269 E9.7135
G1 X59.408 Y37.252 E9.92341
G1 X61.826 Y34.291 E10.13351
G1 X64.314 Y31.393 E10.34343
G1 X66.869 Y28.563 E10.55297
G1 X69.498 Y25.793 E10.76286
G1 X72.201 Y23.082 E10.97326
G1 X72.743 Y22.482 E11.01769
G1 X73.216 Y21.818 E11.0625
G1 X73.538 Y21.229 E11.09939
G1 X73.856 Y20.481 E11.14406
G1 X74.082 Y19.698 E11.18885
G1 X74.215 Y18.895 E11.23358
G1 X74.25 Y18.08 E11.27842
G1 X74.19 Y17.267 E11.32322
G1 X74.032 Y16.468 E11.36798
G1 X73.781 Y15.693 E11.41275
G1 X73.439 Y14.952 E11.45761
G1 X73.011 Y14.258 E11.50242
G1 X72.504 Y13.62 E11.54721
G1 X71.925 Y13.046 E11.59201
G1 X71.281 Y12.545 E11.63686
G1 X70.584 Y12.124 E11.68161
G1 X69.841 Y11.79 E11.72638
G1 X69.064 Y11.545 E11.77116
G1 X68.261 Y11.395 E11.81605
G1 X67.447 Y11.342 E11.86088
G1 X66.635 Y11.384 E11.90557
G1 X65.832 Y11.523 E11.95036
G1 X65.051 Y11.758 E11.99518
G1 X64.433 Y12.025 E12.03218
G1 X63.723 Y12.42 E12.07683
G1 X63.063 Y12.899 E12.12165
G1 X62.465 Y13.451 E12.16638
G1 X61.936 Y14.072 E12.21121
G1 X61.486 Y14.75 E12.25594
G1 X61.118 Y15.476 E12.30067
G1 X60.84 Y16.243 E12.34551
G1 X60.655 Y17.037 E12.39031
G1 X60.565 Y17.847 E12.4351
G1 X60.573 Y18.663 E12.47995
G1 X60.677 Y19.471 E12.52473
G1 X60.877 Y20.261 E12.56951
G1 X61.17 Y21.022 E12.61433
G1 X61.55 Y21.744 E12.65917
G1 X62.014 Y22.415 E12.70401
G1 X62.541 Y23.01 E12.74769
G1 X62.68 Y23.178 E12.75967
G1 X62.781 Y23.353 E12.77078
G1 X62.849 Y23.541 E12.78177
G1 X62.883 Y23.738 E12.79275
G1 X62.882 Y23.94 E12.80385
G1 X62.848 Y24.135 E12.81473
G1 X62.779 Y24.324 E12.82579
G1 X62.678 Y24.498 E12.83685
G1 X62.549 Y24.651 E12.84785
G1 X62.396 Y24.78 E12.85884
G1 X62.22 Y24.88 E12.86997
G1 X62.033 Y24.948 E12.88091
G1 X61.837 Y24.982 E12.89184
G1 X61.636 Y24.982 E12.90289
G1 X61.44 Y24.947 E12.91383
G1 X61.251 Y24.878 E12.92489
G1 X61.077 Y24.777 E12.93594
G1 X60.919 Y24.644 E12.94729
G1 X60.299 Y23.957 E12.99815
G1 X59.754 Y23.211 E13.04893
G1 X59.281 Y22.4 E13.10053
G1 X58.897 Y21.559 E13.15134
G1 X58.598 Y20.67 E13.20288
G1 X58.392 Y19.769 E13.25368
G1 X58.279 Y18.838 E13.30522
G1 X58.26 Y17.904 E13.35657
G1 X58.334 Y16.994 E13.40674
G1 X58.507 Y16.064 E13.45873
G1 X58.768 Y15.175 E13.50965
G1 X59.118 Y14.318 E13.56053
G1 X59.562 Y13.483 E13.6125
G1 X60.071 Y12.722 E13.66282
G1 X60.67 Y12 E13.71438
G1 X61.334 Y11.347 E13.76556
G1 X62.061 Y10.766 E13.81671
G1 X62.84 Y10.264 E13.86764
G1 X63.667 Y9.844 E13.91862
G1 X64.541 Y9.506 E13.97012
G1 X65.439 Y9.26 E14.02129
G1 X65.612 Y9.219 E14.03106
G1 X66.528 Y9.083 E14.08196
G1 X67.287 Y9.048 E14.12372
G1 X67.638 Y9.051 E14.14301
G1 X68.4 Y9.094 E14.18495
G1 X69.31 Y9.24 E14.2356
G1 X70.21 Y9.48 E14.2868
G1 X71.079 Y9.81 E14.33788
G1 X71.918 Y10.23 E14.38945
G1 X72.7 Y10.728 E14.4404
G1 X73.43 Y11.303 E14.49147
G1 X74.099 Y11.953 E14.54274
G1 X74.705 Y12.672 E14.59442
G1 X75.218 Y13.429 E14.64467
G1 X75.662 Y14.25 E14.69597
G1 X76.021 Y15.114 E14.74739
G1 X76.291 Y16.013 E14.79898
G1 X76.465 Y16.917 E14.84957
G1 X76.546 Y17.837 E14.90033
G1 X76.533 Y18.773 E14.95178
G1 X76.425 Y19.706 E15.0034
G1 X76.227 Y20.604 E15.05394
G1 X75.933 Y21.492 E15.10535
G1 X75.553 Y22.344 E15.15662
G1 X75 Y23.295 E15.21708
G1 X74.441 Y24.04 E15.26827
G1 X73.928 Y24.597 E15.30988
G1 X71.124 Y27.419 E15.52852
G1 X68.513 Y30.173 E15.73709
G1 X65.972 Y32.991 E15.94563
G1 X63.501 Y35.873 E16.15427
G1 X61.103 Y38.815 E16.36287
G1 X58.78 Y41.816 E16.57144
G1 X56.532 Y44.874 E16.78003
G1 X54.362 Y47.987 E16.98858
G1 X52.269 Y51.153 E17.19717
G1 X50.256 Y54.371 E17.40578
G1 X48.326 Y57.638 E17.61432
G1 X46.476 Y60.953 E17.82296
G1 X44.711 Y64.312 E18.0315
G1 X43.03 Y67.716 E18.24015
G1 X41.434 Y71.159 E18.44871
G1 X39.924 Y74.642 E18.65735
G1 X38.504 Y78.16 E18.86585
G1 X37.17 Y81.714 E19.07448
G1 X35.926 Y85.299 E19.28304
G1 X34.772 Y88.916 E19.4917
G1 X33.709 Y92.558 E19.70021
G1 X32.738 Y96.228 E19.90885
G1 X31.858 Y99.919 E20.11739
G1 X31.071 Y103.632 E20.32598
G1 X30.377 Y107.364 E20.53461
G1 X29.775 Y111.111 E20.74318
G1 X29.268 Y114.872 E20.95175
G1 X28.856 Y118.645 E21.16034
G1 X28.537 Y122.428 E21.36899
G1 X28.314 Y126.216 E21.57754
G1 X28.185 Y130.009 E21.78612
G1 X28.151 Y133.804 E21.9947
G1 X28.212 Y137.6 E22.20335
G1 X28.367 Y141.392 E22.41193
G1 X28.618 Y145.178 E22.62046
G1 X28.962 Y148.958 E22.82906
G1 X29.402 Y152.733 E23.03794
G1 X29.542 Y153.452 E23.07819
G1 X29.731 Y154.03 E23.11162
G1 X30.032 Y154.701 E23.15203
G1 X30.416 Y155.332 E23.19263
G1 X30.875 Y155.91 E23.23319
G1 X31.405 Y156.423 E23.27373
G1 X31.995 Y156.867 E23.31431
G1 X32.637 Y157.233 E23.35493
G1 X33.319 Y157.515 E23.39549
G1 X34.031 Y157.709 E23.43605
G1 X34.753 Y157.809 E23.47611
G1 X35.847 Y157.939 E23.53665
G1 X36.91 Y158.154 E23.59626
G1 X37.957 Y158.459 E23.65619
G1 X38.972 Y158.846 E23.71589
G1 X39.947 Y159.315 E23.77535
G1 X40.889 Y159.869 E23.83542
G1 X41.786 Y160.5 E23.89569
G1 X42.608 Y161.187 E23.95457
G1 X43.389 Y161.958 E24.01488
G1 X44.098 Y162.785 E24.07475
G1 X44.737 Y163.666 E24.13456
G1 X45.294 Y164.589 E24.19381
G1 X45.784 Y165.578 E24.25447
G1 X46.186 Y166.59 E24.31432
G1 X46.5 Y167.63 E24.37402
G1 X46.73 Y168.694 E24.43385
G1 X46.868 Y169.759 E24.49287
G1 X46.92 Y170.852 E24.55301
G1 X46.888 Y171.733 E24.60146
G1 X46.869 Y172.637 E24.65115
G1 X46.94 Y173.331 E24.68949
G1 X47.098 Y174.025 E24.72861
G1 X47.352 Y174.73 E24.7698
G1 X47.68 Y175.372 E24.80942
G1 X48.083 Y175.967 E24.84891
G1 X48.572 Y176.525 E24.88969
G1 X49.128 Y177.014 E24.93038
G1 X49.739 Y177.431 E24.97104
G1 X50.175 Y177.644 E24.99771
G1 X50.438 Y177.673 E25.01225
G1 X50.648 Y177.546 E25.02574
G1 X50.722 Y177.36 E25.03674
G1 X50.694 Y177.108 E25.05067
G1 X50.263 Y176.128 E25.10951
G1 X49.695 Y174.88 E25.18487
G1 X49.544 Y174.462 E25.2093
G1 X49.464 Y173.941 E25.23827
G1 X49.464 Y173.54 E25.26031
G1 X50.14 Y164.805 E25.74181
G1 X50.195 Y164.465 E25.76074
G1 X50.3 Y164.141 E25.77946
G1 X50.453 Y163.842 E25.79792
G1 X50.656 Y163.563 E25.81688
G1 X50.896 Y163.325 E25.83545
G1 X51.171 Y163.126 E25.85411
G1 X51.465 Y162.977 E25.87222
G1 X51.796 Y162.872 E25.89131
G1 X52.13 Y162.819 E25.9099
G1 X52.469 Y162.822 E25.92853
G1 X52.645 Y162.851 E25.93833
G1 X52.818 Y162.909 E25.94836
G1 X55.477 Y164.506 E26.11883
G1 X58.019 Y165.935 E26.27909
G1 X60.608 Y167.28 E26.43944
G1 X63.239 Y168.538 E26.59971
G1 X65.91 Y169.709 E26.76
G1 X68.618 Y170.79 E26.92025
G1 X71.362 Y171.781 E27.08059
G1 X74.135 Y172.682 E27.24083
G1 X76.938 Y173.489 E27.40114
G1 X79.765 Y174.205 E27.56142
G1 X82.615 Y174.826 E27.72172
G1 X85.483 Y175.353 E27.88199
G1 X88.368 Y175.785 E28.04231
G1 X91.264 Y176.122 E28.20255
G1 X94.171 Y176.363 E28.36286
G1 X97.084 Y176.507 E28.52315
G1 X100 Y176.555 E28.68343
G1 X102.916 Y176.507 E28.84371
G1 X105.829 Y176.363 E29.00401
G1 X108.736 Y176.122 E29.16432
G1 X111.632 Y175.785 E29.32456
G1 X114.517 Y175.353 E29.48488
G1 X117.385 Y174.826 E29.64514
G1 X120.235 Y174.205 E29.80545
G1 X123.062 Y173.489 E29.96573
G1 X125.865 Y172.682 E30.12603
G1 X128.638 Y171.781 E30.28628
G1 X131.382 Y170.79 E30.44662
G1 X134.09 Y169.709 E30.60687
G1 X136.761 Y168.538 E30.76715
G1 X139.392 Y167.28 E30.92743
G1 X141.981 Y165.935 E31.08777
G1 X144.523 Y164.506 E31.24804
G1 X147.014 Y162.996 E31.40813
G1 X147.177 Y162.91 E31.41826
G1 X147.355 Y162.851 E31.42857
G1 X147.53 Y162.822 E31.43831
G1 X147.87 Y162.82 E31.457
G1 X148.204 Y162.871 E31.47557
G1 X148.535 Y162.977 E31.49467
G1 X148.829 Y163.126 E31.51279
G1 X149.104 Y163.325 E31.53144
G1 X149.344 Y163.563 E31.55002
G1 X149.547 Y163.842 E31.56898
G1 X149.698 Y164.138 E31.58724
G1 X149.819 Y164.551 E31.6109
G1 X149.86 Y164.805 E31.62504
G1 X150.536 Y173.541 E32.10659
G1 X150.538 Y173.978 E32.13061
G1 X150.472 Y174.39 E32.15354
G1 X150.371 Y174.72 E32.17251
G1 X150.128 Y175.217 E32.20291
G1 X149.149 Y177.016 E32.31548
G1 X149.029 Y177.314 E32.33313
G1 X149.03 Y177.542 E32.34566
G1 X149.03 Y177.554 E32.34632
G1 X149.149 Y177.713 E32.35724
G1 X149.326 Y177.788 E32.3678
G1 X149.337 Y177.787 E32.36841
G1 X149.582 Y177.757 E32.38198
G1 X149.998 Y177.576 E32.40691
G1 X150.654 Y177.175 E32.44917
G1 X151.253 Y176.691 E32.49149
G1 X151.634 Y176.293 E32.52177
G1 X151.839 Y176.063 E32.5387
G1 X152.192 Y175.578 E32.57167
G1 X152.529 Y174.979 E32.60944
G1 X152.607 Y174.824 E32.61898
G1 X152.834 Y174.241 E32.65336
G1 X153.029 Y173.502 E32.69537
G1 X153.123 Y172.761 E32.73642
G1 X153.122 Y172.046 E32.77572
G1 X153.08 Y170.852 E32.84138
G1 X153.132 Y169.76 E32.90146
G1 X153.272 Y168.679 E32.96137
G1 X153.499 Y167.631 E33.0203
G1 X153.814 Y166.59 E33.08007
G1 X154.222 Y165.564 E33.14076
G1 X154.706 Y164.589 E33.20058
G1 X155.263 Y163.666 E33.25983
G1 X155.902 Y162.785 E33.31964
G1 X156.617 Y161.951 E33.38002
G1 X157.385 Y161.193 E33.43932
G1 X158.221 Y160.494 E33.49921
G1 X159.104 Y159.872 E33.55857
G1 X160.047 Y159.318 E33.61868
G1 X161.022 Y158.849 E33.67814
G1 X162.041 Y158.459 E33.73811
G1 X163.09 Y158.155 E33.79813
G1 X164.15 Y157.94 E33.85758
G1 X165.031 Y157.835 E33.90634
G1 X165.97 Y157.71 E33.9584
G1 X166.555 Y157.551 E33.99172
G1 X167.242 Y157.287 E34.03217
G1 X167.892 Y156.937 E34.07274
G1 X168.494 Y156.508 E34.11337
G1 X169.034 Y156.007 E34.15385
G1 X169.508 Y155.441 E34.19442
G1 X169.908 Y154.82 E34.23502
G1 X170.226 Y154.153 E34.27563
G1 X170.457 Y153.452 E34.31619
G1 X170.597 Y152.732 E34.35651
G1 X171.038 Y148.958 E34.56533
G1 X171.382 Y145.178 E34.77394
G1 X171.633 Y141.392 E34.98247
G1 X171.788 Y137.6 E35.19105
G1 X171.849 Y133.804 E35.3997
G1 X171.815 Y130.009 E35.60828
G1 X171.686 Y126.216 E35.81686
G1 X171.463 Y122.428 E36.0254
G1 X171.144 Y118.645 E36.23405
G1 X170.732 Y114.872 E36.44264
G1 X170.225 Y111.111 E36.65121
G1 X169.623 Y107.364 E36.85979
G1 X168.929 Y103.632 E37.06841
G1 X168.142 Y99.919 E37.27701
G1 X167.262 Y96.228 E37.48555
G1 X166.291 Y92.558 E37.69419
G1 X165.228 Y88.916 E37.9027
G1 X164.074 Y85.299 E38.11136
G1 X162.83 Y81.714 E38.31991
G1 X161.496 Y78.16 E38.52854
G1 X160.076 Y74.642 E38.73704
G1 X158.566 Y71.159 E38.94568
G1 X156.97 Y67.716 E39.15425
G1 X155.289 Y64.312 E39.3629
G1 X153.524 Y60.953 E39.57144
G1 X151.674 Y57.638 E39.78008
G1 X149.744 Y54.371 E39.98862
G1 X147.731 Y51.153 E40.19723
G1 X145.638 Y47.987 E40.40581
G1 X143.468 Y44.874 E40.61437
G1 X141.22 Y41.816 E40.82296
G1 X138.897 Y38.815 E41.03153
G1 X136.499 Y35.873 E41.24013
G1 X134.028 Y32.991 E41.44877
G1 X131.487 Y30.173 E41.6573
G1 X128.875 Y27.419 E41.86591
G1 X126.198 Y24.733 E42.07433
G1 X125.562 Y24.046 E42.12578
G1 X125.003 Y23.3 E42.17701
G1 X124.526 Y22.509 E42.22778
G1 X124.129 Y21.665 E42.27904
G1 X123.817 Y20.776 E42.33082
G1 X123.602 Y19.882 E42.38135
G1 X123.478 Y18.96 E42.43248
G1 X123.446 Y18.031 E42.48357
G1 X123.511 Y17.089 E42.53546
G1 X123.667 Y16.186 E42.58583
G1 X123.922 Y15.276 E42.63777
G1 X124.258 Y14.424 E42.6881
G1 X124.688 Y13.591 E42.73962
G1 X125.194 Y12.814 E42.79058
G1 X125.784 Y12.084 E42.84217
G1 X126.434 Y11.428 E42.89292
G1 X127.155 Y10.837 E42.94416
G1 X127.936 Y10.32 E42.99563
G1 X128.75 Y9.893 E43.04615
G1 X129.626 Y9.54 E43.09806
G1 X130.507 Y9.287 E43.14843
G1 X131.439 Y9.119 E43.20048
G1 X131.604 Y9.095 E43.20964
G1 X132.362 Y9.05 E43.25138
G1 X132.711 Y9.049 E43.27056
G1 X133.469 Y9.082 E43.31226
G1 X134.389 Y9.218 E43.36337
G1 X135.289 Y9.446 E43.41439
G1 X136.168 Y9.767 E43.46582
G1 X137.004 Y10.172 E43.51688
G1 X137.789 Y10.658 E43.56762
G1 X138.541 Y11.235 E43.61971
G1 X139.206 Y11.864 E43.67002
G1 X139.814 Y12.569 E43.72118
G1 X140.351 Y13.337 E43.77269
G1 X140.799 Y14.142 E43.82332
G1 X141.17 Y15.004 E43.87489
G1 X141.45 Y15.894 E43.92617
G1 X141.637 Y16.803 E43.97717
