;FLAVOR:Marlin
;TIME:4364
;Filament used: 7.68625m
;Layer height: 0.28
;MINX:60.251
;MINY:84.951
;MINZ:0.32
;MAXX:119.749
;MAXY:95.034
;MAXZ:69.76

;POSTPROCESSED
;EOFFSETPROCESSED
;Generated with Cura_SteamEngine mb-master-20200510
M82 ;absolute extrusion mode
;
; Crashspace Printer Farm MP10 (C. Nicks Start Code + John Gwinner Probe Code)
;______________________________________________
;Sliced at: Wed 13-05-2020 22:04:23
;Layer Height: 0.28
;Line Width: 0.5
;Flow: 102
;Z-Hop: False
;______________________________________________
;
M140 S55 ; set bed temp
M104 S160.0 T0 ; set extruder park temp to warm but not ooze during bed probing
M190 S55 ; wait for bed temp
; Try to grab the ooze off the nozzle here before probing around
G28 ; home all axis
;G29 P1; probes mesh
;G29 P3; fill in mesh that can't be reached is good
;G29 S0 ; save mesh
;G29 F 10.0 ;prints linear above this height
;G29 A ; use UBL
M104 S260 T0 ; set extruder temp
G92 E0;(Reset the extruder to 0)
G0 X0 Y30 Z2 F1500; (set into park)
M109 S240 T0 ; wait for extruder temp
G92 E0
G1 E7 F300; (Unretract from last ending code, plus add some for ooze)
;PRIME
G0 X0 Y30 Z0.2 F1500; (Knock off ooze)
G0 X2 Y30 Z0.4 F1500; (Knock off ooze)
G0 X3 Y30 Z1.0 F1500; (Knock off ooze)
G0 X5 Y30 Z0.32 F1000; (Lower into prime)
G91
G1 X5 Y+20 F1000 E5  ;PRIME
G1 X+0.5 ;PRIME
G1 Y-20 F1000 E5  ;PRIME
G90
G92 E0
G0 X0 Y20 F1500; (Knock off ooze)
G0 X0 Y20 Z0.2 F1500; (Knock off ooze)
G0 X2 Y20 Z0.4 F1500; (Knock off ooze)
G0 X3 Y20 Z1.0 F1500; (Knock off ooze)
G92 E0
;AND GO!!!!
G92 E0
G92 E0
G1 F2400 E-5
;LAYER_COUNT:249

;LAYER:0
M107
;MESH:TempTower_MP10_260-200.stl
;Post-processing: Vary Temp with Height by Fernando Chorney
M104 S260
G0 F7200 X67.472 Y86.431 Z0.32
;TYPE:WALL-OUTER
G1 F2400 E0.0
G1 F1200 X114.994 Y86.431 E3.2244
G1 X115.454 Y86.463 E3.25569
G1 X115.748 Y86.51 E3.27589
G1 X116.576 Y86.789 E3.33517
G1 X116.83 Y86.919 E3.35453
G1 X117.222 Y87.185 E3.38667
G1 X117.46 Y87.377 E3.40742
G1 X117.72 Y87.638 E3.43242
G1 X118.011 Y88.009 E3.46441
G1 X118.182 Y88.27 E3.48558
G1 X118.35 Y88.605 E3.51101
G1 X118.511 Y89.046 E3.54287
G1 X118.587 Y89.329 E3.56275
G1 X118.654 Y89.798 E3.59489
G1 X118.67 Y90.108 E3.61595
G1 X118.638 Y90.558 E3.64656
G1 X118.591 Y90.857 E3.6671
G1 X118.461 Y91.309 E3.69901
G1 X118.313 Y91.67 E3.72548
G1 X118.184 Y91.926 E3.74494
G1 X117.918 Y92.322 E3.7773
G1 X117.669 Y92.616 E3.80344
G1 X117.464 Y92.822 E3.82316
G1 X117.092 Y93.113 E3.85521
G1 X116.83 Y93.284 E3.87644
G1 X116.497 Y93.452 E3.90174
G1 X116.058 Y93.613 E3.93347
G1 X115.776 Y93.688 E3.95327
G1 X115.304 Y93.755 E3.98562
G1 X114.974 Y93.772 E4.00804
G1 X112 Y93.771 E4.20982
G1 X67.472 Y93.771 E7.23108
G1 X67.472 Y86.431 E7.7291
G0 F7200 X67.672 Y86.431
G0 X68.022 Y86.981
G0 X67.972 Y86.931
;TYPE:WALL-INNER
G1 F1200 X114.973 Y86.931 E10.91815
G1 X115.396 Y86.96 E10.94692
G1 X115.628 Y86.997 E10.96286
G1 X116.383 Y87.252 E11.01693
G1 X116.572 Y87.349 E11.03135
G1 X116.928 Y87.59 E11.06051
G1 X117.125 Y87.749 E11.07769
G1 X117.345 Y87.97 E11.09885
G1 X117.605 Y88.302 E11.12746
G1 X117.747 Y88.518 E11.145
G1 X117.89 Y88.802 E11.16658
G1 X118.033 Y89.196 E11.19501
G1 X118.096 Y89.431 E11.21152
G1 X118.156 Y89.851 E11.24031
G1 X118.169 Y90.099 E11.25716
G1 X118.14 Y90.503 E11.28464
G1 X118.102 Y90.746 E11.30133
G1 X117.988 Y91.144 E11.32942
G1 X117.857 Y91.463 E11.35282
G1 X117.75 Y91.676 E11.36899
G1 X117.519 Y92.019 E11.39705
G1 X117.298 Y92.28 E11.42026
G1 X117.133 Y92.446 E11.43614
G1 X116.801 Y92.706 E11.46475
G1 X116.576 Y92.853 E11.48298
G1 X116.298 Y92.993 E11.5041
G1 X115.911 Y93.135 E11.53207
G1 X115.676 Y93.197 E11.54856
G1 X115.253 Y93.257 E11.57755
G1 X114.967 Y93.272 E11.59698
G1 X112 Y93.271 E11.7983
G1 X67.972 Y93.271 E14.78563
G1 X67.972 Y86.931 E15.2158
G0 F7200 X68.472 Y87.431
G1 F1200 X114.954 Y87.431 E18.36963
G1 X115.338 Y87.457 E18.39575
G1 X115.508 Y87.484 E18.40743
G1 X116.189 Y87.715 E18.45622
G1 X116.318 Y87.781 E18.46605
G1 X116.629 Y87.991 E18.49151
G1 X116.79 Y88.121 E18.50555
G1 X116.969 Y88.301 E18.52278
G1 X117.197 Y88.592 E18.54786
G1 X117.313 Y88.768 E18.56216
G1 X117.431 Y89.003 E18.58001
G1 X117.556 Y89.349 E18.60497
G1 X117.605 Y89.53 E18.61769
G1 X117.658 Y89.904 E18.64332
G1 X117.668 Y90.089 E18.65589
G1 X117.642 Y90.45 E18.68045
G1 X117.613 Y90.635 E18.69315
G1 X117.515 Y90.979 E18.71742
G1 X117.399 Y91.261 E18.73811
G1 X117.318 Y91.423 E18.7504
G1 X117.121 Y91.715 E18.7743
G1 X116.926 Y91.945 E18.79476
G1 X116.801 Y92.071 E18.8068
G1 X116.509 Y92.299 E18.83194
G1 X116.329 Y92.417 E18.84654
G1 X116.092 Y92.537 E18.86457
G1 X115.762 Y92.657 E18.88839
G1 X115.579 Y92.706 E18.90125
G1 X115.202 Y92.759 E18.92708
G1 X114.96 Y92.772 E18.94352
G1 X112 Y92.771 E19.14436
G1 X68.472 Y92.771 E22.09776
G1 X68.472 Y87.431 E22.46009
G0 F7200 X68.962 Y87.921
;TYPE:SKIN
G1 F1200 X114.951 Y87.921 E25.51929
G1 X115.272 Y87.943 E25.54069
G1 X115.391 Y87.962 E25.54871
G1 X115.995 Y88.166 E25.59112
G1 X116.07 Y88.205 E25.59674
G1 X116.329 Y88.379 E25.61749
G1 X116.47 Y88.493 E25.62956
G1 X116.597 Y88.621 E25.64155
G1 X116.793 Y88.87 E25.66263
G1 X116.895 Y89.026 E25.67503
G1 X116.977 Y89.189 E25.68717
G1 X117.09 Y89.503 E25.70936
G1 X117.122 Y89.62 E25.71743
G1 X117.17 Y89.954 E25.73988
G1 X117.177 Y90.096 E25.74934
G1 X117.157 Y90.381 E25.76834
G1 X117.134 Y90.532 E25.7785
G1 X117.052 Y90.818 E25.79829
G1 X116.956 Y91.052 E25.81512
G1 X116.892 Y91.177 E25.82446
G1 X116.732 Y91.416 E25.84359
G1 X116.564 Y91.614 E25.86086
G1 X116.475 Y91.704 E25.86928
G1 X116.221 Y91.902 E25.89071
G1 X116.086 Y91.991 E25.90146
G1 X115.898 Y92.086 E25.91548
G1 X115.607 Y92.192 E25.93608
G1 X115.493 Y92.222 E25.94392
G1 X115.152 Y92.271 E25.96684
G1 X114.934 Y92.282 E25.98135
G1 X112 Y92.281 E26.17653
G1 X68.962 Y92.281 E29.03942
G1 X68.962 Y87.921 E29.32945
G1 F2400 E24.32945
G0 F7200 X68.962 Y87.191
G0 X69.443 Y92.07
G1 F2400 E29.33067 ;Adjusted e by 0.00122mm
G1 F1200 X69.172 Y91.799 E29.35617
G0 F7200 X69.172 Y91.092
G1 F1200 X70.15 Y92.07 E29.44817
G0 F7200 X70.857 Y92.07
G1 F1200 X69.172 Y90.385 E29.60669
G0 F7200 X69.172 Y89.678
G1 F1200 X71.564 Y92.07 E29.83171
G0 F7200 X72.271 Y92.07
G1 F1200 X69.172 Y88.971 E30.12325
G0 F7200 X69.172 Y88.263
G1 F1200 X72.979 Y92.07 E30.48138
G0 F7200 X73.686 Y92.07
G1 F1200 X69.746 Y88.13 E30.85204
G0 F7200 X70.453 Y88.13
G1 F1200 X74.393 Y92.07 E31.22269
G0 F7200 X75.1 Y92.07
G1 F1200 X71.16 Y88.13 E31.59334
G0 F7200 X71.867 Y88.13
G1 F1200 X75.807 Y92.07 E31.96399
G0 F7200 X76.514 Y92.07
G1 F1200 X72.574 Y88.13 E32.33464
G0 F7200 X73.281 Y88.13
G1 F1200 X77.221 Y92.07 E32.70529
G0 F7200 X77.928 Y92.07
G1 F1200 X73.988 Y88.13 E33.07594
G0 F7200 X74.695 Y88.13
G1 F1200 X78.635 Y92.07 E33.44659
G0 F7200 X79.343 Y92.07
G1 F1200 X75.403 Y88.13 E33.81724
G0 F7200 X76.11 Y88.13
G1 F1200 X80.05 Y92.07 E34.1879
G0 F7200 X80.757 Y92.07
G1 F1200 X76.817 Y88.13 E34.55855
G0 F7200 X77.524 Y88.13
G1 F1200 X81.464 Y92.07 E34.9292
G0 F7200 X82.171 Y92.07
G1 F1200 X78.231 Y88.13 E35.29985
G0 F7200 X78.938 Y88.13
G1 F1200 X82.878 Y92.07 E35.6705
G0 F7200 X83.585 Y92.07
G1 F1200 X79.645 Y88.13 E36.04115
G0 F7200 X80.352 Y88.13
G1 F1200 X84.292 Y92.07 E36.4118
G0 F7200 X84.999 Y92.07
G1 F1200 X81.059 Y88.13 E36.78245
G0 F7200 X81.766 Y88.13
G1 F1200 X85.706 Y92.07 E37.1531
G0 F7200 X86.414 Y92.07
G1 F1200 X82.474 Y88.13 E37.52375
G0 F7200 X83.181 Y88.13
G1 F1200 X87.121 Y92.07 E37.89441
G0 F7200 X87.828 Y92.07
G1 F1200 X83.888 Y88.13 E38.26506
G0 F7200 X84.595 Y88.13
G1 F1200 X88.535 Y92.07 E38.63571
G0 F7200 X89.242 Y92.07
G1 F1200 X85.302 Y88.13 E39.00636
G0 F7200 X86.009 Y88.13
G1 F1200 X89.949 Y92.07 E39.37701
G0 F7200 X90.656 Y92.07
G1 F1200 X86.716 Y88.13 E39.74766
G0 F7200 X87.423 Y88.13
G1 F1200 X91.363 Y92.07 E40.11831
G0 F7200 X92.07 Y92.07
G1 F1200 X88.13 Y88.13 E40.48896
G0 F7200 X88.838 Y88.13
G1 F1200 X92.778 Y92.07 E40.85961
G0 F7200 X93.485 Y92.07
G1 F1200 X89.545 Y88.13 E41.23026
G0 F7200 X90.252 Y88.13
G1 F1200 X94.192 Y92.07 E41.60092
G0 F7200 X94.899 Y92.07
G1 F1200 X90.959 Y88.13 E41.97157
G0 F7200 X91.666 Y88.13
G1 F1200 X95.606 Y92.07 E42.34222
G0 F7200 X96.313 Y92.07
G1 F1200 X92.373 Y88.13 E42.71287
G0 F7200 X93.08 Y88.13
G1 F1200 X97.02 Y92.07 E43.08352
G0 F7200 X97.727 Y92.07
G1 F1200 X93.787 Y88.13 E43.45417
G0 F7200 X94.494 Y88.13
G1 F1200 X98.434 Y92.07 E43.82482
G0 F7200 X99.142 Y92.07
G1 F1200 X95.202 Y88.13 E44.19547
G0 F7200 X95.909 Y88.13
G1 F1200 X99.849 Y92.07 E44.56612
G0 F7200 X100.556 Y92.07
G1 F1200 X96.616 Y88.13 E44.93678
G0 F7200 X97.323 Y88.13
G1 F1200 X101.263 Y92.07 E45.30743
G0 F7200 X101.97 Y92.07
G1 F1200 X98.03 Y88.13 E45.67808
G0 F7200 X98.737 Y88.13
G1 F1200 X102.677 Y92.07 E46.04873
G0 F7200 X103.384 Y92.07
G1 F1200 X99.444 Y88.13 E46.41938
G0 F7200 X100.151 Y88.13
G1 F1200 X104.091 Y92.07 E46.79003
G0 F7200 X104.798 Y92.07
G1 F1200 X100.858 Y88.13 E47.16068
G0 F7200 X101.565 Y88.13
G1 F1200 X105.505 Y92.07 E47.53133
G0 F7200 X106.213 Y92.07
G1 F1200 X102.273 Y88.13 E47.90198
G0 F7200 X102.98 Y88.13
G1 F1200 X106.92 Y92.07 E48.27263
G0 F7200 X107.627 Y92.07
G1 F1200 X103.687 Y88.13 E48.64329
G0 F7200 X104.394 Y88.13
G1 F1200 X108.334 Y92.07 E49.01394
G0 F7200 X109.041 Y92.07
G1 F1200 X105.101 Y88.13 E49.38459
G0 F7200 X105.808 Y88.13
G1 F1200 X109.748 Y92.07 E49.75524
G0 F7200 X110.455 Y92.07
G1 F1200 X106.515 Y88.13 E50.12589
G0 F7200 X107.222 Y88.13
G1 F1200 X111.162 Y92.07 E50.49654
G0 F7200 X111.869 Y92.07
G1 F1200 X107.929 Y88.13 E50.86719
G0 F7200 X108.637 Y88.13
G1 F1200 X112.577 Y92.07 E51.23784
G0 F7200 X113.284 Y92.07
G1 F1200 X109.344 Y88.13 E51.60849
G0 F7200 X110.051 Y88.13
G1 F1200 X113.991 Y92.07 E51.97915
G0 F7200 X114.698 Y92.07
G1 F1200 X110.758 Y88.13 E52.3498
G0 F7200 X111.465 Y88.13
G1 F1200 X115.362 Y92.027 E52.7164
G0 F7200 X115.894 Y91.852
G1 F1200 X112.172 Y88.13 E53.06654
G0 F7200 X112.879 Y88.13
G1 F1200 X116.311 Y91.563 E53.38945
G0 F7200 X116.636 Y91.18
G1 F1200 X113.586 Y88.13 E53.67638
G0 F7200 X114.293 Y88.13
G1 F1200 X116.867 Y90.704 E53.91852
G0 F7200 X116.966 Y90.096
G1 F1200 X115.005 Y88.135 E54.103
G0 F7200 X115.969 Y88.391
G1 F1200 X116.717 Y89.14 E54.17342
G1 X116.858 Y89.281
M104 S260
G0 F7200 X117.68 Y88.983
G1 F2400 E49.17342
;MESH:NONMESH
G0 F600 X117.68 Y88.983 Z0.6
G0 F7200 X67.248 Y85.891
;TIME_ELAPSED:46.204800

;LAYER:1
M140 S45
M106 S204
;TYPE:WALL-OUTER
;MESH:TempTower_MP10_260-200.stl
M106 S255
G1 F2400 E54.1897 ;Adjusted e by 0.01628mm
G1 F1200 X67.498 Y85.891 E54.20454
;TYPE:WALL-OUTER
;BRIDGE
G1 F1080 X114.987 Y85.891 E56.41583
;TYPE:WALL-OUTER
M106 S204
G1 F1200 X115.444 Y85.916 E56.443
G1 X115.877 Y85.983 E56.46901
G1 X116.298 Y86.097 E56.49491
G1 X116.919 Y86.359 E56.53492
G1 X117.278 Y86.566 E56.55953
G1 X117.655 Y86.843 E56.5873
G1 X117.969 Y87.123 E56.61228
G1 X118.263 Y87.449 E56.63834
G1 X118.529 Y87.817 E56.6653
G1 X118.744 Y88.188 E56.69075
G1 X118.921 Y88.583 E56.71645
G1 X119.063 Y89.023 E56.7439
G1 X119.12 Y89.228 E56.75653
G1 X119.186 Y89.657 E56.7823
G1 X119.21 Y90.101 E56.8087
G1 X119.186 Y90.546 E56.83516
G1 X119.119 Y90.978 E56.86111
G1 X119.004 Y91.398 E56.88697
G1 X118.846 Y91.813 E56.91333
G1 X118.644 Y92.211 E56.93983
G1 X118.404 Y92.578 E56.96586
G1 X118.133 Y92.916 E56.99158
G1 X117.818 Y93.23 E57.01799
G1 X117.47 Y93.51 E57.04451
G1 X117.107 Y93.748 E57.07028
G1 X116.708 Y93.95 E57.09683
G1 X116.305 Y94.104 E57.12244
G1 X115.877 Y94.22 E57.14877
G1 X115.444 Y94.287 E57.17478
G1 X114.987 Y94.312 E57.20195
;TYPE:WALL-OUTER
;BRIDGE
M106 S255
G1 F1080 X67.248 Y94.311 E59.42488
;TYPE:WALL-OUTER
M106 S204
G1 F1200 X67.249 Y93.922 E59.44797
G1 F2194.6 X67.249 Y93.771 E59.45694
M106 S255
G1 X67.248 Y86.141 E59.90993
G0 F9000 X67.248 Y85.891
G0 X67.448 Y85.891
G0 X67.799 Y86.442
G0 X67.748 Y86.64
;TYPE:WALL-INNER
G1 F2400 X67.748 Y86.391 E59.92471
G0 F9000 X67.997 Y86.391
;TYPE:WALL-INNER
;BRIDGE
G1 F1080 X114.978 Y86.391 E62.11234
;TYPE:WALL-INNER
M106 S204
G1 F2400 X115.391 Y86.414 E62.1369
G1 X115.767 Y86.472 E62.15949
G1 X116.137 Y86.572 E62.18224
G1 X116.697 Y86.808 E62.21832
G1 X117.004 Y86.985 E62.23936
G1 X117.34 Y87.232 E62.26412
G1 X117.617 Y87.479 E62.28615
G1 X117.874 Y87.764 E62.30893
G1 X118.106 Y88.084 E62.3324
G1 X118.302 Y88.424 E62.3557
G1 X118.451 Y88.756 E62.3773
G1 X118.581 Y89.157 E62.40233
G1 X118.631 Y89.337 E62.41342
G1 X118.688 Y89.709 E62.43577
G1 X118.71 Y90.101 E62.45908
G1 X118.688 Y90.492 E62.48233
G1 X118.629 Y90.875 E62.50533
G1 X118.528 Y91.242 E62.52793
G1 X118.389 Y91.608 E62.55117
G1 X118.21 Y91.962 E62.57473
G1 X118 Y92.282 E62.59745
G1 X117.759 Y92.582 E62.62029
G1 X117.485 Y92.856 E62.6433
G1 X117.173 Y93.107 E62.66707
G1 X116.858 Y93.314 E62.68945
G1 X116.503 Y93.493 E62.71306
G1 X116.156 Y93.626 E62.73512
G1 X115.767 Y93.731 E62.75904
G1 X115.391 Y93.789 E62.78163
G1 X114.978 Y93.812 E62.80618
;TYPE:WALL-INNER
;BRIDGE
M106 S255
G1 F1080 X67.749 Y93.811 E65.00536
;TYPE:WALL-INNER
M106 S204
G1 F2400 X67.749 Y93.771 E65.00774
G1 X67.748 Y86.64 E65.4311
G0 F9000 X68.248 Y86.891
G1 F2400 X68.497 Y86.891 E65.44588
G1 X114.968 Y86.891 E68.20484
G1 X115.339 Y86.912 E68.2269
G1 X115.66 Y86.961 E68.24618
G1 X115.974 Y87.046 E68.26549
G1 X116.475 Y87.257 E68.29776
G1 X116.73 Y87.404 E68.31524
G1 X117.025 Y87.621 E68.33698
G1 X117.265 Y87.835 E68.35607
G1 X117.485 Y88.079 E68.37558
G1 X117.685 Y88.355 E68.39581
G1 X117.856 Y88.652 E68.41616
G1 X117.983 Y88.933 E68.43447
G1 X118.099 Y89.291 E68.45681
G1 X118.142 Y89.446 E68.46636
G1 X118.19 Y89.761 E68.48527
G1 X118.209 Y90.101 E68.50549
G1 X118.19 Y90.44 E68.52565
G1 X118.14 Y90.769 E68.54541
G1 X118.052 Y91.089 E68.56511
G1 X117.932 Y91.404 E68.58512
G1 X117.776 Y91.713 E68.60567
G1 X117.597 Y91.985 E68.625
G1 X117.389 Y92.244 E68.64473
G1 X117.146 Y92.487 E68.66513
G1 X116.881 Y92.7 E68.68531
G1 X116.601 Y92.884 E68.7052
G1 X116.306 Y93.033 E68.72483
G1 X116.001 Y93.15 E68.74422
G1 X115.66 Y93.242 E68.76519
G1 X115.339 Y93.291 E68.78447
G1 X114.968 Y93.312 E68.80653
G1 X68.249 Y93.311 E71.5802
G1 X68.248 Y87.14 E71.94657
G0 F9000 X68.248 Y86.891
G0 X68.738 Y87.381
;TYPE:SKIN
G1 F2100 X114.94 Y87.381 E74.63577
G1 X115.301 Y87.402 E74.65682
G1 X115.556 Y87.44 E74.67182
G1 X115.819 Y87.512 E74.6877
G1 X116.245 Y87.691 E74.71459
G1 X116.469 Y87.821 E74.72967
G1 X116.715 Y88.001 E74.74741
G1 X116.92 Y88.184 E74.7634
G1 X117.105 Y88.39 E74.77952
G1 X117.269 Y88.614 E74.79568
G1 X117.421 Y88.879 E74.81346
G1 X117.526 Y89.112 E74.82833
G1 X117.627 Y89.422 E74.84731
G1 X117.662 Y89.55 E74.85504
G1 X117.7 Y89.796 E74.86952
G1 X117.717 Y90.101 E74.8873
G1 X117.7 Y90.402 E74.90485
G1 X117.661 Y90.662 E74.92015
G1 X117.586 Y90.936 E74.93669
G1 X117.48 Y91.211 E74.95384
G1 X117.351 Y91.468 E74.97058
G1 X117.204 Y91.692 E74.98618
G1 X117.027 Y91.912 E75.00261
G1 X116.814 Y92.125 E75.02014
G1 X116.596 Y92.3 E75.03641
G1 X116.35 Y92.462 E75.05356
G1 X116.108 Y92.585 E75.06936
G1 X115.852 Y92.683 E75.08532
G1 X115.556 Y92.763 E75.10316
G1 X115.301 Y92.801 E75.11817
G1 X114.94 Y92.822 E75.13922
G1 X68.739 Y92.821 E77.82836
G1 X68.738 Y87.381 E78.14499
G0 F9000 X68.948 Y88.029
G1 F2100 X69.387 Y87.59 E78.18113
G0 F9000 X70.094 Y87.59
G1 F2100 X68.948 Y88.736 E78.27546
G0 F9000 X68.948 Y89.443
G1 F2100 X70.801 Y87.59 E78.42799
G0 F9000 X71.509 Y87.59
G1 F2100 X68.949 Y90.149 E78.63867
G0 F9000 X68.949 Y90.856
G1 F2100 X72.216 Y87.59 E78.90756
G0 F9000 X72.923 Y87.59
G1 F2100 X68.949 Y91.563 E79.23463
G0 F9000 X68.949 Y92.271
G1 F2100 X73.63 Y87.59 E79.61995
G0 F9000 X74.337 Y87.59
G1 F2100 X69.316 Y92.611 E80.03325
G0 F9000 X70.023 Y92.611
G1 F2100 X75.044 Y87.59 E80.44655
G0 F9000 X75.751 Y87.59
G1 F2100 X70.73 Y92.611 E80.85985
G0 F9000 X71.437 Y92.611
G1 F2100 X76.458 Y87.59 E81.27315
G0 F9000 X77.165 Y87.59
G1 F2100 X72.144 Y92.611 E81.68646
G0 F9000 X72.851 Y92.611
G1 F2100 X77.872 Y87.59 E82.09976
G0 F9000 X78.58 Y87.59
G1 F2100 X73.558 Y92.611 E82.5131
G0 F9000 X74.266 Y92.611
G1 F2100 X79.287 Y87.59 E82.9264
G0 F9000 X79.994 Y87.59
G1 F2100 X74.973 Y92.611 E83.3397
G0 F9000 X75.68 Y92.611
G1 F2100 X80.701 Y87.59 E83.75301
