;FLAVOR:Marlin
;TIME:5851
;Filament used: 10.4464m
;Layer height: 0.3
;MINX:38.941
;MINY:40.401
;MINZ:0.3
;MAXX:261.059
;MAXY:259.599
;MAXZ:4.8
;EOFFSETPROCESSED
;Generated with Cura_SteamEngine mb-master-20200525
M82 ;absolute extrusion mode
;
; Crashspace Printer Farm MP10 (C. Nicks Start Code + John Gwinner Probe Code)
;______________________________________________
;Sliced at: Sun 07-06-2020 01:40:22
;Layer Height: 0.3
;Line Width: 0.42
;Flow: 103
;Z-Hop: False
;______________________________________________
;
M140 S55 ; set bed temp
M104 S165.0 T0 ; set extruder park temp to warm but not ooze during bed probing ;Adjusted temp by 5
M190 S55 ; wait for bed temp
; Try to grab the ooze off the nozzle here before probing around
G28 ; home all axis
;G29 P1; probes mesh
;G29 P3; fill in mesh that can't be reached is good
;G29 S0 ; save mesh
;G29 F 10.0 ;prints linear above this height
;G29 A ; use UBL
M104 S245.0 T0 ; set extruder temp ;Adjusted temp by 5
G92 E0;(Reset the extruder to 0)
G0 X0 Y30 Z2 F1500; (set into park)
M109 S245.0 T0 ; wait for extruder temp ;Adjusted temp by 5
G92 E0
G1 E7 F300; (Unretract from last ending code, plus add some for ooze)
;PRIME
G0 X0 Y30 Z0.2 F1500; (Knock off ooze)
G0 X2 Y30 Z0.4 F1500; (Knock off ooze)
G0 X3 Y30 Z1.0 F1500; (Knock off ooze)
G0 X5 Y30 Z0.3 F1000; (Lower into prime)
G91
G1 X5 Y+20 F1000 E5  ;PRIME
G1 X+0.42 ;PRIME
G1 Y-20 F1000 E5  ;PRIME
G90
G92 E0
G0 X0 Y20 F1500; (Knock off ooze)
G0 X0 Y20 Z0.2 F1500; (Knock off ooze)
G0 X2 Y20 Z0.4 F1500; (Knock off ooze)
G0 X3 Y20 Z1.0 F1500; (Knock off ooze)
G92 E0
;AND GO!!!!
G92 E0
G92 E0
G1 F2400 E-5
;LAYER_COUNT:16
;LAYER:0
M107
;MESH:Visor_Frame_NORTH_AMERICA_letter_6-hole_v5.stl(2)
G0 F7200 X78.678 Y80.006 Z0.3
;TYPE:WALL-OUTER
G1 F2400 E0.0
G1 F1200 X79.34 Y79.355 E0.0501
G1 X80.061 Y78.78 E0.09986
G1 X80.853 Y78.269 E0.15071
G1 X81.671 Y77.853 E0.20023
G1 X82.541 Y77.516 E0.25057
G1 X83.607 Y77.229 E0.31013
G1 X84.529 Y77.093 E0.36042
G1 X85.288 Y77.058 E0.40142
G1 X85.637 Y77.061 E0.42025
G1 X86.399 Y77.104 E0.46143
G1 X87.307 Y77.25 E0.51105
G1 X88.21 Y77.491 E0.56148
G1 X89.075 Y77.819 E0.61139
G1 X89.912 Y78.238 E0.6619
G1 X90.694 Y78.736 E0.71192
G1 X91.425 Y79.311 E0.7621
G1 X92.092 Y79.959 E0.81228
G1 X92.689 Y80.67 E0.86237
G1 X93.212 Y81.439 E0.91255
G1 X93.655 Y82.258 E0.96279
G1 X94.013 Y83.121 E1.0132
G1 X94.279 Y84.005 E1.06301
G1 X94.455 Y84.92 E1.11329
G1 X94.536 Y85.842 E1.16323
G1 X94.523 Y86.772 E1.21341
G1 X94.416 Y87.7 E1.26381
G1 X94.216 Y88.608 E1.31398
G1 X93.928 Y89.478 E1.36343
G1 X93.544 Y90.339 E1.41429
G1 X93.079 Y91.146 E1.46455
G1 X92.986 Y91.297 E1.47412
G1 X92.426 Y92.043 E1.52445
G1 X91.921 Y92.59 E1.56462
G1 X89.117 Y95.412 E1.77926
G1 X86.506 Y98.166 E1.98403
G1 X83.964 Y100.984 E2.1888
G1 X81.493 Y103.866 E2.39363
G1 X79.096 Y106.808 E2.59839
G1 X76.772 Y109.81 E2.80323
G1 X74.524 Y112.868 E3.00801
G1 X72.353 Y115.981 E3.21279
G1 X70.26 Y119.148 E3.41762
G1 X68.248 Y122.366 E3.62239
G1 X66.317 Y125.633 E3.82716
G1 X64.467 Y128.948 E4.03199
G1 X62.702 Y132.308 E4.23677
G1 X61.021 Y135.711 E4.44157
G1 X59.425 Y139.155 E4.64637
G1 X57.915 Y142.638 E4.85121
G1 X56.494 Y146.157 E5.05597
G1 X55.16 Y149.711 E5.2608
G1 X53.917 Y153.296 E5.46553
G1 X52.762 Y156.913 E5.6704
G1 X51.7 Y160.556 E5.87514
G1 X50.728 Y164.226 E6.07999
G1 X49.848 Y167.917 E6.28472
G1 X49.061 Y171.63 E6.48951
G1 X48.367 Y175.362 E6.69433
G1 X47.766 Y179.109 E6.89909
G1 X47.259 Y182.871 E7.10391
G1 X46.846 Y186.644 E7.3087
G1 X46.528 Y190.427 E7.51353
G1 X46.304 Y194.215 E7.71828
G1 X46.175 Y198.008 E7.92305
G1 X46.141 Y201.804 E8.12788
G1 X46.202 Y205.6 E8.33272
G1 X46.357 Y209.392 E8.5375
G1 X46.608 Y213.178 E8.74222
G1 X46.952 Y216.959 E8.94707
G1 X47.392 Y220.734 E9.15214
G1 X47.532 Y221.454 E9.19171
G1 X47.722 Y222.033 E9.22459
G1 X48.023 Y222.706 E9.26437
G1 X48.407 Y223.337 E9.30423
G1 X48.868 Y223.916 E9.34416
G1 X49.398 Y224.431 E9.38404
G1 X49.989 Y224.876 E9.42395
G1 X50.633 Y225.242 E9.46392
G1 X51.316 Y225.524 E9.50379
G1 X52.03 Y225.719 E9.54373
G1 X52.751 Y225.819 E9.583
G1 X53.845 Y225.949 E9.64244
G1 X54.908 Y226.164 E9.70096
G1 X55.946 Y226.465 E9.75927
G1 X56.968 Y226.855 E9.8183
G1 X57.947 Y227.326 E9.87691
G1 X58.877 Y227.872 E9.9351
G1 X59.774 Y228.504 E9.99431
G1 X60.609 Y229.201 E10.05299
G1 X61.382 Y229.965 E10.11164
G1 X62.089 Y230.789 E10.17022
G1 X62.722 Y231.663 E10.22845
G1 X63.29 Y232.604 E10.28775
G1 X63.775 Y233.582 E10.34665
G1 X64.173 Y234.585 E10.40488
G1 X64.487 Y235.618 E10.46313
G1 X64.718 Y236.68 E10.52177
G1 X64.858 Y237.759 E10.58048
G1 X64.91 Y238.852 E10.63952
G1 X64.878 Y239.733 E10.68709
G1 X64.859 Y240.638 E10.73593
G1 X64.93 Y241.333 E10.77362
G1 X65.088 Y242.028 E10.81208
G1 X65.343 Y242.734 E10.85258
G1 X65.671 Y243.377 E10.89153
G1 X66.076 Y243.973 E10.93041
G1 X66.565 Y244.532 E10.97048
G1 X67.122 Y245.022 E11.01051
G1 X67.734 Y245.44 E11.0505
G1 X68.173 Y245.654 E11.07685
G1 X68.441 Y245.684 E11.0914
G1 X68.651 Y245.557 E11.10464
G1 X68.733 Y245.363 E11.11601
G1 X68.704 Y245.106 E11.12996
G1 X68.272 Y244.124 E11.18785
G1 X67.707 Y242.882 E11.26147
G1 X67.554 Y242.458 E11.28579
G1 X67.474 Y241.939 E11.31412
G1 X67.474 Y241.54 E11.33565
G1 X68.15 Y232.808 E11.80821
G1 X68.205 Y232.469 E11.82674
G1 X68.31 Y232.144 E11.84517
G1 X68.465 Y231.842 E11.86348
G1 X68.661 Y231.572 E11.88148
G1 X68.902 Y231.333 E11.8998
G1 X69.175 Y231.135 E11.91799
G1 X69.473 Y230.984 E11.93602
G1 X69.801 Y230.88 E11.95458
G1 X70.125 Y230.829 E11.97228
G1 X70.468 Y230.832 E11.99079
G1 X70.646 Y230.861 E12.00052
G1 X70.811 Y230.916 E12.0099
G1 X73.472 Y232.515 E12.17741
G1 X76.014 Y233.944 E12.33475
G1 X78.603 Y235.289 E12.49217
G1 X81.235 Y236.547 E12.64957
G1 X83.907 Y237.718 E12.80698
G1 X86.614 Y238.799 E12.96426
G1 X89.359 Y239.791 E13.12174
G1 X92.132 Y240.692 E13.27906
G1 X94.935 Y241.499 E13.43644
G1 X97.763 Y242.214 E13.59383
G1 X100.613 Y242.836 E13.75123
G1 X103.481 Y243.363 E13.90857
G1 X106.366 Y243.795 E14.06596
G1 X109.263 Y244.132 E14.22333
G1 X112.17 Y244.373 E14.38072
G1 X115.084 Y244.517 E14.53814
G1 X118 Y244.565 E14.6955
G1 X120.916 Y244.517 E14.85285
G1 X123.83 Y244.373 E15.01028
G1 X126.737 Y244.132 E15.16766
G1 X129.634 Y243.795 E15.32503
G1 X132.519 Y243.363 E15.48243
G1 X135.387 Y242.836 E15.63977
G1 X138.237 Y242.214 E15.79716
G1 X141.065 Y241.499 E15.95455
G1 X143.868 Y240.692 E16.11193
G1 X146.641 Y239.791 E16.26925
G1 X149.386 Y238.799 E16.42674
G1 X152.093 Y237.718 E16.58401
G1 X154.765 Y236.547 E16.74142
G1 X157.397 Y235.289 E16.89882
G1 X159.986 Y233.944 E17.05624
G1 X162.528 Y232.514 E17.21361
G1 X165.019 Y231.005 E17.37075
G1 X165.186 Y230.917 E17.38094
G1 X165.354 Y230.861 E17.39049
G1 X165.531 Y230.832 E17.40017
G1 X165.868 Y230.83 E17.41836
G1 X166.206 Y230.882 E17.43681
G1 X166.527 Y230.984 E17.45498
G1 X166.825 Y231.135 E17.47301
G1 X167.098 Y231.333 E17.4912
G1 X167.339 Y231.572 E17.50952
G1 X167.535 Y231.842 E17.52752
G1 X167.688 Y232.141 E17.54564
G1 X167.809 Y232.556 E17.56896
G1 X167.85 Y232.808 E17.58274
G1 X168.526 Y241.541 E18.05535
G1 X168.528 Y241.977 E18.07887
G1 X168.463 Y242.384 E18.10111
G1 X168.36 Y242.72 E18.12008
G1 X168.115 Y243.221 E18.15017
G1 X167.142 Y245.008 E18.25995
G1 X167.041 Y245.231 E18.27316
G1 X167.006 Y245.477 E18.28657
G1 X167.079 Y245.653 E18.29685
G1 X167.224 Y245.767 E18.3068
G1 X167.425 Y245.802 E18.31781
G1 X167.729 Y245.714 E18.33489
G1 X168.251 Y245.438 E18.36675
G1 X168.661 Y245.182 E18.39283
G1 X169.259 Y244.699 E18.4343
G1 X169.641 Y244.299 E18.46414
G1 X169.847 Y244.069 E18.4808
G1 X170.2 Y243.584 E18.51317
G1 X170.537 Y242.984 E18.5503
G1 X170.616 Y242.828 E18.55974
G1 X170.844 Y242.244 E18.59356
G1 X171.039 Y241.504 E18.63485
G1 X171.133 Y240.761 E18.67526
G1 X171.132 Y240.046 E18.71384
G1 X171.09 Y238.852 E18.77831
G1 X171.142 Y237.761 E18.83724
G1 X171.282 Y236.681 E18.896
G1 X171.509 Y235.634 E18.9538
G1 X171.826 Y234.585 E19.01293
G1 X172.231 Y233.568 E19.072
G1 X172.715 Y232.594 E19.13068
G1 X173.274 Y231.669 E19.189
G1 X173.911 Y230.789 E19.24761
G1 X174.618 Y229.965 E19.30619
G1 X175.392 Y229.201 E19.36487
G1 X176.234 Y228.497 E19.42409
G1 X177.119 Y227.875 E19.48246
G1 X178.059 Y227.323 E19.54128
G1 X179.037 Y226.853 E19.59982
G1 X180.044 Y226.469 E19.65797
G1 X181.096 Y226.164 E19.71707
G1 X182.152 Y225.95 E19.77521
G1 X183.032 Y225.845 E19.82303
G1 X183.971 Y225.72 E19.87414
G1 X184.558 Y225.561 E19.90695
G1 X185.246 Y225.296 E19.94673
G1 X185.897 Y224.946 E19.98661
G1 X186.5 Y224.516 E20.02657
G1 X187.042 Y224.014 E20.06643
G1 X187.516 Y223.447 E20.10631
G1 X187.917 Y222.824 E20.14629
G1 X188.235 Y222.156 E20.1862
G1 X188.467 Y221.454 E20.2261
G1 X188.607 Y220.733 E20.26572
G1 X189.048 Y216.959 E20.47074
G1 X189.392 Y213.178 E20.67559
G1 X189.643 Y209.392 E20.88032
G1 X189.798 Y205.6 E21.08509
G1 X189.859 Y201.804 E21.28994
G1 X189.825 Y198.008 E21.49476
G1 X189.696 Y194.215 E21.69954
G1 X189.471 Y190.427 E21.90428
G1 X189.154 Y186.644 E22.10912
G1 X188.741 Y182.871 E22.31391
G1 X188.234 Y179.109 E22.51873
G1 X187.633 Y175.362 E22.72349
G1 X186.939 Y171.63 E22.9283
G1 X186.152 Y167.917 E23.13309
G1 X185.272 Y164.226 E23.33783
G1 X184.3 Y160.556 E23.54267
G1 X183.238 Y156.913 E23.74742
G1 X182.083 Y153.296 E23.95229
G1 X180.84 Y149.711 E24.15702
G1 X179.506 Y146.157 E24.36184
G1 X178.085 Y142.638 E24.56661
G1 X176.575 Y139.155 E24.77144
G1 X174.979 Y135.711 E24.97625
G1 X173.298 Y132.308 E25.18104
G1 X171.533 Y128.948 E25.38583
G1 X169.683 Y125.633 E25.59066
G1 X167.752 Y122.366 E25.79542
G1 X165.74 Y119.148 E26.0002
G1 X163.647 Y115.981 E26.20502
G1 X161.476 Y112.868 E26.4098
G1 X159.228 Y109.81 E26.61459
G1 X156.904 Y106.808 E26.81943
G1 X154.507 Y103.866 E27.02418
G1 X152.036 Y100.984 E27.22902
G1 X149.494 Y98.166 E27.43379
G1 X146.883 Y95.412 E27.63855
G1 X144.205 Y92.726 E27.8432
G1 X143.571 Y92.04 E27.8936
G1 X143.013 Y91.297 E27.94374
G1 X142.53 Y90.495 E27.99425
G1 X142.138 Y89.661 E28.04398
G1 X141.829 Y88.781 E28.0943
G1 X141.612 Y87.879 E28.14436
G1 X141.488 Y86.959 E28.19445
G1 X141.456 Y86.031 E28.24455
G1 X141.52 Y85.097 E28.29506
G1 X141.679 Y84.181 E28.34522
G1 X141.929 Y83.287 E28.39531
G1 X142.267 Y82.428 E28.44512
G1 X142.696 Y81.597 E28.49558
G1 X143.206 Y80.815 E28.54595
G1 X143.786 Y80.096 E28.59579
G1 X144.44 Y79.436 E28.64593
G1 X145.165 Y78.843 E28.69647
G1 X145.934 Y78.332 E28.74628
G1 X146.761 Y77.898 E28.79668
G1 X147.62 Y77.552 E28.84664
G1 X148.514 Y77.296 E28.89682
G1 X149.434 Y77.13 E28.94726
G1 X149.607 Y77.104 E28.9567
G1 X150.362 Y77.06 E28.99751
G1 X150.711 Y77.059 E29.01634
G1 X151.466 Y77.091 E29.05711
G1 X152.384 Y77.227 E29.10718
G1 X153.295 Y77.458 E29.15789
G1 X154.157 Y77.773 E29.20741
G1 X154.999 Y78.181 E29.25789
G1 X155.792 Y78.672 E29.30822
G1 X156.522 Y79.233 E29.35789
G1 X157.203 Y79.876 E29.40843
G1 X157.81 Y80.579 E29.45854
G1 X158.338 Y81.335 E29.5083
G1 X158.794 Y82.155 E29.55892
G1 X159.162 Y83.011 E29.6092
G1 X159.439 Y83.89 E29.65892
G1 X159.627 Y84.806 E29.70938
G1 X159.721 Y85.73 E29.75949
G1 X159.72 Y86.659 E29.80962
G1 X159.626 Y87.58 E29.85957
G1 X159.434 Y88.501 E29.91033
G1 X159.156 Y89.377 E29.95992
G1 X158.786 Y90.234 E30.01029
G1 X158.246 Y91.19 E30.06953
G1 X157.687 Y91.955 E30.12065
G1 X157.196 Y92.502 E30.16031
G1 X156.957 Y92.736 E30.17836
G1 X156.742 Y92.871 E30.19206
G1 X156.561 Y92.937 E30.20245
G1 X156.362 Y92.972 E30.21335
G1 X156.165 Y92.972 E30.22398
G1 X155.965 Y92.937 E30.23494
G1 X155.783 Y92.872 E30.24536
G1 X155.608 Y92.772 E30.25624
G1 X155.458 Y92.644 E30.26688
G1 X155.334 Y92.498 E30.27721
G1 X155.228 Y92.316 E30.28858
G1 X155.162 Y92.137 E30.29887
G1 X155.128 Y91.938 E30.30977
G1 X155.127 Y91.74 E30.32045
G1 X155.162 Y91.54 E30.3314
G1 X155.226 Y91.362 E30.34161
G1 X155.328 Y91.186 E30.35259
G1 X155.995 Y90.421 E30.40735
G1 X156.46 Y89.75 E30.4514
G1 X156.775 Y89.155 E30.48772
G1 X157.084 Y88.402 E30.53164
G1 X157.301 Y87.616 E30.57564
G1 X157.423 Y86.809 E30.61967
G1 X157.448 Y85.993 E30.66372
G1 X157.376 Y85.18 E30.70776
G1 X157.208 Y84.382 E30.75176
G1 X156.947 Y83.608 E30.79583
G1 X156.595 Y82.871 E30.8399
G1 X156.159 Y82.182 E30.8839
G1 X155.643 Y81.549 E30.92796
G1 X155.056 Y80.981 E30.97203
G1 X154.405 Y80.488 E31.01609
G1 X153.7 Y80.075 E31.06018
G1 X152.952 Y79.749 E31.10421
G1 X152.169 Y79.514 E31.14832
G1 X151.366 Y79.375 E31.19229
G1 X150.553 Y79.332 E31.23621
G1 X149.737 Y79.384 E31.28033
G1 X148.934 Y79.534 E31.32441
G1 X148.154 Y79.78 E31.36854
G1 X147.411 Y80.114 E31.41249
G1 X146.833 Y80.46 E31.44884
G1 X146.18 Y80.946 E31.49276
G1 X145.587 Y81.508 E31.53684
G1 X145.065 Y82.136 E31.5809
G1 X144.623 Y82.821 E31.62489
G1 X144.264 Y83.553 E31.66888
G1 X143.996 Y84.324 E31.71292
G1 X143.82 Y85.121 E31.75696
G1 X143.741 Y85.934 E31.80103
G1 X143.758 Y86.75 E31.84507
G1 X143.874 Y87.558 E31.88912
G1 X144.084 Y88.348 E31.93322
G1 X144.387 Y89.106 E31.97727
G1 X144.777 Y89.823 E32.02131
G1 X145.249 Y90.488 E32.06531
G1 X145.793 Y91.088 E32.10901
G1 X146.301 Y91.599 E32.14788
G1 X148.491 Y93.794 E32.31518
G1 X148.983 Y94.314 E32.35381
G1 X151.12 Y96.565 E32.52128
G1 X151.599 Y97.097 E32.55991
G1 X153.682 Y99.403 E32.72757
G1 X156.166 Y102.295 E32.93327
G1 X158.585 Y105.256 E33.13958
G1 X159.02 Y105.818 E33.17792
G1 X160.926 Y108.272 E33.34558
G1 X163.189 Y111.341 E33.55132
G1 X165.378 Y114.469 E33.75732
G1 X167.488 Y117.652 E33.96337
G1 X169.522 Y120.889 E34.16964
G1 X171.471 Y124.166 E34.37537
G1 X173.339 Y127.495 E34.58133
G1 X175.125 Y130.871 E34.78741
G1 X176.827 Y134.288 E34.99338
G1 X178.443 Y137.747 E35.19938
G1 X179.974 Y141.245 E35.4054
G1 X181.417 Y144.779 E35.61137
G1 X182.771 Y148.35 E35.81743
G1 X183.01 Y149.025 E35.85607
G1 X184.038 Y151.952 E36.02346
G1 X184.26 Y152.633 E36.0621
G1 X185.216 Y155.589 E36.22973
G1 X185.42 Y156.271 E36.26814
G1 X186.301 Y159.244 E36.43545
G1 X186.489 Y159.936 E36.47414
G1 X187.296 Y162.93 E36.64145
G1 X187.467 Y163.626 E36.68012
G1 X188.201 Y166.64 E36.8475
G1 X189.012 Y170.371 E37.05351
G1 X189.148 Y171.074 E37.09214
G1 X189.731 Y174.121 E37.25953
G1 X189.85 Y174.828 E37.29821
G1 X190.357 Y177.887 E37.46552
G1 X190.458 Y178.597 E37.50421
G1 X190.889 Y181.667 E37.67148
G1 X191.35 Y185.654 E37.88804
G1 X194.259 Y185.608 E38.04502
G1 X194.472 Y185.605 E38.05651
G0 F7200 X194.466 Y185.392
G1 F1200 X194.449 Y184.842 E38.0862
G1 X194.443 Y184.63 E38.09764
G0 F7200 X194.655 Y184.627
G1 F1200 X195.483 Y184.611 E38.14233
G1 X195.693 Y184.608 E38.15366
G0 F7200 X195.696 Y184.818
G1 F1200 X195.787 Y190.441 E38.4571
G1 X194.611 Y190.461 E38.52056
G1 X191.984 Y190.497 E38.66231
G1 X191.765 Y190.499 E38.67413
G0 F7200 X191.777 Y190.717
G1 F1200 X191.968 Y194.008 E38.852
G1 X192.068 Y196.632 E38.99368
G1 X192.088 Y197.316 E39.03061
G1 X192.134 Y199.941 E39.17226
G1 X192.137 Y200.626 E39.20922
G1 X192.128 Y203.251 E39.35086
G1 X192.115 Y203.937 E39.38788
G1 X192.049 Y206.56 E39.52945
G1 X191.901 Y209.857 E39.70752
G1 X191.891 Y210.079 E39.71951
G0 F7200 X192.114 Y210.076
G1 F1200 X195.892 Y210.008 E39.92339
G1 X196.102 Y210.005 E39.93473
G0 F7200 X196.105 Y210.215
G1 F1200 X196.196 Y215.838 E40.23816
G1 X194.763 Y215.862 E40.31549
G1 X191.445 Y215.908 E40.49454
G1 X191.259 Y217.728 E40.59325
G1 X191.106 Y219.09 E40.6672
G1 X190.907 Y220.726 E40.75612
G1 X190.72 Y221.848 E40.8175
G1 X190.479 Y222.67 E40.86371
G1 X190.165 Y223.439 E40.90853
G1 X189.768 Y224.181 E40.95394
G1 X189.293 Y224.883 E40.99967
G1 X188.751 Y225.528 E41.04513
G1 X188.145 Y226.113 E41.09058
G1 X187.484 Y226.631 E41.13589
G1 X186.77 Y227.079 E41.18137
G1 X186.006 Y227.455 E41.22731
G1 X185.224 Y227.744 E41.2723
G1 X184.402 Y227.953 E41.31806
G1 X183.56 Y228.077 E41.36398
G1 X182.403 Y228.219 E41.42688
G1 X181.412 Y228.436 E41.48161
G1 X180.444 Y228.745 E41.53644
G1 X179.682 Y229.068 E41.5811
G1 X178.782 Y229.535 E41.6358
G1 X177.928 Y230.085 E41.69061
G1 X177.13 Y230.712 E41.74537
G1 X176.393 Y231.41 E41.80014
G1 X175.725 Y232.174 E41.8549
G1 X175.132 Y232.998 E41.90967
G1 X174.618 Y233.874 E41.96448
G1 X174.188 Y234.794 E42.01927
G1 X173.846 Y235.75 E42.07405
