;FLAVOR:Marlin
;TIME:7132
;Filament used: 10.6316m
;Layer height: 0.28
;MINX:29.706
;MINY:6.831
;MINZ:0.28
;MAXX:170.279
;MAXY:193.169
;MAXZ:16.8
;EOFFSETPROCESSED
;Generated with Cura_SteamEngine mb-master-20200328
M82 ;absolute extrusion mode
; Crashspace Printer Farm MP10 Mini (C. Nicks Start Code + John Gwinner Probe Code)
M140 S55 ; set bed temp
M104 S160.0 T0 ; set extruder park temp to warm but not ooze during bed probing ;Adjusted temp by 30
G28 ; home all axis
M190 S55 ; wait for bed temp
G29 P1; probes mesh
G29 P3; fill in mesh that can't be reached is good
G29 S0 ; save mesh
G29 F 10.0 ;prints linear above this height
G29 A ; use UBL
M104 S270.0 T0 ; set extruder temp ;Adjusted temp by 30
G92 E0;(Reset the extruder to 0)
G0 X0 Y0 Z2 F1500; (set into park)
M109 S270.0 T0 ; wait for extruder temp ;Adjusted temp by 30
G1 E5 F300; (Unretract from last ending code)
G0 Z0.28 F1000; (Lower into park)
G92 E0
G1 X0 Y20 F500 E6 ;PRIME
G92 E0;
; AND GO!!!
G92 E0
G92 E0
G1 F1800 E-5
;LAYER_COUNT:60
;LAYER:0
M107
G1 F600 Z1.28
;MESH:Object 2
G0 F7200 X30.99 Y27.34 Z1.28
;TYPE:WALL-INNER
G1 F600 Z0.28
G1 F1800 E0.0
G1 F600 X31.078 Y27.34 E0.00543
G1 X30.99 Y27.47 E0.01006
G0 F7200 X30.99 Y27.34
G1 F1800 E-4.98994
G0 F7200 X30.99 Y36.527
G1 F1800 E0.01247 ;Adjusted e by 0.00241mm
G1 F600 X31.052 Y36.616 E0.01917
G1 X31.082 Y36.66 E0.02245
G0 F7200 X30.99 Y36.527
G1 F1800 E-4.97755
G0 F7200 X53.01 Y36.53
G1 F1800 E0.02917 ;Adjusted e by 0.00672mm
G1 F600 X53.01 Y36.66 E0.0372
G1 X52.922 Y36.66 E0.04263
G0 F7200 X53.01 Y36.53
G1 F1800 E-4.95737
G0 F7200 X52.912 Y27.34
G1 F1800 E0.04504 ;Adjusted e by 0.00241mm
G1 F600 X53.01 Y27.34 E0.05109
G1 X53.01 Y27.435 E0.05696
G0 F840 X53.01 Y27.457
G0 F7200 X52.912 Y27.34
G1 F1800 E-4.94304
G0 F7200 X31.719 Y26.84
G1 F1800 E0.0634 ;Adjusted e by 0.00644mm
G1 F1200 X32.114 Y26.84 E0.08779
G1 X32.491 Y26.84 E0.11107
G0 F840 X32.581 Y26.84
G1 F1800 E-4.88893
G0 F7200 X31.566 Y27.511
G1 F1800 E0.11107
G1 F1200 X31.162 Y28.109 E0.15563
G1 X30.988 Y28.644 E0.19036
G1 X30.948 Y28.766 E0.19829
G1 X30.91 Y29.202 E0.22531
G1 X30.91 Y31.84 E0.38819
G1 X53.09 Y31.84 E1.75768
G1 X53.09 Y29.172 E1.92241
G1 X53.012 Y28.629 E1.95628
G1 X52.996 Y28.521 E1.96302
G1 X52.699 Y27.864 E2.00754
G1 X52.239 Y27.316 E2.05172
G1 X52.219 Y27.302 E2.05323
G1 X52.158 Y27.261 E2.05776
G0 F840 X51.641 Y26.912
G0 X51.42 Y26.84
G0 F7200 X51.641 Y26.84
G1 F1200 X52.338 Y26.84 E2.08027
G1 X53.09 Y26.84 E2.1267
G1 X53.09 Y24.292 E2.28403
G1 X53.09 Y24.172 E2.29144
G1 X53.036 Y23.794 E2.31501
G1 X52.996 Y23.521 E2.33205
G1 X52.937 Y23.389 E2.34098
G1 X52.728 Y22.928 E2.37223
G1 X52.699 Y22.864 E2.37657
G1 X52.476 Y22.598 E2.398
G1 X52.239 Y22.316 E2.42075
G1 X51.759 Y21.992 E2.4565
G1 X51.641 Y21.912 E2.4653
G1 X51.404 Y21.835 E2.48069
G1 X50.984 Y21.698 E2.50797
G1 X50.548 Y21.66 E2.53499
G1 X50.458 Y21.66 E2.54055
G1 X33.542 Y21.66 E3.58501
G1 X33.422 Y21.66 E3.59242
G1 X33.044 Y21.714 E3.616
G1 X32.771 Y21.754 E3.63303
G1 X32.639 Y21.813 E3.64196
G1 X32.178 Y22.022 E3.67321
G1 X32.114 Y22.051 E3.67755
G1 X31.848 Y22.274 E3.69898
G1 X31.566 Y22.511 E3.72173
G1 X31.242 Y22.991 E3.75748
G1 X31.162 Y23.109 E3.76629
G1 X31.085 Y23.346 E3.78167
G1 X30.948 Y23.766 E3.80895
G1 X30.91 Y24.202 E3.83597
G1 X30.91 Y24.292 E3.84153
G1 X30.91 Y26.793 E3.99595
G0 F840 X30.91 Y26.84
G0 X31.719 Y26.84
G0 F7200 X31.41 Y26.34
;TYPE:WALL-OUTER
G1 F1200 X52.59 Y26.34 E5.30369
G1 X52.59 Y24.208 E5.43533
G1 X52.511 Y23.662 E5.46939
G1 X52.272 Y23.133 E5.50524
G1 X51.901 Y22.691 E5.54087
G1 X51.419 Y22.366 E5.57676
G1 X50.883 Y22.191 E5.61157
G1 X50.526 Y22.16 E5.6337
G1 X33.458 Y22.16 E6.68755
G1 X32.912 Y22.239 E6.72161
G1 X32.383 Y22.478 E6.75745
G1 X31.941 Y22.849 E6.79308
G1 X31.616 Y23.331 E6.82898
G1 X31.441 Y23.867 E6.86379
G1 X31.41 Y24.224 E6.88592
G1 X31.41 Y25.484 E6.96371
G0 F840 X31.41 Y26.34
G0 F7200 X31.61 Y26.34
G0 X31.61 Y26.89
G1 F1800 E1.96371
G0 F7200 X31.41 Y31.34
G1 F1800 E6.96453 ;Adjusted e by 0.00082mm
G1 F1200 X52.59 Y31.34 E8.27228
G1 X52.59 Y29.208 E8.40391
G1 X52.511 Y28.662 E8.43798
G1 X52.272 Y28.133 E8.47382
G1 X51.901 Y27.691 E8.50945
G1 X51.419 Y27.366 E8.54534
G1 X50.883 Y27.191 E8.58016
G1 X50.526 Y27.16 E8.60228
G1 X33.458 Y27.16 E9.65613
G1 X32.912 Y27.239 E9.69019
G1 X32.383 Y27.478 E9.72604
G1 X31.941 Y27.849 E9.76167
G1 X31.616 Y28.331 E9.79756
G1 X31.441 Y28.867 E9.83237
G1 X31.41 Y29.224 E9.8545
G1 X31.41 Y30.484 E9.9323
G0 F840 X31.41 Y31.34
G0 F7200 X31.61 Y31.34
G0 X31.61 Y31.89
G0 X30.91 Y32.16
;TYPE:WALL-INNER
G1 E9.93242 ;Adjusted e by 0.00012mm
G1 F1200 X30.91 Y34.663 E10.08696
G1 X30.952 Y35.255 E10.12361
G1 X30.987 Y35.359 E10.13038
G1 X31.182 Y35.925 E10.16735
G1 X31.591 Y36.517 E10.21177
G1 X31.811 Y36.696 E10.22929
G1 X32.037 Y36.88 E10.24728
G0 F840 X32.149 Y36.971
G0 X32.586 Y37.16
G0 F7200 X31.713 Y37.16
G1 F1200 X30.91 Y37.16 E10.29686
G1 X30.91 Y39.663 E10.45141
G1 X30.952 Y40.255 E10.48805
G1 X31.086 Y40.645 E10.51351
G1 X31.182 Y40.925 E10.53179
G1 X31.237 Y41.005 E10.53778
G1 X31.539 Y41.441 E10.57053
G1 X31.591 Y41.517 E10.57622
G1 X31.841 Y41.721 E10.59614
G1 X32.149 Y41.971 E10.62063
G1 X32.633 Y42.18 E10.65318
G1 X32.805 Y42.255 E10.66477
G1 X33.04 Y42.287 E10.67941
G1 X33.426 Y42.34 E10.70347
G1 X33.542 Y42.34 E10.71063
G1 X50.578 Y42.34 E11.7625
G1 X50.942 Y42.288 E11.78521
G1 X51.229 Y42.246 E11.80312
G1 X51.358 Y42.188 E11.81185
G1 X51.824 Y41.977 E11.84344
G1 X51.886 Y41.949 E11.84764
G1 X52.152 Y41.726 E11.86907
G1 X52.434 Y41.489 E11.89181
G1 X52.758 Y41.009 E11.92757
G1 X52.838 Y40.891 E11.93637
G1 X52.915 Y40.654 E11.95176
G1 X53.052 Y40.234 E11.97903
G1 X53.09 Y39.798 E12.00606
G1 X53.09 Y39.708 E12.01161
G1 X53.09 Y37.16 E12.16894
G1 X52.281 Y37.16 E12.21889
G1 X52.275 Y37.16 E12.21926
G0 F840 X51.886 Y37.16
G0 X51.419 Y37.16
G1 F1800 E7.21926
G0 F7200 X52.434 Y36.489
G1 F1800 E12.21926
G1 F1200 X52.838 Y35.891 E12.26382
G1 X53.012 Y35.356 E12.29856
G1 X53.052 Y35.234 E12.30648
G1 X53.09 Y34.798 E12.33351
G1 X53.09 Y32.16 E12.49639
G1 X30.91 Y32.16 E13.37461
G0 F7200 X31.41 Y32.66
;TYPE:WALL-OUTER
G1 F1200 X31.41 Y34.645 E13.49717
G1 X31.446 Y35.155 E13.52874
G1 X31.632 Y35.697 E13.56412
G1 X31.962 Y36.174 E13.59994
G1 X32.411 Y36.54 E13.6357
G1 X32.941 Y36.769 E13.67135
G1 X33.46 Y36.84 E13.7037
G1 X50.542 Y36.84 E14.75841
G1 X51.088 Y36.761 E14.79247
G1 X51.617 Y36.522 E14.82831
G1 X52.059 Y36.151 E14.86394
G1 X52.384 Y35.669 E14.89984
G1 X52.559 Y35.133 E14.93465
G1 X52.59 Y34.776 E14.95678
G1 X52.59 Y32.66 E15.08743
G1 X32.266 Y32.66 E16.34232
G0 F840 X31.41 Y32.66
G0 F7200 X31.41 Y32.86
G0 X30.86 Y32.86
G1 F1800 E11.34232
G0 F7200 X31.41 Y37.66
G1 F1800 E16.34327 ;Adjusted e by 0.00095mm
G1 F1200 X31.41 Y39.645 E16.46583
G1 X31.446 Y40.155 E16.4974
G1 X31.632 Y40.697 E16.53278
G1 X31.962 Y41.174 E16.56859
G1 X32.411 Y41.54 E16.60436
G1 X32.941 Y41.769 E16.64
G1 X33.46 Y41.84 E16.67235
G1 X50.542 Y41.84 E17.72706
G1 X51.088 Y41.761 E17.76112
G1 X51.617 Y41.522 E17.79697
G1 X52.059 Y41.151 E17.8326
G1 X52.384 Y40.669 E17.86849
G1 X52.559 Y40.133 E17.9033
G1 X52.59 Y39.776 E17.92543
G1 X52.59 Y37.66 E18.05608
G1 X32.266 Y37.66 E19.31097
G0 F840 X31.41 Y37.66
G0 F7200 X31.41 Y37.86
G0 X30.86 Y37.86
G1 F1800 E14.31097
G0 F7200 X32.006 Y42.358
;TYPE:WALL-INNER
G1 F1800 E19.31186 ;Adjusted e by 0.00089mm
G1 F1200 X31.921 Y42.299 E19.31825
G1 X31.571 Y42.054 E19.34046
G1 X31.313 Y41.796 E19.35945
G1 X31.196 Y41.679 E19.36857
G1 X30.892 Y41.244 E19.39608
G1 X30.822 Y41.094 E19.40518
G1 X30.678 Y40.786 E19.42304
G1 X30.564 Y40.36 E19.44603
G1 X30.539 Y40.268 E19.45192
G1 X30.49 Y39.708 E19.48096
G1 X30.49 Y37.16 E19.61381
G1 X30.49 Y35.365 E19.72465
G1 X30.49 Y35.255 E19.73117
G1 X30.49 Y34.663 E19.76344
G1 X30.49 Y32.16 E19.89352
G1 X30.49 Y31.84 E19.91328
G1 X30.49 Y29.202 E20.05037
G1 X30.49 Y28.766 E20.07403
G1 X30.49 Y28.637 E20.08166
G1 X30.49 Y26.84 E20.19262
G1 X30.49 Y24.292 E20.32503
G1 X30.501 Y24.167 E20.33184
G1 X30.539 Y23.732 E20.35402
G1 X30.557 Y23.662 E20.35848
G1 X30.678 Y23.214 E20.38261
G1 X30.805 Y22.943 E20.39832
G1 X30.892 Y22.756 E20.40903
G1 X31.196 Y22.321 E20.43649
G1 X31.286 Y22.231 E20.44435
G1 X31.571 Y21.946 E20.46527
G1 X31.886 Y21.726 E20.48528
G1 X32.006 Y21.642 E20.49349
G1 X32.464 Y21.428 E20.51979
G1 X32.668 Y21.374 E20.53115
G1 X32.982 Y21.289 E20.5482
G1 X33.386 Y21.254 E20.56944
G1 X33.542 Y21.24 E20.57783
G1 X50.458 Y21.24 E21.45694
G1 X50.583 Y21.251 E21.46375
G1 X51.018 Y21.289 E21.48593
G1 X51.088 Y21.307 E21.49039
G1 X51.536 Y21.428 E21.51451
G1 X51.807 Y21.555 E21.53023
G1 X51.994 Y21.642 E21.54094
G1 X52.429 Y21.946 E21.56839
G1 X52.519 Y22.036 E21.57625
G1 X52.804 Y22.321 E21.59717
G1 X53.024 Y22.636 E21.61718
G1 X53.108 Y22.756 E21.6254
G1 X53.322 Y23.214 E21.6517
G1 X53.376 Y23.418 E21.66305
G1 X53.461 Y23.732 E21.68011
G1 X53.496 Y24.136 E21.70135
G1 X53.51 Y24.292 E21.70973
G1 X53.51 Y26.84 E21.84215
G1 X53.51 Y28.623 E21.95224
G1 X53.51 Y29.172 E21.98343
G1 X53.51 Y31.84 E22.12208
G1 X53.51 Y32.16 E22.14184
G1 X53.51 Y34.798 E22.27893
G1 X53.51 Y35.234 E22.30259
G1 X53.51 Y35.363 E22.31022
G1 X53.51 Y37.16 E22.42118
G1 X53.51 Y39.708 E22.55359
G1 X53.499 Y39.833 E22.5604
G1 X53.461 Y40.268 E22.58258
G1 X53.443 Y40.338 E22.58704
G1 X53.322 Y40.786 E22.61117
G1 X53.195 Y41.057 E22.62689
G1 X53.108 Y41.244 E22.63759
G1 X52.804 Y41.679 E22.66505
G1 X52.714 Y41.769 E22.67291
G1 X52.429 Y42.054 E22.69383
G1 X52.114 Y42.274 E22.71384
G1 X51.996 Y42.357 E22.72194
G1 X51.533 Y42.574 E22.74854
G1 X51.331 Y42.627 E22.75982
G1 X51.004 Y42.715 E22.77758
G1 X50.659 Y42.755 E22.79597
G1 X50.579 Y42.755 E22.80091
G1 X33.542 Y42.76 E23.68104
G1 X33.391 Y42.747 E23.68918
G1 X32.982 Y42.711 E23.71065
G1 X32.703 Y42.637 E23.72587
G1 X32.464 Y42.572 E23.73907
G1 X32.006 Y42.358 E23.76537
G0 F7200 X31.751 Y42.791
;TYPE:WALL-OUTER
G1 F1200 X31.247 Y42.438 E23.80337
G1 X30.812 Y42.003 E23.84135
G1 X30.459 Y41.499 E23.87934
G1 X30.206 Y40.957 E23.91627
G1 X30.045 Y40.355 E23.95475
G1 X29.99 Y39.729 E23.99355
G1 X29.99 Y24.271 E24.94799
G1 X30.045 Y23.645 E24.98679
G1 X30.206 Y23.043 E25.02527
G1 X30.459 Y22.501 E25.0622
G1 X30.812 Y21.997 E25.10019
G1 X31.247 Y21.562 E25.13818
G1 X31.751 Y21.209 E25.17617
G1 X32.293 Y20.956 E25.2131
G1 X32.895 Y20.795 E25.25158
G1 X33.521 Y20.74 E25.29038
G1 X50.479 Y20.74 E26.33744
G1 X51.105 Y20.795 E26.37624
G1 X51.707 Y20.956 E26.41471
G1 X52.249 Y21.209 E26.45164
G1 X52.753 Y21.562 E26.48964
G1 X53.188 Y21.997 E26.52762
G1 X53.541 Y22.501 E26.56561
G1 X53.794 Y23.043 E26.60255
G1 X53.955 Y23.645 E26.64102
G1 X54.01 Y24.271 E26.67982
G1 X54.01 Y39.729 E27.63426
G1 X53.955 Y40.355 E27.67306
G1 X53.794 Y40.957 E27.71154
G1 X53.541 Y41.499 E27.74847
G1 X53.188 Y42.003 E27.78646
G1 X52.753 Y42.438 E27.82445
G1 X52.249 Y42.791 E27.86244
G1 X51.706 Y43.045 E27.89945
G1 X51.096 Y43.208 E27.93844
G1 X50.69 Y43.255 E27.96368
G1 X33.521 Y43.26 E29.02376
G1 X32.895 Y43.205 E29.06256
G1 X32.542 Y43.11 E29.08513
G0 F840 X32.293 Y43.044
G0 X31.751 Y42.791
G0 F7200 X31.588 Y42.677
G0 X31.903 Y42.227
G1 F1800 E24.08513
G0 F7200 X32.997 Y37.208
;TYPE:SKIN
G1 F1800 E29.08618 ;Adjusted e by 0.00105mm
G1 F1200 X33.434 Y37.25 E29.10716
G1 X50.568 Y37.25 E29.88791
G1 X51.005 Y37.206 E29.90895
G1 F1800 E24.90895
G0 F7200 X51.021 Y26.761
G1 F1800 E29.91178 ;Adjusted e by 0.00283mm
G1 F1200 X51.025 Y26.807 E29.91395
G0 F7200 X50.824 Y26.761
G1 F1200 X50.55 Y26.75 E29.92689
G1 X33.432 Y26.75 E30.70691
G1 X32.994 Y26.794 E30.728
G1 F1800 E25.728
;MESH:Object 3
G0 F7200 X31.078 Y54.34
;TYPE:WALL-INNER
G1 F1800 E30.73659 ;Adjusted e by 0.00859mm
G1 F600 X30.99 Y54.47 E30.74628
G0 F7200 X31.078 Y54.34
G1 F1800 E25.74628
G0 F7200 X30.99 Y63.527
G1 F1800 E30.74869 ;Adjusted e by 0.00241mm
G1 F600 X31.052 Y63.616 E30.75539
G1 X31.082 Y63.66 E30.75868
G0 F7200 X30.99 Y63.527
G1 F1800 E25.75868
G0 F7200 X53.01 Y63.53
G1 F1800 E30.7654 ;Adjusted e by 0.00672mm
G1 F600 X53.01 Y63.66 E30.77342
G1 X52.922 Y63.66 E30.77886
G0 F7200 X53.01 Y63.53
G1 F1800 E25.77886
G0 F7200 X52.912 Y54.34
G1 F1800 E30.78127 ;Adjusted e by 0.00241mm
G1 F600 X53.01 Y54.34 E30.78732
G1 X53.01 Y54.435 E30.79318
G0 F840 X53.01 Y54.457
G0 F7200 X52.912 Y54.34
G1 F1800 E25.79318
G0 F7200 X31.719 Y53.84
G1 F1800 E30.79962 ;Adjusted e by 0.00644mm
G1 F1200 X32.114 Y53.84 E30.82401
G1 X32.491 Y53.84 E30.84729
G0 F840 X32.581 Y53.84
G1 F1800 E25.84729
G0 F7200 X31.566 Y54.511
G1 F1800 E30.84729
G1 F1200 X31.162 Y55.109 E30.89185
G1 X30.988 Y55.644 E30.92658
G1 X30.948 Y55.766 E30.93451
G1 X30.91 Y56.202 E30.96153
G1 X30.91 Y58.84 E31.12442
G1 X53.09 Y58.84 E32.4939
G1 X53.09 Y56.172 E32.65863
G1 X53.012 Y55.629 E32.6925
G1 X52.996 Y55.521 E32.69925
G1 X52.699 Y54.864 E32.74376
G1 X52.239 Y54.316 E32.78794
G1 X52.219 Y54.302 E32.78945
G1 X52.158 Y54.261 E32.79399
G0 F840 X51.641 Y53.912
G0 X51.42 Y53.84
G0 F7200 X51.641 Y53.84
G1 F1200 X52.338 Y53.84 E32.81649
G1 X53.09 Y53.84 E32.86293
G1 X53.09 Y51.292 E33.02025
G1 X53.09 Y51.172 E33.02766
G1 X53.036 Y50.794 E33.05124
G1 X52.996 Y50.521 E33.06827
G1 X52.937 Y50.389 E33.0772
G1 X52.728 Y49.928 E33.10845
G1 X52.699 Y49.864 E33.11279
G1 X52.476 Y49.598 E33.13422
G1 X52.239 Y49.316 E33.15697
G1 X51.759 Y48.992 E33.19272
G1 X51.641 Y48.912 E33.20153
G1 X51.404 Y48.835 E33.21691
G1 X50.984 Y48.698 E33.24419
G1 X50.548 Y48.66 E33.27121
G1 X50.458 Y48.66 E33.27677
G1 X33.542 Y48.66 E34.32123
G1 X33.422 Y48.66 E34.32864
G1 X33.044 Y48.714 E34.35222
G1 X32.771 Y48.754 E34.36925
G1 X32.639 Y48.813 E34.37818
G1 X32.178 Y49.022 E34.40943
G1 X32.114 Y49.051 E34.41377
G1 X31.848 Y49.274 E34.4352
G1 X31.566 Y49.511 E34.45795
G1 X31.242 Y49.991 E34.49371
G1 X31.162 Y50.109 E34.50251
G1 X31.085 Y50.346 E34.51789
G1 X30.948 Y50.766 E34.54517
G1 X30.91 Y51.202 E34.57219
G1 X30.91 Y51.292 E34.57775
G1 X30.91 Y53.793 E34.73217
G0 F840 X30.91 Y53.84
G0 X31.719 Y53.84
G0 F7200 X31.41 Y53.34
;TYPE:WALL-OUTER
G1 F1200 X52.59 Y53.34 E36.03991
G1 X52.59 Y51.208 E36.17155
G1 X52.511 Y50.662 E36.20562
G1 X52.272 Y50.133 E36.24146
G1 X51.901 Y49.691 E36.27709
G1 X51.419 Y49.366 E36.31298
G1 X50.883 Y49.191 E36.3478
G1 X50.526 Y49.16 E36.36992
G1 X33.458 Y49.16 E37.42377
G1 X32.912 Y49.239 E37.45783
G1 X32.383 Y49.478 E37.49367
G1 X31.941 Y49.849 E37.5293
G1 X31.616 Y50.331 E37.5652
G1 X31.441 Y50.867 E37.60001
G1 X31.41 Y51.224 E37.62214
G1 X31.41 Y52.484 E37.69994
G0 F840 X31.41 Y53.34
G0 F7200 X31.61 Y53.34
G0 X31.61 Y53.89
G1 F1800 E32.69994
G0 F7200 X31.41 Y58.34
G1 F1800 E37.70076 ;Adjusted e by 0.00082mm
G1 F1200 X52.59 Y58.34 E39.0085
G1 X52.59 Y56.208 E39.14013
G1 X52.511 Y55.662 E39.1742
G1 X52.272 Y55.133 E39.21004
G1 X51.901 Y54.691 E39.24567
G1 X51.419 Y54.366 E39.28156
G1 X50.883 Y54.191 E39.31638
G1 X50.526 Y54.16 E39.3385
G1 X33.458 Y54.16 E40.39235
G1 X32.912 Y54.239 E40.42642
G1 X32.383 Y54.478 E40.46226
G1 X31.941 Y54.849 E40.49789
G1 X31.616 Y55.331 E40.53378
G1 X31.441 Y55.867 E40.5686
G1 X31.41 Y56.224 E40.59072
G1 X31.41 Y57.484 E40.66852
G0 F840 X31.41 Y58.34
G0 F7200 X31.61 Y58.34
G0 X31.61 Y58.89
G0 X30.91 Y59.16
;TYPE:WALL-INNER
G1 E40.66864 ;Adjusted e by 0.00012mm
G1 F1200 X30.91 Y61.663 E40.82318
G1 X30.952 Y62.255 E40.85983
G1 X30.987 Y62.359 E40.8666
G1 X31.182 Y62.925 E40.90357
G1 X31.591 Y63.517 E40.94799
G1 X31.811 Y63.696 E40.96551
G1 X32.037 Y63.88 E40.9835
G0 F840 X32.149 Y63.971
G0 X32.586 Y64.16
G0 F7200 X31.713 Y64.16
G1 F1200 X30.91 Y64.16 E41.03308
G1 X30.91 Y66.663 E41.18763
G1 X30.952 Y67.255 E41.22427
G1 X31.086 Y67.645 E41.24973
G1 X31.182 Y67.925 E41.26801
G1 X31.237 Y68.005 E41.274
G1 X31.539 Y68.441 E41.30675
G1 X31.591 Y68.517 E41.31244
G1 X31.841 Y68.721 E41.33236
G1 X32.149 Y68.971 E41.35685
G1 X32.633 Y69.18 E41.3894
G1 X32.805 Y69.255 E41.40099
G1 X33.04 Y69.287 E41.41563
G1 X33.426 Y69.34 E41.43969
G1 X33.542 Y69.34 E41.44685
G1 X50.578 Y69.34 E42.49873
G1 X50.942 Y69.288 E42.52143
G1 X51.229 Y69.246 E42.53934
G1 X51.358 Y69.188 E42.54807
G1 X51.824 Y68.977 E42.57966
G1 X51.886 Y68.949 E42.58386
G1 X52.152 Y68.726 E42.60529
G1 X52.434 Y68.489 E42.62803
