;FLAVOR:Marlin
;TIME:5507
;Filament used: 10.5413m
;Layer height: 0.28
;MINX:16.49
;MINY:3.09
;MINZ:0.28
;MAXX:174.025
;MAXY:196.917
;MAXZ:16.8
;EOFFSETPROCESSED
;Generated with Cura_SteamEngine mb-master-20200328
M82 ;absolute extrusion mode
; START
; Crashspace Printer Farm MP10 Mini (C. Nicks Start Code + John Gwinner Probe Code)
M140 S55 ; set bed temp
M104 S160 T0 ; set extruder park temp to warm but not ooze during bed probing
G28 ; home all axis
M190 S55 ; wait for bed temp
G29 P1; probes mesh
G29 P3; fill in mesh that can't be reached is good
G29 S0 ; save mesh
G29 F 10.0 ;prints linear above this height
G29 A ; use UBL
M104 S240 T0 ; set extruder temp
G92 E0;(Reset the extruder to 0)
G0 X0 Y190 Z2 F1500; (set into park)
M109 S240 T0 ; wait for extruder temp
;PRIME
G0 Z0.5 F1500; (Lower into park)
G92 E0
G1 E5 F300; (Unretract)
G92 E0;
;G1 E10 F100; (prime in place) Not good on mini
G0 X5 Y190 Z1 F1000; (Knock off prime)
; AND GO!!!
G92 E0
G92 E0
G1 F1800 E-5
;LAYER_COUNT:60
;LAYER:0
M107
G1 F600 Z1.28
G0 F7200 X62.471 Y193.13 Z1.28
;TYPE:SKIRT
G1 F600 Z0.28
G1 F1800 E0.0
G1 F1200 X59.771 Y193.37 E0.16737
G1 X57.043 Y193.692 E0.33697
G1 X54.312 Y194.093 E0.5074
G1 X51.634 Y194.563 E0.67528
G1 X48.774 Y195.153 E0.85559
G1 X48.162 Y195.288 E0.89429
G1 X47.412 Y195.416 E0.94126
G1 X47.016 Y195.442 E0.96577
G1 X45.707 Y195.469 E1.04661
G1 X45.639 Y195.47 E1.05081
G1 X33.783 Y195.466 E1.78284
G1 X33.608 Y195.461 E1.79365
G1 X32.759 Y195.415 E1.84615
G1 X32.274 Y195.352 E1.87635
G1 X31.764 Y195.246 E1.90851
G1 X31.275 Y195.107 E1.9399
G1 X30.665 Y194.878 E1.98013
G1 X29.938 Y194.509 E2.03047
G1 X29.303 Y194.092 E2.07738
G1 X28.595 Y193.496 E2.13452
G1 X28.211 Y193.095 E2.1688
G1 X27.896 Y192.714 E2.19932
G1 X27.597 Y192.291 E2.23131
G1 X27.32 Y191.833 E2.26435
G1 X27.083 Y191.362 E2.29691
G1 X26.903 Y190.919 E2.32643
G1 X26.704 Y190.307 E2.36617
G1 X26.531 Y189.491 E2.41767
G1 X26.466 Y188.859 E2.4569
G1 X26.456 Y188.329 E2.48963
G1 X26.484 Y187.808 E2.52185
G1 X26.551 Y187.306 E2.55312
G1 X26.661 Y186.759 E2.58757
G1 X26.802 Y186.274 E2.61875
G1 X26.965 Y185.84 E2.64738
G1 X27.234 Y185.254 E2.68719
G1 X27.717 Y184.452 E2.74499
G1 X28.062 Y183.996 E2.7803
G1 X28.474 Y183.539 E2.81829
G1 X28.693 Y183.317 E2.83754
G1 X30.523 Y181.547 E2.99474
G1 X32.443 Y179.584 E3.16428
G1 X34.32 Y177.554 E3.33499
G1 X36.096 Y175.519 E3.50176
G1 X37.856 Y173.383 E3.67265
G1 X39.524 Y171.24 E3.84033
G1 X41.125 Y169.055 E4.00758
G1 X42.715 Y166.754 E4.18027
G1 X44.181 Y164.5 E4.34629
G1 X45.616 Y162.147 E4.51646
G1 X46.972 Y159.778 E4.685
G1 X48.263 Y157.364 E4.85402
G1 X49.487 Y154.913 E5.02318
G1 X50.647 Y152.414 E5.19329
G1 X51.724 Y149.913 E5.36142
G1 X52.726 Y147.393 E5.52886
G1 X53.679 Y144.782 E5.70048
G1 X54.533 Y142.219 E5.86729
G1 X55.323 Y139.604 E6.03595
G1 X56.049 Y136.928 E6.20715
G1 X56.682 Y134.308 E6.37358
G1 X57.253 Y131.613 E6.54367
G1 X57.738 Y128.949 E6.71086
G1 X58.16 Y126.191 E6.88313
G1 X58.496 Y123.493 E7.05101
G1 X58.754 Y120.794 E7.21841
G1 X58.939 Y118.046 E7.38847
G1 X59.046 Y115.299 E7.55821
G1 X59.074 Y112.548 E7.72808
G1 X59.027 Y109.882 E7.89271
G1 X58.898 Y107.085 E8.06559
G1 X58.697 Y104.38 E8.23307
G1 X58.415 Y101.639 E8.40321
G1 X58.06 Y98.949 E8.57074
G1 X57.625 Y96.235 E8.74045
G1 X57.113 Y93.536 E8.91007
G1 X56.525 Y90.856 E9.07948
G1 X56.524 Y90.849 E9.07992
G1 X55.871 Y88.23 E9.24657
G1 X55.132 Y85.581 E9.41638
G1 X54.329 Y82.992 E9.58375
G1 X53.435 Y80.372 E9.75468
G1 X52.482 Y77.819 E9.92293
G1 X51.456 Y75.29 E10.09145
G1 X50.351 Y72.773 E10.26117
G1 X49.178 Y70.295 E10.43045
G1 X47.943 Y67.866 E10.5987
G1 X46.636 Y65.464 E10.76754
G1 X45.255 Y63.092 E10.93701
G1 X43.819 Y60.776 E11.10527
G1 X42.31 Y58.489 E11.27445
G1 X40.735 Y56.248 E11.44357
G1 X39.083 Y54.026 E11.61453
G1 X37.413 Y51.91 E11.78097
G1 X35.658 Y49.813 E11.94981
G1 X33.836 Y47.756 E12.11947
G1 X31.958 Y45.753 E12.289
G1 X30.015 Y43.794 E12.45937
G1 X28.075 Y41.946 E12.6248
G1 X26.017 Y40.094 E12.79574
G1 X23.937 Y38.327 E12.96426
G1 X21.784 Y36.597 E13.13479
G1 X20.192 Y35.385 E13.25833
G1 X19.558 Y34.912 E13.30717
G1 X18.98 Y34.446 E13.35301
G1 X18.577 Y34.044 E13.38816
G1 X18.188 Y33.573 E13.42588
G1 X17.795 Y32.965 E13.47058
G1 X17.545 Y32.488 E13.50383
G1 X17.287 Y31.792 E13.54966
G1 X17.088 Y30.987 E13.60086
G1 X17.013 Y30.276 E13.645
G1 X16.99 Y29.465 E13.6951
G1 X16.99 Y22.635 E14.11681
G1 X16.998 Y22.113 E14.14905
G1 X17.007 Y21.916 E14.16122
G1 X17.057 Y21.261 E14.20178
G1 X17.136 Y20.757 E14.23328
G1 X17.357 Y19.982 E14.28304
G1 X17.553 Y19.496 E14.3154
G1 X17.861 Y18.915 E14.356
G1 X18.169 Y18.451 E14.39038
G1 X18.569 Y17.964 E14.4293
G1 X18.754 Y17.761 E14.44625
G1 X19.266 Y17.245 E14.49114
G1 X21.165 Y15.276 E14.66004
G1 X23.008 Y13.255 E14.82892
G1 X24.803 Y11.168 E14.99889
G1 X26.511 Y9.067 E15.16607
G1 X27.574 Y7.68 E15.27397
G1 X27.887 Y7.283 E15.30518
G1 X28.012 Y7.134 E15.31719
G1 X28.406 Y6.691 E15.3538
G1 X28.773 Y6.338 E15.38524
G1 X29.195 Y5.989 E15.41905
G1 X29.617 Y5.687 E15.45109
G1 X30.105 Y5.394 E15.48623
G1 X30.52 Y5.188 E15.51484
G1 X31.033 Y4.977 E15.54909
G1 X31.516 Y4.818 E15.58049
G1 X32.002 Y4.699 E15.61138
G1 X32.537 Y4.606 E15.64491
G1 X33.144 Y4.555 E15.68252
G1 X34.079 Y4.529 E15.74027
G1 X34.169 Y4.528 E15.74583
G1 X45.983 Y4.528 E16.47528
G1 X46.526 Y4.538 E16.50881
G1 X47.274 Y4.574 E16.55505
G1 X47.831 Y4.643 E16.5897
G1 X48.025 Y4.68 E16.6019
G1 X48.687 Y4.827 E16.64377
G1 X51.378 Y5.386 E16.81347
G1 X54.114 Y5.874 E16.98506
G1 X56.774 Y6.271 E17.15112
G1 X59.534 Y6.603 E17.32276
G1 X62.238 Y6.851 E17.49042
G1 X64.955 Y7.023 E17.65852
G1 X67.984 Y7.126 E17.84565
G1 X70.334 Y7.169 E17.99077
G1 X80.594 Y7.326 E18.62434
G1 X83.321 Y7.328 E18.79272
G1 X86.071 Y7.252 E18.96258
G1 X88.786 Y7.1 E19.13047
G1 X91.55 Y6.868 E19.30173
G1 X94.231 Y6.564 E19.46833
G1 X96.942 Y6.181 E19.63738
G1 X99.668 Y5.716 E19.80813
G1 X102.317 Y5.187 E19.97492
G1 X105.022 Y4.566 E20.14628
G1 X107.523 Y3.919 E20.30579
G1 X108.308 Y3.704 E20.35604
G1 X108.809 Y3.609 E20.38752
G1 X109.237 Y3.59 E20.41398
G1 X110.268 Y3.613 E20.47765
G1 X110.331 Y3.615 E20.48154
G1 X113.36 Y3.741 E20.66873
G1 X113.407 Y3.743 E20.67163
G1 X114.119 Y3.783 E20.71566
G1 X114.579 Y3.842 E20.7443
G1 X115.195 Y4.03 E20.78406
G1 X115.927 Y4.336 E20.83305
G1 X117.176 Y4.876 E20.91707
G1 X119.707 Y5.887 E21.08535
G1 X122.305 Y6.842 E21.25626
G1 X124.888 Y7.708 E21.42446
G1 X127.491 Y8.5 E21.59246
G1 X130.133 Y9.222 E21.76157
G1 X133.878 Y10.112 E21.99924
G1 X133.888 Y10.113 E21.99986
G1 X134.987 Y10.351 E22.06929
G1 X135.551 Y10.465 E22.10482
G1 X136.403 Y10.658 E22.15876
G1 X136.531 Y10.688 E22.16688
G1 X137.422 Y10.908 E22.22354
G1 X137.83 Y11.018 E22.24963
G1 X138.669 Y11.236 E22.30316
G1 X138.746 Y11.257 E22.30808
G1 X139.524 Y11.479 E22.35804
G1 X139.593 Y11.499 E22.36247
G1 X140.601 Y11.811 E22.42763
G1 X140.66 Y11.83 E22.43145
G1 X141.486 Y12.103 E22.48517
G1 X141.552 Y12.127 E22.4895
G1 X142.438 Y12.441 E22.54754
G1 X142.512 Y12.468 E22.55241
G1 X143.399 Y12.807 E22.61104
G1 X143.485 Y12.841 E22.61675
G1 X144.726 Y13.356 E22.69971
G1 X145.199 Y13.567 E22.73169
G1 X145.241 Y13.586 E22.73453
G1 X145.794 Y13.843 E22.77218
G1 X146.074 Y13.977 E22.79135
G1 X146.764 Y14.321 E22.83895
G1 X146.946 Y14.416 E22.85163
G1 X147.585 Y14.757 E22.89635
G1 X147.65 Y14.792 E22.90091
G1 X148.117 Y15.055 E22.934
G1 X149.101 Y15.64 E23.00468
G1 X149.404 Y15.831 E23.0268
G1 X150.063 Y16.26 E23.07535
G1 X150.285 Y16.41 E23.09189
G1 X151.008 Y16.92 E23.14652
G1 X151.076 Y16.969 E23.1517
G1 X151.683 Y17.421 E23.19843
G1 X151.762 Y17.482 E23.20459
G1 X152.362 Y17.958 E23.25188
G1 X152.753 Y18.281 E23.28319
G1 X153.15 Y18.621 E23.31547
G1 X153.531 Y18.96 E23.34695
G1 X153.678 Y19.094 E23.35924
G1 X154.625 Y19.998 E23.44007
G1 X154.696 Y20.068 E23.44623
G1 X155.096 Y20.474 E23.48142
G1 X155.154 Y20.535 E23.48662
G1 X155.758 Y21.181 E23.54122
G1 X155.829 Y21.26 E23.54778
G1 X156.42 Y21.935 E23.60317
G1 X156.51 Y22.04 E23.61171
G1 X157.028 Y22.669 E23.66202
G1 X157.385 Y23.12 E23.69754
G1 X157.711 Y23.548 E23.73076
G1 X158.265 Y24.306 E23.78873
G1 X158.75 Y25.002 E23.84111
G1 X159.052 Y25.452 E23.87457
G1 X159.375 Y25.952 E23.91132
G1 X159.479 Y26.117 E23.92336
G1 X160.023 Y27.005 E23.98766
G1 X160.06 Y27.067 E23.99212
G1 X160.427 Y27.697 E24.03714
G1 X160.691 Y28.165 E24.07032
G1 X160.998 Y28.727 E24.10986
G1 X161.04 Y28.805 E24.11533
G1 X161.439 Y29.566 E24.16838
G1 X161.472 Y29.63 E24.17283
G1 X161.94 Y30.573 E24.23783
G1 X161.961 Y30.615 E24.24073
G1 X162.195 Y31.104 E24.2742
G1 X162.219 Y31.156 E24.27773
G1 X162.803 Y32.435 E24.36455
G1 X163.97 Y34.94 E24.53518
G1 X165.211 Y37.418 E24.70629
G1 X166.497 Y39.816 E24.8743
G1 X167.852 Y42.178 E25.04244
G1 X169.292 Y44.531 E25.21277
G1 X170.773 Y46.806 E25.38038
G1 X172.06 Y48.676 E25.52054
G1 X172.315 Y49.117 E25.552
G1 X172.507 Y49.625 E25.58553
G1 X172.623 Y50.12 E25.61692
G1 X172.677 Y50.387 E25.63374
G1 X173.34 Y53.835 E25.85053
G1 X173.477 Y54.608 E25.899
G1 X173.526 Y55.115 E25.93045
G1 X173.484 Y55.704 E25.96691
G1 X173.288 Y56.895 E26.04144
G1 X173.271 Y56.989 E26.04734
G1 X172.858 Y59.705 E26.21696
G1 X172.523 Y62.408 E26.38513
G1 X172.268 Y65.106 E26.55246
G1 X172.084 Y67.856 E26.72264
G1 X171.98 Y70.601 E26.89225
G1 X171.953 Y73.346 E27.06174
G1 X172.003 Y76.034 E27.22774
G1 X172.202 Y79.865 E27.4646
G1 X172.28 Y80.985 E27.53392
G1 X172.282 Y81.012 E27.53559
G1 X172.436 Y83.52 E27.69074
G1 X172.459 Y83.922 E27.7156
G1 X172.598 Y86.631 E27.88309
G1 X172.599 Y86.665 E27.88519
G1 X172.702 Y89.177 E28.04042
G1 X172.711 Y89.409 E28.05475
G1 X172.798 Y92.126 E28.2226
G1 X172.799 Y92.161 E28.22476
G1 X172.858 Y94.949 E28.39694
G1 X172.859 Y94.979 E28.39879
G1 X172.891 Y97.627 E28.5623
G1 X172.891 Y97.656 E28.5641
G1 X172.898 Y99.989 E28.70814
G1 X172.898 Y100.008 E28.70932
G1 X172.892 Y102.215 E28.84559
G1 X172.892 Y102.34 E28.85331
G1 X172.885 Y103.083 E28.89918
G1 X172.885 Y103.094 E28.89986
G1 X172.856 Y105.324 E29.03756
G1 X172.853 Y105.474 E29.04683
G1 X172.792 Y108.139 E29.21142
G1 X172.789 Y108.239 E29.2176
G1 X172.715 Y110.501 E29.35734
G1 X172.698 Y110.973 E29.3865
G1 X172.587 Y113.606 E29.54921
G1 X172.586 Y113.636 E29.55107
G1 X172.451 Y116.258 E29.71318
G1 X172.447 Y116.288 E29.71504
G1 X172.295 Y118.791 E29.86987
G1 X172.293 Y118.817 E29.87148
G1 X172.2 Y120.174 E29.95547
G1 X172.041 Y122.95 E30.12715
G1 X171.961 Y125.7 E30.29702
G1 X171.959 Y128.415 E30.46465
G1 X172.035 Y131.165 E30.63451
G1 X172.187 Y133.88 E30.80241
G1 X172.419 Y136.647 E30.97386
G1 X172.722 Y139.321 E31.14002
G1 X173.111 Y142.072 E31.31157
G1 X173.478 Y144.265 E31.44885
G1 X173.523 Y144.772 E31.48028
G1 X173.476 Y145.35 E31.51609
G1 X173.317 Y146.278 E31.57422
G1 X173.306 Y146.342 E31.57823
G1 X172.682 Y149.592 E31.78256
G1 X172.569 Y150.129 E31.81645
G1 X172.487 Y150.438 E31.83619
G1 X172.3 Y150.912 E31.86765
G1 X172.048 Y151.339 E31.89826
G1 X171.701 Y151.837 E31.93574
G1 X170.142 Y154.148 E32.10786
G1 X168.679 Y156.45 E32.27627
G1 X167.27 Y158.819 E32.44646
G1 X165.941 Y161.2 E32.61482
G1 X164.681 Y163.615 E32.78301
G1 X163.495 Y166.057 E32.95063
G1 X162.17 Y168.949 E33.14704
G1 X162.137 Y169.018 E33.15177
G1 X161.723 Y169.868 E33.21014
G1 X161.433 Y170.448 E33.25018
G1 X161.064 Y171.152 E33.29926
G1 X160.806 Y171.628 E33.33269
G1 X160.415 Y172.325 E33.38203
G1 X160.384 Y172.38 E33.38593
G1 X160.013 Y173.012 E33.43118
G1 X159.98 Y173.067 E33.43514
G1 X159.543 Y173.779 E33.48672
G1 X159.499 Y173.849 E33.49183
G1 X158.823 Y174.89 E33.56847
G1 X158.765 Y174.976 E33.57487
G1 X158.317 Y175.62 E33.62331
G1 X158.27 Y175.686 E33.62831
G1 X157.651 Y176.53 E33.69294
G1 X157.481 Y176.754 E33.7103
G1 X156.868 Y177.528 E33.77126
G1 X156.41 Y178.075 E33.81531
G1 X156.281 Y178.227 E33.82762
G1 X155.826 Y178.742 E33.87005
G1 X155.227 Y179.388 E33.92445
G1 X154.831 Y179.798 E33.95964
G1 X154.481 Y180.146 E33.99012
G1 X153.735 Y180.853 E34.05358
G1 X153.156 Y181.372 E34.10159
G1 X153.095 Y181.425 E34.10658
G1 X152.518 Y181.912 E34.1532
G1 X151.937 Y182.379 E34.19922
G1 X151.775 Y182.506 E34.21193
G1 X151.351 Y182.828 E34.24481
G1 X150.864 Y183.184 E34.28205
G1 X150.794 Y183.235 E34.2874
G1 X150.163 Y183.671 E34.33476
G1 X150.094 Y183.717 E34.33988
G1 X149.389 Y184.178 E34.39189
G1 X148.705 Y184.6 E34.44151
G1 X148.57 Y184.681 E34.45123
G1 X147.831 Y185.104 E34.50381
G1 X147.352 Y185.368 E34.53758
G1 X146.879 Y185.618 E34.57061
G1 X146.788 Y185.664 E34.57691
G1 X145.844 Y186.131 E34.64193
G1 X145.768 Y186.167 E34.64713
G1 X145.053 Y186.498 E34.69577
G1 X144.984 Y186.529 E34.70045
G1 X144.524 Y186.729 E34.73142
G1 X144.464 Y186.755 E34.73545
G1 X143.409 Y187.189 E34.80589
G1 X143.32 Y187.224 E34.81179
G1 X142.177 Y187.655 E34.88722
G1 X142.101 Y187.681 E34.89218
G1 X141.345 Y187.945 E34.94162
G1 X140.882 Y188.097 E34.97171
G1 X139.507 Y188.522 E35.06057
G1 X139.446 Y188.54 E35.0645
G1 X138.657 Y188.767 E35.11519
G1 X138.574 Y188.791 E35.12052
G1 X138.004 Y188.945 E35.15698
G1 X137.584 Y189.052 E35.18374
G1 X136.62 Y189.288 E35.24502
G1 X136.57 Y189.3 E35.2482
G1 X135.281 Y189.594 E35.32983
G1 X135.141 Y189.625 E35.33868
G1 X134.58 Y189.742 E35.37407
G1 X131.916 Y190.337 E35.5426
G1 X129.243 Y191.014 E35.71286
G1 X126.612 Y191.761 E35.88173
G1 X124.01 Y192.577 E36.0501
G1 X121.442 Y193.466 E36.21789
G1 X118.854 Y194.444 E36.38871
G1 X116.053 Y195.599 E36.57579
G1 X115.252 Y195.943 E36.62961
G1 X114.77 Y196.107 E36.66105
G1 X114.171 Y196.202 E36.69849
G1 X113.146 Y196.266 E36.76191
G1 X113.079 Y196.269 E36.76605
G1 X110.256 Y196.387 E36.9405
G1 X109.302 Y196.417 E36.99944
G1 X108.693 Y196.379 E37.03711
G1 X107.917 Y196.197 E37.08632
G1 X107.871 Y196.185 E37.08926
G1 X106.094 Y195.701 E37.20298
G1 X103.441 Y195.059 E37.37151
G1 X100.771 Y194.492 E37.54004
G1 X98.074 Y193.999 E37.70933
G1 X95.381 Y193.585 E37.87756
G1 X92.66 Y193.246 E38.04686
G1 X89.949 Y192.985 E38.21502
G1 X87.174 Y192.797 E38.38676
G1 X84.496 Y192.692 E38.55223
G1 X80.589 Y192.671 E38.79347
G1 X78.572 Y192.701 E38.91802
G1 X78.467 Y192.703 E38.92451
G1 X67.939 Y192.874 E39.57464
G1 X65.221 Y192.962 E39.74254
G1 X63.325 Y193.078 E39.85983
G0 F840 X62.471 Y193.13
G1 F1800 E34.85983
G0 F7200 X154.825 Y180.509
G1 F1800 E39.92105 ;Adjusted e by 0.06122mm
G1 F1200 X154.079 Y181.216 E39.98451
G1 X153.487 Y181.746 E40.03357
G1 X153.418 Y181.807 E40.03926
G1 X152.841 Y182.294 E40.08588
G1 X152.251 Y182.769 E40.13265
G1 X152.077 Y182.904 E40.14624
G1 X151.653 Y183.226 E40.17912
G1 X151.598 Y183.267 E40.18335
G1 X151.159 Y183.588 E40.21693
G1 X151.078 Y183.646 E40.22308
G1 X150.447 Y184.082 E40.27044
G1 X150.367 Y184.136 E40.2764
G1 X149.662 Y184.597 E40.32841
G1 X148.964 Y185.027 E40.37903
G1 X148.818 Y185.115 E40.38955
G1 X148.079 Y185.538 E40.44213
G1 X147.594 Y185.806 E40.47634
G1 X147.106 Y186.064 E40.51042
G1 X146.066 Y186.579 E40.58208
G1 X145.978 Y186.621 E40.5881
G1 X145.263 Y186.952 E40.63675
G1 X145.183 Y186.988 E40.64217
G1 X144.723 Y187.188 E40.67314
G1 X144.655 Y187.217 E40.6777
G1 X143.6 Y187.651 E40.74814
G1 X143.496 Y187.692 E40.75504
G1 X142.353 Y188.123 E40.83046
G1 X141.029 Y188.575 E40.91685
G1 X139.654 Y189 E41.00571
G1 X139.584 Y189.021 E41.01022
G1 X138.795 Y189.248 E41.06091
G1 X138.134 Y189.427 E41.10319
G1 X137.703 Y189.537 E41.13066
G1 X136.739 Y189.773 E41.19194
G1 X136.681 Y189.787 E41.19562
G1 X135.392 Y190.081 E41.27725
G1 X135.243 Y190.114 E41.28668
G1 X134.724 Y190.222 E41.31941
G1 X132.001 Y190.831 E41.49169
G1 X129.406 Y191.488 E41.65697
G1 X126.752 Y192.241 E41.82731
G1 X124.186 Y193.046 E41.99336
G1 X121.603 Y193.94 E42.16213
G1 X119.028 Y194.913 E42.33209
G1 X116.265 Y196.052 E42.51661
G1 X115.45 Y196.403 E42.5714
G1 X114.933 Y196.582 E42.60519
G1 X114.202 Y196.701 E42.65091
G1 X113.177 Y196.765 E42.71433
G1 X113.1 Y196.769 E42.71909
G1 X110.277 Y196.887 E42.89354
G1 X110.238 Y196.888 E42.89595
G1 X109.318 Y196.917 E42.95278
G1 X108.615 Y196.873 E42.99627
G1 X107.792 Y196.681 E43.04845
G1 X107.74 Y196.667 E43.05178
G1 X105.991 Y196.19 E43.16371
G1 X103.324 Y195.545 E43.33313
G1 X100.682 Y194.984 E43.4999
