;FLAVOR:Marlin
;TIME:5472
;Filament used: 10.6316m
;Layer height: 0.28
;MINX:29.706
;MINY:6.831
;MINZ:0.28
;MAXX:170.279
;MAXY:193.169
;MAXZ:16.8
;EOFFSETPROCESSED
;Generated with Cura_SteamEngine mb-master-20200328
M82 ;absolute extrusion mode
; START
; Crashspace Printer Farm MP10 Mini (C. Nicks Start Code + John Gwinner Probe Code)
M140 S45 ; set bed temp
M104 S160 T0 ; set extruder park temp to warm but not ooze during bed probing
G28 ; home all axis
M190 S55 ; wait for bed temp
G29 P1; probes mesh
G29 P3; fill in mesh that can't be reached is good
G29 S0 ; save mesh
G29 F 10.0 ;prints linear above this height
G29 A ; use UBL
M104 S240 T0 ; set extruder temp
G92 E0;(Reset the extruder to 0)
G0 X0 Y190 Z2 F1500; (set into park)
M109 S240 T0 ; wait for extruder temp
;PRIME
G0 Z0.5 F1500; (Lower into park)
G92 E0
G1 E5 F300; (Unretract)
G92 E0;
;G1 E10 F100; (prime in place) Not good on mini
G0 X5 Y190 Z1 F1000; (Knock off prime)
; AND GO!!!
G92 E0
G92 E0
G1 F1800 E-5
;LAYER_COUNT:60
;LAYER:0
M107
G1 F600 Z1.28
;MESH:20mm_strap_lock.stl
G0 F7200 X30.99 Y27.34 Z1.28
;TYPE:WALL-INNER
G1 F600 Z0.28
G1 F1800 E0.0
G1 F600 X31.078 Y27.34 E0.00543
G1 X30.99 Y27.47 E0.01006
G0 F7200 X30.99 Y27.34
G1 F1800 E-4.98994
G0 F7200 X30.99 Y36.527
G1 F1800 E0.01488 ;Adjusted e by 0.00482mm
G1 F600 X31.052 Y36.616 E0.02158
G1 X31.082 Y36.66 E0.02486
G0 F7200 X30.99 Y36.527
G1 F1800 E-4.97514
G0 F7200 X53.01 Y36.53
G1 F1800 E0.0383 ;Adjusted e by 0.01344mm
G1 F600 X53.01 Y36.66 E0.04633
G1 X52.922 Y36.66 E0.05176
G0 F7200 X53.01 Y36.53
G1 F1800 E-4.94824
G0 F7200 X52.912 Y27.34
G1 F1800 E0.05659 ;Adjusted e by 0.00483mm
G1 F600 X53.01 Y27.34 E0.06264
G1 X53.01 Y27.435 E0.06851
G0 F840 X53.01 Y27.457
G0 F7200 X52.912 Y27.34
G1 F1800 E-4.93149
G0 F7200 X31.719 Y26.84
G1 F1800 E0.0814 ;Adjusted e by 0.01289mm
G1 F1200 X32.114 Y26.84 E0.10579
G1 X32.491 Y26.84 E0.12907
G0 F840 X32.581 Y26.84
G1 F1800 E-4.87093
G0 F7200 X31.566 Y27.511
G1 F1800 E0.12907
G1 F1200 X31.162 Y28.109 E0.17363
G1 X30.988 Y28.644 E0.20836
G1 X30.948 Y28.766 E0.21629
G1 X30.91 Y29.202 E0.24331
G1 X30.91 Y31.84 E0.40619
G1 X53.09 Y31.84 E1.77568
G1 X53.09 Y29.172 E1.94041
G1 X53.012 Y28.629 E1.97428
G1 X52.996 Y28.521 E1.98102
G1 X52.699 Y27.864 E2.02554
G1 X52.239 Y27.316 E2.06972
G1 X52.219 Y27.302 E2.07123
G1 X52.158 Y27.261 E2.07576
G0 F840 X51.641 Y26.912
G0 X51.42 Y26.84
G0 F7200 X51.641 Y26.84
G1 F1200 X52.338 Y26.84 E2.09827
G1 X53.09 Y26.84 E2.1447
G1 X53.09 Y24.292 E2.30203
G1 X53.09 Y24.172 E2.30944
G1 X53.036 Y23.794 E2.33301
G1 X52.996 Y23.521 E2.35005
G1 X52.937 Y23.389 E2.35898
G1 X52.728 Y22.928 E2.39023
G1 X52.699 Y22.864 E2.39457
G1 X52.476 Y22.598 E2.416
G1 X52.239 Y22.316 E2.43875
G1 X51.759 Y21.992 E2.4745
G1 X51.641 Y21.912 E2.4833
G1 X51.404 Y21.835 E2.49869
G1 X50.984 Y21.698 E2.52597
G1 X50.548 Y21.66 E2.55299
G1 X50.458 Y21.66 E2.55855
G1 X33.542 Y21.66 E3.60301
G1 X33.422 Y21.66 E3.61042
G1 X33.044 Y21.714 E3.634
G1 X32.771 Y21.754 E3.65103
G1 X32.639 Y21.813 E3.65996
G1 X32.178 Y22.022 E3.69121
G1 X32.114 Y22.051 E3.69555
G1 X31.848 Y22.274 E3.71698
G1 X31.566 Y22.511 E3.73973
G1 X31.242 Y22.991 E3.77548
G1 X31.162 Y23.109 E3.78429
G1 X31.085 Y23.346 E3.79967
G1 X30.948 Y23.766 E3.82695
G1 X30.91 Y24.202 E3.85397
G1 X30.91 Y24.292 E3.85953
G1 X30.91 Y26.793 E4.01395
G0 F840 X30.91 Y26.84
G0 X31.719 Y26.84
G0 F7200 X31.41 Y26.34
;TYPE:WALL-OUTER
G1 F1200 X52.59 Y26.34 E5.32169
G1 X52.59 Y24.208 E5.45333
G1 X52.511 Y23.662 E5.48739
G1 X52.272 Y23.133 E5.52324
G1 X51.901 Y22.691 E5.55887
G1 X51.419 Y22.366 E5.59476
G1 X50.883 Y22.191 E5.62957
G1 X50.526 Y22.16 E5.6517
G1 X33.458 Y22.16 E6.70555
G1 X32.912 Y22.239 E6.73961
G1 X32.383 Y22.478 E6.77545
G1 X31.941 Y22.849 E6.81108
G1 X31.616 Y23.331 E6.84698
G1 X31.441 Y23.867 E6.88179
G1 X31.41 Y24.224 E6.90392
G1 X31.41 Y25.484 E6.98171
G0 F840 X31.41 Y26.34
G0 F7200 X31.61 Y26.34
G0 X31.61 Y26.89
G1 F1800 E1.98171
G0 F7200 X31.41 Y31.34
G1 F1800 E6.98336 ;Adjusted e by 0.00165mm
G1 F1200 X52.59 Y31.34 E8.29111
G1 X52.59 Y29.208 E8.42274
G1 X52.511 Y28.662 E8.45681
G1 X52.272 Y28.133 E8.49265
G1 X51.901 Y27.691 E8.52828
G1 X51.419 Y27.366 E8.56417
G1 X50.883 Y27.191 E8.59899
G1 X50.526 Y27.16 E8.62111
G1 X33.458 Y27.16 E9.67496
G1 X32.912 Y27.239 E9.70902
G1 X32.383 Y27.478 E9.74487
G1 X31.941 Y27.849 E9.7805
G1 X31.616 Y28.331 E9.81639
G1 X31.441 Y28.867 E9.8512
G1 X31.41 Y29.224 E9.87333
G1 X31.41 Y30.484 E9.95113
G0 F840 X31.41 Y31.34
G0 F7200 X31.61 Y31.34
G0 X31.61 Y31.89
G0 X30.91 Y32.16
;TYPE:WALL-INNER
G1 E9.95137 ;Adjusted e by 0.00024mm
G1 F1200 X30.91 Y34.663 E10.10591
G1 X30.952 Y35.255 E10.14256
G1 X30.987 Y35.359 E10.14933
G1 X31.182 Y35.925 E10.1863
G1 X31.591 Y36.517 E10.23072
G1 X31.811 Y36.696 E10.24824
G1 X32.037 Y36.88 E10.26623
G0 F840 X32.149 Y36.971
G0 X32.586 Y37.16
G0 F7200 X31.713 Y37.16
G1 F1200 X30.91 Y37.16 E10.31581
G1 X30.91 Y39.663 E10.47036
G1 X30.952 Y40.255 E10.507
G1 X31.086 Y40.645 E10.53246
G1 X31.182 Y40.925 E10.55074
G1 X31.237 Y41.005 E10.55673
G1 X31.539 Y41.441 E10.58948
G1 X31.591 Y41.517 E10.59517
G1 X31.841 Y41.721 E10.61509
G1 X32.149 Y41.971 E10.63958
G1 X32.633 Y42.18 E10.67213
G1 X32.805 Y42.255 E10.68372
G1 X33.04 Y42.287 E10.69836
G1 X33.426 Y42.34 E10.72242
G1 X33.542 Y42.34 E10.72958
G1 X50.578 Y42.34 E11.78145
G1 X50.942 Y42.288 E11.80416
G1 X51.229 Y42.246 E11.82207
G1 X51.358 Y42.188 E11.8308
G1 X51.824 Y41.977 E11.86239
G1 X51.886 Y41.949 E11.86659
G1 X52.152 Y41.726 E11.88802
G1 X52.434 Y41.489 E11.91076
G1 X52.758 Y41.009 E11.94652
G1 X52.838 Y40.891 E11.95532
G1 X52.915 Y40.654 E11.97071
G1 X53.052 Y40.234 E11.99798
G1 X53.09 Y39.798 E12.02501
G1 X53.09 Y39.708 E12.03056
G1 X53.09 Y37.16 E12.18789
G1 X52.281 Y37.16 E12.23784
G1 X52.275 Y37.16 E12.23821
G0 F840 X51.886 Y37.16
G0 X51.419 Y37.16
G1 F1800 E7.23821
G0 F7200 X52.434 Y36.489
G1 F1800 E12.23821
G1 F1200 X52.838 Y35.891 E12.28277
G1 X53.012 Y35.356 E12.31751
G1 X53.052 Y35.234 E12.32543
G1 X53.09 Y34.798 E12.35246
G1 X53.09 Y32.16 E12.51534
G1 X30.91 Y32.16 E13.39356
G0 F7200 X31.41 Y32.66
;TYPE:WALL-OUTER
G1 F1200 X31.41 Y34.645 E13.51612
G1 X31.446 Y35.155 E13.54769
G1 X31.632 Y35.697 E13.58307
G1 X31.962 Y36.174 E13.61889
G1 X32.411 Y36.54 E13.65465
G1 X32.941 Y36.769 E13.6903
G1 X33.46 Y36.84 E13.72265
G1 X50.542 Y36.84 E14.77736
G1 X51.088 Y36.761 E14.81142
G1 X51.617 Y36.522 E14.84726
G1 X52.059 Y36.151 E14.88289
G1 X52.384 Y35.669 E14.91879
G1 X52.559 Y35.133 E14.9536
G1 X52.59 Y34.776 E14.97573
G1 X52.59 Y32.66 E15.10638
G1 X32.266 Y32.66 E16.36127
G0 F840 X31.41 Y32.66
G0 F7200 X31.41 Y32.86
G0 X30.86 Y32.86
G1 F1800 E11.36127
G0 F7200 X31.41 Y37.66
G1 F1800 E16.36317 ;Adjusted e by 0.0019mm
G1 F1200 X31.41 Y39.645 E16.48573
G1 X31.446 Y40.155 E16.5173
G1 X31.632 Y40.697 E16.55268
G1 X31.962 Y41.174 E16.58849
G1 X32.411 Y41.54 E16.62426
G1 X32.941 Y41.769 E16.6599
G1 X33.46 Y41.84 E16.69225
G1 X50.542 Y41.84 E17.74696
G1 X51.088 Y41.761 E17.78102
G1 X51.617 Y41.522 E17.81687
G1 X52.059 Y41.151 E17.8525
G1 X52.384 Y40.669 E17.88839
G1 X52.559 Y40.133 E17.9232
G1 X52.59 Y39.776 E17.94533
G1 X52.59 Y37.66 E18.07598
G1 X32.266 Y37.66 E19.33087
G0 F840 X31.41 Y37.66
G0 F7200 X31.41 Y37.86
G0 X30.86 Y37.86
G1 F1800 E14.33087
G0 F7200 X32.006 Y42.358
;TYPE:WALL-INNER
G1 F1800 E19.33264 ;Adjusted e by 0.00177mm
G1 F1200 X31.921 Y42.299 E19.33903
G1 X31.571 Y42.054 E19.36124
G1 X31.313 Y41.796 E19.38023
G1 X31.196 Y41.679 E19.38935
G1 X30.892 Y41.244 E19.41686
G1 X30.822 Y41.094 E19.42596
G1 X30.678 Y40.786 E19.44382
G1 X30.564 Y40.36 E19.46681
G1 X30.539 Y40.268 E19.4727
G1 X30.49 Y39.708 E19.50174
G1 X30.49 Y37.16 E19.63459
G1 X30.49 Y35.365 E19.74543
G1 X30.49 Y35.255 E19.75195
G1 X30.49 Y34.663 E19.78422
G1 X30.49 Y32.16 E19.9143
G1 X30.49 Y31.84 E19.93406
G1 X30.49 Y29.202 E20.07115
G1 X30.49 Y28.766 E20.09481
G1 X30.49 Y28.637 E20.10244
G1 X30.49 Y26.84 E20.2134
G1 X30.49 Y24.292 E20.34581
G1 X30.501 Y24.167 E20.35262
G1 X30.539 Y23.732 E20.3748
G1 X30.557 Y23.662 E20.37926
G1 X30.678 Y23.214 E20.40339
G1 X30.805 Y22.943 E20.4191
G1 X30.892 Y22.756 E20.42981
G1 X31.196 Y22.321 E20.45727
G1 X31.286 Y22.231 E20.46513
G1 X31.571 Y21.946 E20.48605
G1 X31.886 Y21.726 E20.50606
G1 X32.006 Y21.642 E20.51427
G1 X32.464 Y21.428 E20.54057
G1 X32.668 Y21.374 E20.55193
G1 X32.982 Y21.289 E20.56898
G1 X33.386 Y21.254 E20.59022
G1 X33.542 Y21.24 E20.59861
G1 X50.458 Y21.24 E21.47772
G1 X50.583 Y21.251 E21.48453
G1 X51.018 Y21.289 E21.50671
G1 X51.088 Y21.307 E21.51117
G1 X51.536 Y21.428 E21.53529
G1 X51.807 Y21.555 E21.55101
G1 X51.994 Y21.642 E21.56172
G1 X52.429 Y21.946 E21.58917
G1 X52.519 Y22.036 E21.59703
G1 X52.804 Y22.321 E21.61795
G1 X53.024 Y22.636 E21.63796
G1 X53.108 Y22.756 E21.64618
G1 X53.322 Y23.214 E21.67248
G1 X53.376 Y23.418 E21.68383
G1 X53.461 Y23.732 E21.70089
G1 X53.496 Y24.136 E21.72213
G1 X53.51 Y24.292 E21.73051
G1 X53.51 Y26.84 E21.86293
G1 X53.51 Y28.623 E21.97302
G1 X53.51 Y29.172 E22.00421
G1 X53.51 Y31.84 E22.14286
G1 X53.51 Y32.16 E22.16262
G1 X53.51 Y34.798 E22.29971
G1 X53.51 Y35.234 E22.32337
G1 X53.51 Y35.363 E22.331
G1 X53.51 Y37.16 E22.44196
G1 X53.51 Y39.708 E22.57437
G1 X53.499 Y39.833 E22.58118
G1 X53.461 Y40.268 E22.60336
G1 X53.443 Y40.338 E22.60782
G1 X53.322 Y40.786 E22.63195
G1 X53.195 Y41.057 E22.64767
G1 X53.108 Y41.244 E22.65837
G1 X52.804 Y41.679 E22.68583
G1 X52.714 Y41.769 E22.69369
G1 X52.429 Y42.054 E22.71461
G1 X52.114 Y42.274 E22.73462
G1 X51.996 Y42.357 E22.74272
G1 X51.533 Y42.574 E22.76932
G1 X51.331 Y42.627 E22.7806
G1 X51.004 Y42.715 E22.79836
G1 X50.659 Y42.755 E22.81675
G1 X50.579 Y42.755 E22.82169
G1 X33.542 Y42.76 E23.70182
G1 X33.391 Y42.747 E23.70996
G1 X32.982 Y42.711 E23.73143
G1 X32.703 Y42.637 E23.74665
G1 X32.464 Y42.572 E23.75985
G1 X32.006 Y42.358 E23.78615
G0 F7200 X31.751 Y42.791
;TYPE:WALL-OUTER
G1 F1200 X31.247 Y42.438 E23.82415
G1 X30.812 Y42.003 E23.86213
G1 X30.459 Y41.499 E23.90012
G1 X30.206 Y40.957 E23.93705
G1 X30.045 Y40.355 E23.97553
G1 X29.99 Y39.729 E24.01433
G1 X29.99 Y24.271 E24.96877
G1 X30.045 Y23.645 E25.00757
G1 X30.206 Y23.043 E25.04605
G1 X30.459 Y22.501 E25.08298
G1 X30.812 Y21.997 E25.12097
G1 X31.247 Y21.562 E25.15896
G1 X31.751 Y21.209 E25.19695
G1 X32.293 Y20.956 E25.23388
G1 X32.895 Y20.795 E25.27236
G1 X33.521 Y20.74 E25.31116
G1 X50.479 Y20.74 E26.35822
G1 X51.105 Y20.795 E26.39702
G1 X51.707 Y20.956 E26.43549
G1 X52.249 Y21.209 E26.47242
G1 X52.753 Y21.562 E26.51042
G1 X53.188 Y21.997 E26.5484
G1 X53.541 Y22.501 E26.58639
G1 X53.794 Y23.043 E26.62333
G1 X53.955 Y23.645 E26.6618
G1 X54.01 Y24.271 E26.7006
G1 X54.01 Y39.729 E27.65504
G1 X53.955 Y40.355 E27.69384
G1 X53.794 Y40.957 E27.73232
G1 X53.541 Y41.499 E27.76925
G1 X53.188 Y42.003 E27.80724
G1 X52.753 Y42.438 E27.84523
G1 X52.249 Y42.791 E27.88322
G1 X51.706 Y43.045 E27.92023
G1 X51.096 Y43.208 E27.95922
G1 X50.69 Y43.255 E27.98446
G1 X33.521 Y43.26 E29.04454
G1 X32.895 Y43.205 E29.08334
G1 X32.542 Y43.11 E29.10591
G0 F840 X32.293 Y43.044
G0 X31.751 Y42.791
G0 F7200 X31.588 Y42.677
G0 X31.903 Y42.227
G1 F1800 E24.10591
G0 F7200 X32.997 Y37.208
;TYPE:SKIN
G1 F1800 E29.10802 ;Adjusted e by 0.00211mm
G1 F1200 X33.434 Y37.25 E29.129
G1 X50.568 Y37.25 E29.90975
G1 X51.005 Y37.206 E29.93079
G1 F1800 E24.93079
G0 F7200 X51.021 Y26.761
G1 F1800 E29.93646 ;Adjusted e by 0.00567mm
G1 F1200 X51.025 Y26.807 E29.93863
G0 F7200 X50.824 Y26.761
G1 F1200 X50.55 Y26.75 E29.95157
G1 X33.432 Y26.75 E30.73159
G1 X32.994 Y26.794 E30.75268
G1 F1800 E25.75268
;MESH:20mm_strap_lock.stl(1)
G0 F7200 X31.078 Y54.34
;TYPE:WALL-INNER
G1 F1800 E30.76987 ;Adjusted e by 0.01719mm
G1 F600 X30.99 Y54.47 E30.77956
G0 F7200 X31.078 Y54.34
G1 F1800 E25.77956
G0 F7200 X30.99 Y63.527
G1 F1800 E30.78438 ;Adjusted e by 0.00482mm
G1 F600 X31.052 Y63.616 E30.79108
G1 X31.082 Y63.66 E30.79437
G0 F7200 X30.99 Y63.527
G1 F1800 E25.79437
G0 F7200 X53.01 Y63.53
G1 F1800 E30.80781 ;Adjusted e by 0.01344mm
G1 F600 X53.01 Y63.66 E30.81583
G1 X52.922 Y63.66 E30.82127
G0 F7200 X53.01 Y63.53
G1 F1800 E25.82127
G0 F7200 X52.912 Y54.34
G1 F1800 E30.8261 ;Adjusted e by 0.00483mm
G1 F600 X53.01 Y54.34 E30.83215
G1 X53.01 Y54.435 E30.83801
G0 F840 X53.01 Y54.457
G0 F7200 X52.912 Y54.34
G1 F1800 E25.83801
G0 F7200 X31.719 Y53.84
G1 F1800 E30.8509 ;Adjusted e by 0.01289mm
G1 F1200 X32.114 Y53.84 E30.87529
G1 X32.491 Y53.84 E30.89857
G0 F840 X32.581 Y53.84
G1 F1800 E25.89857
G0 F7200 X31.566 Y54.511
G1 F1800 E30.89857
G1 F1200 X31.162 Y55.109 E30.94313
G1 X30.988 Y55.644 E30.97786
G1 X30.948 Y55.766 E30.98579
G1 X30.91 Y56.202 E31.01281
G1 X30.91 Y58.84 E31.1757
G1 X53.09 Y58.84 E32.54518
G1 X53.09 Y56.172 E32.70991
G1 X53.012 Y55.629 E32.74378
G1 X52.996 Y55.521 E32.75053
G1 X52.699 Y54.864 E32.79504
G1 X52.239 Y54.316 E32.83922
G1 X52.219 Y54.302 E32.84073
G1 X52.158 Y54.261 E32.84527
G0 F840 X51.641 Y53.912
G0 X51.42 Y53.84
G0 F7200 X51.641 Y53.84
G1 F1200 X52.338 Y53.84 E32.86777
G1 X53.09 Y53.84 E32.91421
G1 X53.09 Y51.292 E33.07153
G1 X53.09 Y51.172 E33.07894
G1 X53.036 Y50.794 E33.10252
G1 X52.996 Y50.521 E33.11955
G1 X52.937 Y50.389 E33.12848
G1 X52.728 Y49.928 E33.15973
G1 X52.699 Y49.864 E33.16407
G1 X52.476 Y49.598 E33.1855
G1 X52.239 Y49.316 E33.20825
G1 X51.759 Y48.992 E33.244
G1 X51.641 Y48.912 E33.25281
G1 X51.404 Y48.835 E33.26819
G1 X50.984 Y48.698 E33.29547
G1 X50.548 Y48.66 E33.32249
G1 X50.458 Y48.66 E33.32805
G1 X33.542 Y48.66 E34.37251
G1 X33.422 Y48.66 E34.37992
G1 X33.044 Y48.714 E34.4035
G1 X32.771 Y48.754 E34.42053
G1 X32.639 Y48.813 E34.42946
G1 X32.178 Y49.022 E34.46071
G1 X32.114 Y49.051 E34.46505
G1 X31.848 Y49.274 E34.48648
G1 X31.566 Y49.511 E34.50923
G1 X31.242 Y49.991 E34.54499
G1 X31.162 Y50.109 E34.55379
G1 X31.085 Y50.346 E34.56917
G1 X30.948 Y50.766 E34.59645
G1 X30.91 Y51.202 E34.62347
G1 X30.91 Y51.292 E34.62903
G1 X30.91 Y53.793 E34.78345
G0 F840 X30.91 Y53.84
G0 X31.719 Y53.84
G0 F7200 X31.41 Y53.34
;TYPE:WALL-OUTER
G1 F1200 X52.59 Y53.34 E36.09119
G1 X52.59 Y51.208 E36.22283
G1 X52.511 Y50.662 E36.2569
G1 X52.272 Y50.133 E36.29274
G1 X51.901 Y49.691 E36.32837
G1 X51.419 Y49.366 E36.36426
G1 X50.883 Y49.191 E36.39908
G1 X50.526 Y49.16 E36.4212
G1 X33.458 Y49.16 E37.47505
G1 X32.912 Y49.239 E37.50911
G1 X32.383 Y49.478 E37.54495
G1 X31.941 Y49.849 E37.58058
G1 X31.616 Y50.331 E37.61648
G1 X31.441 Y50.867 E37.65129
G1 X31.41 Y51.224 E37.67342
G1 X31.41 Y52.484 E37.75122
G0 F840 X31.41 Y53.34
G0 F7200 X31.61 Y53.34
G0 X31.61 Y53.89
G1 F1800 E32.75122
G0 F7200 X31.41 Y58.34
G1 F1800 E37.75287 ;Adjusted e by 0.00165mm
G1 F1200 X52.59 Y58.34 E39.06061
G1 X52.59 Y56.208 E39.19224
G1 X52.511 Y55.662 E39.22631
G1 X52.272 Y55.133 E39.26215
G1 X51.901 Y54.691 E39.29778
G1 X51.419 Y54.366 E39.33367
G1 X50.883 Y54.191 E39.36849
G1 X50.526 Y54.16 E39.39061
G1 X33.458 Y54.16 E40.44446
G1 X32.912 Y54.239 E40.47853
G1 X32.383 Y54.478 E40.51437
G1 X31.941 Y54.849 E40.55
G1 X31.616 Y55.331 E40.58589
G1 X31.441 Y55.867 E40.62071
G1 X31.41 Y56.224 E40.64283
G1 X31.41 Y57.484 E40.72063
G0 F840 X31.41 Y58.34
G0 F7200 X31.61 Y58.34
G0 X31.61 Y58.89
G0 X30.91 Y59.16
;TYPE:WALL-INNER
G1 E40.72087 ;Adjusted e by 0.00024mm
G1 F1200 X30.91 Y61.663 E40.87541
G1 X30.952 Y62.255 E40.91206
G1 X30.987 Y62.359 E40.91883
G1 X31.182 Y62.925 E40.9558
G1 X31.591 Y63.517 E41.00022
G1 X31.811 Y63.696 E41.01774
G1 X32.037 Y63.88 E41.03573
G0 F840 X32.149 Y63.971
G0 X32.586 Y64.16
G0 F7200 X31.713 Y64.16
G1 F1200 X30.91 Y64.16 E41.08531
G1 X30.91 Y66.663 E41.23986
G1 X30.952 Y67.255 E41.2765
G1 X31.086 Y67.645 E41.30196
G1 X31.182 Y67.925 E41.32024
G1 X31.237 Y68.005 E41.32623
G1 X31.539 Y68.441 E41.35898
G1 X31.591 Y68.517 E41.36467
G1 X31.841 Y68.721 E41.38459
G1 X32.149 Y68.971 E41.40908
G1 X32.633 Y69.18 E41.44163
G1 X32.805 Y69.255 E41.45322
G1 X33.04 Y69.287 E41.46786
G1 X33.426 Y69.34 E41.49192
G1 X33.542 Y69.34 E41.49908
G1 X50.578 Y69.34 E42.55096
G1 X50.942 Y69.288 E42.57366
G1 X51.229 Y69.246 E42.59157
G1 X51.358 Y69.188 E42.6003
G1 X51.824 Y68.977 E42.63189
G1 X51.886 Y68.949 E42.63609
G1 X52.152 Y68.726 E42.65752
G1 X52.434 Y68.489 E42.68026
