;FLAVOR:Marlin
;TIME:4744
;Filament used: 9.59882m
;Layer height: 0.32
;MINX:77.75
;MINY:56.831
;MINZ:0.32
;MAXX:220.278
;MAXY:243.169
;MAXZ:17.96
;EOFFSETPROCESSED
;Generated with Cura_SteamEngine mb-master-20200328
M82 ;absolute extrusion mode
;
; Crashspace Printer Farm MP10 (C. Nicks Start Code + John Gwinner Probe Code)
;______________________________________________
;Sliced at: Sat 25-04-2020 02:40:10
;Layer Height: 0.32
;Line Width: 0.5
;Flow: 100
;Z-Hop: True
;______________________________________________
;
M140 S60 ; set bed temp
M104 S180.0 T0 ; set extruder park temp to warm but not ooze during bed probing ;Adjusted temp by 20
M190 S60 ; wait for bed temp
; Try to grab the ooze off the nozzle here before probing around
G28 ; home all axis
G29 P1; probes mesh
G29 P3; fill in mesh that can't be reached is good
G29 S0 ; save mesh
G29 F 10.0 ;prints linear above this height
G29 A ; use UBL
M104 S280.0 T0 ; set extruder temp ;Adjusted temp by 20
G92 E0;(Reset the extruder to 0)
G0 X0 Y30 Z2 F1500; (set into park)
M109 S280.0 T0 ; wait for extruder temp ;Adjusted temp by 20
G92 E0
G1 E7 F300; (Unretract from last ending code, plus add some for ooze)
;PRIME
G0 X0 Y30 Z0.2 F1500; (Knock off ooze)
G0 X2 Y30 Z0.4 F1500; (Knock off ooze)
G0 X3 Y30 Z1.0 F1500; (Knock off ooze)
G0 X5 Y30 Z0.32 F1000; (Lower into prime)
G91
G1 X5 Y+20 F1000 E5  ;PRIME
G1 X+0.5 ;PRIME
G1 Y-20 F1000 E5  ;PRIME
G90
G92 E0
G0 X0 Y20 F1500; (Knock off ooze)
G0 X0 Y20 Z0.2 F1500; (Knock off ooze)
G0 X2 Y20 Z0.4 F1500; (Knock off ooze)
G0 X3 Y20 Z1.0 F1500; (Knock off ooze)
G92 E0
;AND GO!!!!
G92 E0
G92 E0
G1 F2400 E-5
;LAYER_COUNT:53
;LAYER:0
M107
G1 F600 Z1.32
;MESH:Object 1
G0 F7200 X79.1 Y79.692 Z1.32
;TYPE:WALL-OUTER
G1 F600 Z0.32
G1 F2400 E0.0
G1 F1800 X79.406 Y79.434 E0.02583
G1 X79.748 Y79.209 E0.05224
G1 X80.102 Y79.031 E0.07781
G1 X80.494 Y78.889 E0.10471
G1 X80.898 Y78.793 E0.1315
G1 X81.292 Y78.747 E0.1571
G1 X81.515 Y78.74 E0.17149
G1 X98.471 Y78.74 E1.26558
G1 X98.919 Y78.767 E1.29453
G1 X99.301 Y78.834 E1.31956
G1 X99.711 Y78.956 E1.34716
G1 X100.063 Y79.108 E1.3719
G1 X100.441 Y79.326 E1.40006
G1 X100.741 Y79.55 E1.42421
G1 X101.058 Y79.85 E1.45238
G1 X101.316 Y80.156 E1.4782
G1 X101.541 Y80.498 E1.50462
G1 X101.719 Y80.852 E1.53018
G1 X101.861 Y81.244 E1.55709
G1 X101.957 Y81.648 E1.58388
G1 X102.003 Y82.032 E1.60883
G1 X102.01 Y82.25 E1.62291
G1 X102.01 Y97.721 E2.62117
G1 X101.983 Y98.169 E2.65013
G1 X101.916 Y98.551 E2.67515
G1 X101.794 Y98.961 E2.70275
G1 X101.642 Y99.313 E2.72749
G1 X101.424 Y99.691 E2.75565
G1 X101.2 Y99.991 E2.77981
G1 X100.9 Y100.308 E2.80797
G1 X100.594 Y100.566 E2.8338
G1 X100.252 Y100.791 E2.86021
G1 X99.898 Y100.969 E2.88578
G1 X99.506 Y101.111 E2.91268
G1 X99.102 Y101.207 E2.93947
G1 X98.708 Y101.253 E2.96507
G1 X98.485 Y101.26 E2.97947
G1 X81.529 Y101.26 E4.07355
G1 X81.081 Y101.233 E4.1025
G1 X80.699 Y101.166 E4.12753
G1 X80.289 Y101.044 E4.15513
G1 X79.937 Y100.892 E4.17987
G1 X79.559 Y100.674 E4.20803
G1 X79.259 Y100.45 E4.23218
G1 X78.942 Y100.15 E4.26035
G1 X78.681 Y99.84 E4.28649
G1 X78.459 Y99.502 E4.31259
G1 X78.281 Y99.148 E4.33815
G1 X78.139 Y98.756 E4.36506
G1 X78.043 Y98.352 E4.39185
G1 X77.997 Y97.958 E4.41745
G1 X77.99 Y97.75 E4.43087
G1 X77.99 Y82.279 E5.42914
G1 X78.017 Y81.831 E5.45809
G1 X78.084 Y81.449 E5.48312
G1 X78.206 Y81.039 E5.51072
G1 X78.358 Y80.687 E5.53546
G1 X78.576 Y80.309 E5.56362
G1 X78.8 Y80.009 E5.58777
G1 X79.1 Y79.692 E5.61594
G0 F7200 X79.253 Y79.563
G0 X79.607 Y79.983
G0 X79.95 Y80.838
G1 F1800 X79.624 Y81.316 E5.65327
G1 X79.446 Y81.851 E5.68965
G1 X79.41 Y82.222 E5.7137
G1 X79.41 Y84.34 E5.85037
G1 X100.59 Y84.34 E7.217
G1 X100.59 Y82.209 E7.3545
G1 X100.516 Y81.677 E7.38916
G1 X100.282 Y81.147 E7.42654
G1 X99.912 Y80.7 E7.46398
G1 X99.434 Y80.374 E7.50131
G1 X98.899 Y80.196 E7.5377
G1 X98.528 Y80.16 E7.56175
G1 X81.459 Y80.16 E8.66312
G1 X80.927 Y80.234 E8.69778
G1 X80.397 Y80.468 E8.73516
G1 X79.95 Y80.838 E8.7726
G0 F7200 X79.838 Y81.003
G0 X79.384 Y80.692
G0 X80.927 Y85.234
G1 E8.77331 ;Adjusted e by 0.00071mm
G1 F1800 X80.397 Y85.468 E8.81069
G1 X79.95 Y85.838 E8.84813
G1 X79.624 Y86.316 E8.88547
G1 X79.446 Y86.851 E8.92185
G1 X79.41 Y87.222 E8.9459
G1 X79.41 Y89.34 E9.08256
G1 X100.59 Y89.34 E10.4492
G1 X100.59 Y87.209 E10.5867
G1 X100.516 Y86.677 E10.62136
G1 X100.282 Y86.147 E10.65874
G1 X99.912 Y85.7 E10.69618
G1 X99.434 Y85.374 E10.73351
G1 X98.899 Y85.196 E10.76989
G1 X98.528 Y85.16 E10.79394
G1 X81.459 Y85.16 E11.89532
G1 X80.927 Y85.234 E11.92997
G0 F7200 X80.744 Y85.314
G0 X80.581 Y84.84
;TYPE:WALL-INNER
G1 F1800 X80.132 Y85.039 E11.96166
G1 X79.812 Y85.304 E11.98847
G1 X79.577 Y85.498 E12.00813
G1 X79.172 Y86.092 E12.05452
G1 X78.987 Y86.646 E12.09221
G1 X78.954 Y86.747 E12.09907
G1 X78.91 Y87.198 E12.12831
G1 X78.91 Y89.84 E12.29878
G1 X101.09 Y89.84 E13.72994
G1 X101.09 Y87.174 E13.90196
G1 X101.012 Y86.608 E13.93883
G1 X101.002 Y86.539 E13.94332
G1 X100.711 Y85.882 E13.98969
G1 X100.252 Y85.327 E14.03616
G1 X100.216 Y85.302 E14.03899
G1 X99.658 Y84.922 E14.08255
G1 X99.412 Y84.84 E14.09928
G0 F7200 X99.658 Y84.84
G1 F1800 X100.333 Y84.84 E14.12241
G1 X101.09 Y84.84 E14.17126
G1 X101.09 Y82.266 E14.33734
G1 X101.09 Y82.174 E14.34328
G1 X101.083 Y82.12 E14.34679
G1 X101.038 Y81.797 E14.36784
G1 X101.002 Y81.539 E14.38464
G1 X100.866 Y81.231 E14.40637
G1 X100.711 Y80.882 E14.43101
G1 X100.581 Y80.725 E14.44416
G1 X100.369 Y80.469 E14.46561
G1 X100.252 Y80.327 E14.47748
G1 X100.183 Y80.28 E14.48287
G1 X99.921 Y80.101 E14.50334
G1 X99.658 Y79.922 E14.52387
G1 X99.404 Y79.838 E14.54113
G1 X99.003 Y79.704 E14.56841
G1 X98.823 Y79.687 E14.58008
G1 X98.552 Y79.66 E14.59765
G1 X98.458 Y79.66 E14.60372
G1 X81.531 Y79.66 E15.69593
G1 X81.424 Y79.66 E15.70283
G1 X81.039 Y79.713 E15.72791
G1 X80.789 Y79.748 E15.74419
G1 X80.481 Y79.884 E15.76592
G1 X80.132 Y80.039 E15.79056
G1 X79.975 Y80.169 E15.80371
G1 X79.719 Y80.381 E15.82516
G1 X79.577 Y80.498 E15.83703
G1 X79.53 Y80.567 E15.84242
G1 X79.351 Y80.829 E15.86289
G1 X79.172 Y81.092 E15.88342
G1 X79.088 Y81.346 E15.90068
G1 X78.954 Y81.747 E15.92796
G1 X78.937 Y81.927 E15.93963
G1 X78.91 Y82.198 E15.9572
G1 X78.91 Y82.292 E15.96327
G1 X78.91 Y84.84 E16.12768
G1 X79.716 Y84.84 E16.17968
G1 X80.132 Y84.84 E16.19754
G0 F7200 X80.581 Y84.84
G1 F2400 E11.19754
G1 F600 Z1.32
G0 F7200 X79.41 Y90.66 Z1.32
;TYPE:WALL-OUTER
G1 F600 Z0.32
G1 F2400 E16.19833 ;Adjusted e by 0.00079mm
G1 F1800 X79.41 Y92.624 E16.32505
G1 X79.441 Y93.139 E16.35834
G1 X79.624 Y93.684 E16.39544
G1 X79.95 Y94.162 E16.43277
G1 X80.397 Y94.532 E16.47021
G1 X80.927 Y94.766 E16.5076
G1 X81.459 Y94.84 E16.54225
G1 X98.541 Y94.84 E17.64446
G1 X99.073 Y94.766 E17.67912
G1 X99.603 Y94.532 E17.7165
G1 X100.05 Y94.162 E17.75395
G1 X100.376 Y93.684 E17.79128
G1 X100.554 Y93.149 E17.82766
G1 X100.59 Y92.778 E17.85171
G1 X100.59 Y90.66 E17.98837
G1 X79.41 Y90.66 E19.35501
G0 F7200 X79.41 Y90.86
G0 X78.86 Y90.86
G0 X79.41 Y95.66
G1 E19.35573 ;Adjusted e by 0.00072mm
G1 F1800 X79.41 Y97.624 E19.48245
G1 X79.441 Y98.139 E19.51574
G1 X79.624 Y98.684 E19.55284
G1 X79.95 Y99.162 E19.59017
G1 X80.397 Y99.532 E19.62761
G1 X80.927 Y99.766 E19.665
G1 X81.459 Y99.84 E19.69965
G1 X98.541 Y99.84 E20.80186
G1 X99.073 Y99.766 E20.83652
G1 X99.603 Y99.532 E20.8739
G1 X100.05 Y99.162 E20.91135
G1 X100.376 Y98.684 E20.94868
G1 X100.554 Y98.149 E20.98506
G1 X100.59 Y97.778 E21.00911
G1 X100.59 Y95.66 E21.14577
G1 X79.41 Y95.66 E22.51241
G0 F7200 X79.41 Y95.86
G0 X79.716 Y95.16
;TYPE:WALL-INNER
G1 F1800 X78.91 Y95.16 E22.56441
G1 X78.91 Y97.639 E22.72437
G1 X78.914 Y97.707 E22.72877
G1 X78.925 Y97.893 E22.74079
G1 X78.946 Y98.235 E22.7629
G1 X79.026 Y98.473 E22.7791
G1 X79.139 Y98.81 E22.80203
G1 X79.172 Y98.909 E22.80877
G1 X79.245 Y99.017 E22.81718
G1 X79.438 Y99.299 E22.83923
G1 X79.577 Y99.502 E22.8551
G1 X79.856 Y99.733 E22.87847
G1 X80.132 Y99.961 E22.90157
G1 X80.336 Y100.051 E22.91596
G1 X80.632 Y100.182 E22.93685
G1 X80.789 Y100.252 E22.94794
G1 X80.874 Y100.263 E22.95347
G1 X81.195 Y100.308 E22.97438
G1 X81.424 Y100.34 E22.9893
G1 X81.542 Y100.34 E22.99692
G1 X98.469 Y100.34 E24.08913
G1 X98.576 Y100.34 E24.09603
G1 X98.961 Y100.287 E24.12111
G1 X99.211 Y100.252 E24.1374
G1 X99.519 Y100.116 E24.15912
G1 X99.868 Y99.961 E24.18376
G1 X100.025 Y99.831 E24.19691
G1 X100.281 Y99.619 E24.21836
G1 X100.423 Y99.502 E24.23023
G1 X100.47 Y99.433 E24.23562
G1 X100.649 Y99.171 E24.25609
G1 X100.828 Y98.908 E24.27662
G1 X100.912 Y98.654 E24.29388
G1 X101.046 Y98.253 E24.32116
G1 X101.063 Y98.073 E24.33283
G1 X101.09 Y97.802 E24.3504
G1 X101.09 Y97.708 E24.35647
G1 X101.09 Y95.16 E24.52088
G1 X100.284 Y95.16 E24.57288
G1 X99.868 Y95.16 E24.59973
G1 X99.419 Y95.16 E24.6287
G0 F7200 X99.868 Y94.961
G1 F1800 X100.188 Y94.696 E24.64651
G1 X100.423 Y94.502 E24.66617
G1 X100.828 Y93.908 E24.71256
G1 X101.013 Y93.354 E24.75025
G1 X101.046 Y93.253 E24.7571
G1 X101.09 Y92.802 E24.78634
G1 X101.09 Y90.16 E24.95681
G1 X78.91 Y90.16 E25.87459
G1 X78.91 Y92.639 E26.03455
G1 X78.946 Y93.235 E26.07307
G1 X78.987 Y93.359 E26.0815
G1 X79.172 Y93.909 E26.11894
G1 X79.577 Y94.502 E26.16528
G1 X79.812 Y94.696 E26.18494
G1 X80.132 Y94.961 E26.21175
G1 X80.581 Y95.16 E26.24344
G0 F7200 X80.132 Y95.16
G1 F1800 X79.716 Y95.16 E26.26129
G0 F7200 X78.49 Y97.733
G1 E26.26146 ;Adjusted e by 0.00017mm
G1 F1800 X78.49 Y97.639 E26.26685
G1 X78.49 Y95.16 E26.40149
G1 X78.49 Y93.366 E26.51724
G1 X78.49 Y93.235 E26.52532
G1 X78.49 Y92.639 E26.55903
G1 X78.49 Y90.16 E26.69367
G1 X78.49 Y89.84 E26.71431
G1 X78.49 Y87.198 E26.8578
G1 X78.49 Y86.747 E26.88355
G1 X78.49 Y86.64 E26.8902
G1 X78.49 Y84.84 E27.00634
G1 X78.49 Y82.292 E27.14472
G1 X78.497 Y82.173 E27.15142
G1 X78.515 Y81.886 E27.16716
G1 X78.55 Y81.678 E27.17885
G1 X78.57 Y81.567 E27.18493
G1 X78.677 Y81.21 E27.20553
G1 X78.805 Y80.913 E27.22367
G1 X78.993 Y80.586 E27.24474
G1 X79.184 Y80.331 E27.26238
G1 X79.286 Y80.223 E27.27034
G1 X79.447 Y80.053 E27.28338
G1 X79.701 Y79.839 E27.30176
G1 X79.909 Y79.702 E27.31563
G1 X79.998 Y79.643 E27.32252
G1 X80.305 Y79.489 E27.34135
G1 X80.639 Y79.368 E27.36084
G1 X80.695 Y79.355 E27.36455
G1 X80.979 Y79.287 E27.38069
G1 X81.33 Y79.246 E27.40023
G1 X81.411 Y79.244 E27.40545
G1 X81.531 Y79.24 E27.41208
G1 X98.458 Y79.24 E28.33137
G1 X98.577 Y79.247 E28.33807
G1 X98.864 Y79.265 E28.35381
G1 X99.072 Y79.3 E28.3655
G1 X99.183 Y79.32 E28.37158
G1 X99.54 Y79.427 E28.39219
G1 X99.837 Y79.555 E28.41032
G1 X100.164 Y79.743 E28.43139
G1 X100.419 Y79.934 E28.44904
G1 X100.527 Y80.036 E28.45699
G1 X100.697 Y80.197 E28.47004
G1 X100.911 Y80.451 E28.48842
G1 X101.048 Y80.659 E28.50228
G1 X101.107 Y80.748 E28.50917
G1 X101.261 Y81.055 E28.528
G1 X101.382 Y81.389 E28.54749
G1 X101.395 Y81.445 E28.5512
G1 X101.465 Y81.737 E28.5678
G1 X101.503 Y82.061 E28.5859
G1 X101.506 Y82.159 E28.59167
G1 X101.51 Y82.266 E28.59762
G1 X101.51 Y84.84 E28.73741
G1 X101.51 Y86.602 E28.8511
G1 X101.51 Y87.174 E28.88505
G1 X101.51 Y89.84 E29.02984
G1 X101.51 Y90.16 E29.05049
G1 X101.51 Y92.802 E29.19398
G1 X101.51 Y93.253 E29.21972
G1 X101.51 Y93.36 E29.22637
G1 X101.51 Y95.16 E29.34252
G1 X101.51 Y97.708 E29.4809
G1 X101.503 Y97.827 E29.4876
G1 X101.485 Y98.114 E29.50333
G1 X101.45 Y98.322 E29.51503
G1 X101.43 Y98.433 E29.52111
G1 X101.323 Y98.79 E29.54171
G1 X101.195 Y99.087 E29.55985
G1 X101.007 Y99.414 E29.58092
G1 X100.816 Y99.669 E29.59856
G1 X100.714 Y99.777 E29.60651
G1 X100.553 Y99.947 E29.61956
G1 X100.299 Y100.161 E29.63794
G1 X100.091 Y100.298 E29.65181
G1 X100.002 Y100.357 E29.6587
G1 X99.695 Y100.511 E29.67753
G1 X99.361 Y100.632 E29.69701
G1 X99.305 Y100.645 E29.70072
G1 X99.021 Y100.713 E29.71686
G1 X98.67 Y100.754 E29.7364
G1 X98.589 Y100.756 E29.74163
G1 X98.469 Y100.76 E29.74826
G1 X81.542 Y100.76 E30.66755
G1 X81.399 Y100.752 E30.67542
G1 X81.136 Y100.735 E30.69012
G1 X80.817 Y100.68 E30.70803
G1 X80.674 Y100.638 E30.71604
G1 X80.46 Y100.573 E30.72859
G1 X80.163 Y100.445 E30.74653
G1 X79.931 Y100.312 E30.76141
G1 X79.836 Y100.257 E30.76726
G1 X79.581 Y100.066 E30.78475
G1 X79.303 Y99.803 E30.80571
G1 X79.269 Y99.763 E30.80847
G1 X79.083 Y99.542 E30.82446
G1 X78.896 Y99.256 E30.84333
G1 X78.813 Y99.091 E30.85377
G1 X78.739 Y98.945 E30.863
G1 X78.618 Y98.611 E30.8826
G1 X78.551 Y98.33 E30.8986
G1 X78.537 Y98.271 E30.9018
G1 X78.496 Y97.919 E30.92117
G1 X78.49 Y97.733 E30.93152
G0 F7200 X78.99 Y94.66
G1 E30.93174 ;Adjusted e by 0.00022mm
G1 F900 X78.99 Y94.529 E30.94019
G0 F7200 X78.99 Y94.66
G1 F2400 E25.94019
G1 F600 Z1.32
G0 F7200 X78.99 Y85.472 Z1.32
G1 F600 Z0.32
G1 F2400 E30.94164 ;Adjusted e by 0.00145mm
G1 F900 X78.99 Y85.34 E30.95016
G1 X79.08 Y85.34 E30.95597
G0 F7200 X78.99 Y85.472
G1 F2400 E25.95597
G1 F600 Z1.32
G0 F7200 X100.912 Y85.34 Z1.32
G1 F600 Z0.32
G1 F2400 E30.95998 ;Adjusted e by 0.00401mm
G1 F900 X101.01 Y85.34 E30.9663
G1 X101.01 Y85.459 E30.97398
G0 F7200 X100.912 Y85.34
G1 F2400 E25.97398
G1 F600 Z1.32
G0 F7200 X100.92 Y94.66 Z1.32
G1 F600 Z0.32
G1 F2400 E30.97545 ;Adjusted e by 0.00147mm
G1 F900 X101.01 Y94.528 E30.98576
G0 F7200 X100.92 Y94.66
G0 X99.014 Y95.234
;TYPE:SKIN
G1 E30.98579 ;Adjusted e by 3e-05mm
G1 F1800 X80.985 Y95.234 E31.84897
G1 F2400 E26.84897
G1 F600 Z1.32
G0 F7200 X80.985 Y84.766 Z1.32
G1 F600 Z0.32
G1 F2400 E31.85067 ;Adjusted e by 0.0017mm
G1 F1800 X99.011 Y84.762 E32.70672
G1 F2400 E27.70672
G1 F600 Z1.32
;MESH:Object 2
G0 F7200 X106.99 Y82.279 Z1.32
;TYPE:WALL-OUTER
G1 F600 Z0.32
G1 F2400 E32.708 ;Adjusted e by 0.00128mm
G1 F1800 X107.017 Y81.831 E32.73696
G1 X107.084 Y81.449 E32.76199
G1 X107.206 Y81.039 E32.78959
G1 X107.358 Y80.687 E32.81433
G1 X107.573 Y80.315 E32.84205
G1 X107.812 Y79.994 E32.86788
G1 X108.09 Y79.698 E32.89408
G1 X108.4 Y79.438 E32.92018
G1 X108.754 Y79.206 E32.94749
G1 X109.102 Y79.031 E32.97263
G1 X109.494 Y78.889 E32.99953
G1 X109.898 Y78.793 E33.02632
G1 X110.292 Y78.747 E33.05192
G1 X110.515 Y78.74 E33.06631
G1 X127.471 Y78.74 E34.1604
G1 X127.919 Y78.767 E34.18935
G1 X128.301 Y78.834 E34.21438
G1 X128.711 Y78.956 E34.24198
G1 X129.063 Y79.108 E34.26672
G1 X129.441 Y79.326 E34.29488
G1 X129.741 Y79.55 E34.31903
G1 X130.058 Y79.85 E34.3472
G1 X130.316 Y80.156 E34.37302
G1 X130.541 Y80.498 E34.39944
G1 X130.719 Y80.852 E34.425
G1 X130.861 Y81.244 E34.45191
G1 X130.957 Y81.648 E34.4787
G1 X131.003 Y82.032 E34.50365
G1 X131.01 Y82.25 E34.51773
G1 X131.01 Y97.721 E35.51599
G1 X130.983 Y98.169 E35.54495
G1 X130.916 Y98.551 E35.56997
G1 X130.794 Y98.961 E35.59757
G1 X130.642 Y99.313 E35.62231
G1 X130.424 Y99.691 E35.65047
G1 X130.2 Y99.991 E35.67463
G1 X129.9 Y100.308 E35.70279
G1 X129.594 Y100.566 E35.72862
G1 X129.252 Y100.791 E35.75503
G1 X128.898 Y100.969 E35.7806
G1 X128.506 Y101.111 E35.8075
G1 X128.102 Y101.207 E35.83429
G1 X127.708 Y101.253 E35.85989
G1 X127.485 Y101.26 E35.87429
G1 X110.529 Y101.26 E36.96837
G1 X110.081 Y101.233 E36.99732
G1 X109.699 Y101.166 E37.02235
G1 X109.289 Y101.044 E37.04995
G1 X108.937 Y100.892 E37.07469
G1 X108.559 Y100.674 E37.10285
G1 X108.259 Y100.45 E37.127
G1 X107.942 Y100.15 E37.15517
G1 X107.681 Y99.84 E37.18131
G1 X107.459 Y99.502 E37.20741
G1 X107.281 Y99.148 E37.23297
G1 X107.139 Y98.756 E37.25988
G1 X107.043 Y98.352 E37.28667
G1 X106.997 Y97.958 E37.31227
G1 X106.99 Y97.75 E37.32569
G1 X106.99 Y82.279 E38.32396
G0 F7200 X107.002 Y82.079
G0 X107.552 Y82.112
G0 X108.41 Y82.222
G1 F1800 X108.41 Y84.34 E38.46062
G1 X129.59 Y84.34 E39.82725
G1 X129.59 Y82.209 E39.96475
G1 X129.516 Y81.676 E39.99947
G1 X129.282 Y81.146 E40.03686
G1 X128.912 Y80.7 E40.07425
G1 X128.434 Y80.374 E40.11158
G1 X127.899 Y80.196 E40.14796
G1 X127.528 Y80.16 E40.17201
G1 X110.459 Y80.16 E41.27339
G1 X109.927 Y80.234 E41.30804
G1 X109.397 Y80.468 E41.34543
G1 X108.95 Y80.838 E41.38287
G1 X108.624 Y81.316 E41.4202
G1 X108.446 Y81.851 E41.45658
G1 X108.41 Y82.222 E41.48063
G0 F7200 X108.41 Y82.422
G0 X107.86 Y82.422
G0 X109.397 Y85.468
G1 E41.48107 ;Adjusted e by 0.00044mm
G1 F1800 X108.95 Y85.838 E41.51851
G1 X108.624 Y86.316 E41.55585
G1 X108.446 Y86.851 E41.59223
G1 X108.41 Y87.222 E41.61628
