;FLAVOR:Marlin
;TIME:4744
;Filament used: 10.19m
;Layer height: 0.32
;MINX:77.75
;MINY:56.831
;MINZ:0.32
;MAXX:220.278
;MAXY:243.169
;MAXZ:17.96
;EOFFSETPROCESSED
;Generated with Cura_SteamEngine mb-master-20200328
M82 ;absolute extrusion mode
;
; Crashspace Printer Farm MP10 (C. Nicks Start Code + John Gwinner Probe Code)
;______________________________________________
;Sliced at: Sat 25-04-2020 02:40:10
;Layer Height: 0.32
;Line Width: 0.5
;Flow: 106
;Z-Hop: True
;______________________________________________
;
M140 S60 ; set bed temp
M104 S180.0 T0 ; set extruder park temp to warm but not ooze during bed probing ;Adjusted temp by 20
M190 S60 ; wait for bed temp
; Try to grab the ooze off the nozzle here before probing around
G28 ; home all axis
G29 P1; probes mesh
G29 P3; fill in mesh that can't be reached is good
G29 S0 ; save mesh
G29 F 10.0 ;prints linear above this height
G29 A ; use UBL
M104 S280.0 T0 ; set extruder temp ;Adjusted temp by 20
G92 E0;(Reset the extruder to 0)
G0 X0 Y30 Z2 F1500; (set into park)
M109 S280.0 T0 ; wait for extruder temp ;Adjusted temp by 20
G92 E0
G1 E7 F300; (Unretract from last ending code, plus add some for ooze)
;PRIME
G0 X0 Y30 Z0.2 F1500; (Knock off ooze)
G0 X2 Y30 Z0.4 F1500; (Knock off ooze)
G0 X3 Y30 Z1.0 F1500; (Knock off ooze)
G0 X5 Y30 Z0.32 F1000; (Lower into prime)
G91
G1 X5 Y+20 F1000 E5  ;PRIME
G1 X+0.5 ;PRIME
G1 Y-20 F1000 E5  ;PRIME
G90
G92 E0
G0 X0 Y20 F1500; (Knock off ooze)
G0 X0 Y20 Z0.2 F1500; (Knock off ooze)
G0 X2 Y20 Z0.4 F1500; (Knock off ooze)
G0 X3 Y20 Z1.0 F1500; (Knock off ooze)
G92 E0
;AND GO!!!!
G92 E0
G92 E0
G1 F2400 E-5
;LAYER_COUNT:53
;LAYER:0
M107
G1 F600 Z1.32
;MESH:Object 1
G0 F7200 X79.1 Y79.692 Z1.32
;TYPE:WALL-OUTER
G1 F600 Z0.32
G1 F2400 E0.0
G1 F1800 X79.406 Y79.434 E0.02822
G1 X79.748 Y79.209 E0.05709
G1 X80.102 Y79.031 E0.08503
G1 X80.494 Y78.889 E0.11443
G1 X80.898 Y78.793 E0.1437
G1 X81.292 Y78.747 E0.17168
G1 X81.515 Y78.74 E0.18741
G1 X98.471 Y78.74 E1.383
G1 X98.919 Y78.767 E1.41465
G1 X99.301 Y78.834 E1.44199
G1 X99.711 Y78.956 E1.47216
G1 X100.063 Y79.108 E1.49919
G1 X100.441 Y79.326 E1.52996
G1 X100.741 Y79.55 E1.55636
G1 X101.058 Y79.85 E1.58713
G1 X101.316 Y80.156 E1.61536
G1 X101.541 Y80.498 E1.64422
G1 X101.719 Y80.852 E1.67216
G1 X101.861 Y81.244 E1.70156
G1 X101.957 Y81.648 E1.73084
G1 X102.003 Y82.032 E1.75811
G1 X102.01 Y82.25 E1.77349
G1 X102.01 Y97.721 E2.86437
G1 X101.983 Y98.169 E2.89602
G1 X101.916 Y98.551 E2.92336
G1 X101.794 Y98.961 E2.95353
G1 X101.642 Y99.313 E2.98056
G1 X101.424 Y99.691 E3.01133
G1 X101.2 Y99.991 E3.03773
G1 X100.9 Y100.308 E3.0685
G1 X100.594 Y100.566 E3.09673
G1 X100.252 Y100.791 E3.12559
G1 X99.898 Y100.969 E3.15353
G1 X99.506 Y101.111 E3.18293
G1 X99.102 Y101.207 E3.21221
G1 X98.708 Y101.253 E3.24018
G1 X98.485 Y101.26 E3.25591
G1 X81.529 Y101.26 E4.4515
G1 X81.081 Y101.233 E4.48315
G1 X80.699 Y101.166 E4.5105
G1 X80.289 Y101.044 E4.54066
G1 X79.937 Y100.892 E4.56769
G1 X79.559 Y100.674 E4.59846
G1 X79.259 Y100.45 E4.62486
G1 X78.942 Y100.15 E4.65564
G1 X78.681 Y99.84 E4.68421
G1 X78.459 Y99.502 E4.71272
G1 X78.281 Y99.148 E4.74066
G1 X78.139 Y98.756 E4.77006
G1 X78.043 Y98.352 E4.79934
G1 X77.997 Y97.958 E4.82731
G1 X77.99 Y97.75 E4.84199
G1 X77.99 Y82.279 E5.93287
G1 X78.017 Y81.831 E5.96452
G1 X78.084 Y81.449 E5.99186
G1 X78.206 Y81.039 E6.02203
G1 X78.358 Y80.687 E6.04906
G1 X78.576 Y80.309 E6.07983
G1 X78.8 Y80.009 E6.10623
G1 X79.1 Y79.692 E6.137
G0 F7200 X79.253 Y79.563
G0 X79.607 Y79.983
G0 X79.95 Y80.838
G1 F1800 X79.624 Y81.316 E6.1778
G1 X79.446 Y81.851 E6.21756
G1 X79.41 Y82.222 E6.24384
G1 X79.41 Y84.34 E6.39318
G1 X100.59 Y84.34 E7.88662
G1 X100.59 Y82.209 E8.03688
G1 X100.516 Y81.677 E8.07475
G1 X100.282 Y81.147 E8.1156
G1 X99.912 Y80.7 E8.15652
G1 X99.434 Y80.374 E8.19731
G1 X98.899 Y80.196 E8.23707
G1 X98.528 Y80.16 E8.26335
G1 X81.459 Y80.16 E9.46691
G1 X80.927 Y80.234 E9.50479
G1 X80.397 Y80.468 E9.54564
G1 X79.95 Y80.838 E9.58655
G0 F7200 X79.838 Y81.003
G0 X79.384 Y80.692
G0 X80.927 Y85.234
G1 E9.58726 ;Adjusted e by 0.00071mm
G1 F1800 X80.397 Y85.468 E9.62811
G1 X79.95 Y85.838 E9.66903
G1 X79.624 Y86.316 E9.70983
G1 X79.446 Y86.851 E9.74958
G1 X79.41 Y87.222 E9.77587
G1 X79.41 Y89.34 E9.92521
G1 X100.59 Y89.34 E11.41864
G1 X100.59 Y87.209 E11.5689
G1 X100.516 Y86.677 E11.60678
G1 X100.282 Y86.147 E11.64763
G1 X99.912 Y85.7 E11.68854
G1 X99.434 Y85.374 E11.72934
G1 X98.899 Y85.196 E11.7691
G1 X98.528 Y85.16 E11.79538
G1 X81.459 Y85.16 E12.99894
G1 X80.927 Y85.234 E13.03681
G0 F7200 X80.744 Y85.314
G0 X80.581 Y84.84
;TYPE:WALL-INNER
G1 F1800 X80.132 Y85.039 E13.07144
G1 X79.812 Y85.304 E13.10074
G1 X79.577 Y85.498 E13.12223
G1 X79.172 Y86.092 E13.17292
G1 X78.987 Y86.646 E13.2141
G1 X78.954 Y86.747 E13.22159
G1 X78.91 Y87.198 E13.25355
G1 X78.91 Y89.84 E13.43984
G1 X101.09 Y89.84 E15.00378
G1 X101.09 Y87.174 E15.19177
G1 X101.012 Y86.608 E15.23205
G1 X101.002 Y86.539 E15.23697
G1 X100.711 Y85.882 E15.28764
G1 X100.252 Y85.327 E15.33842
G1 X100.216 Y85.302 E15.34151
G1 X99.658 Y84.922 E15.38911
G1 X99.412 Y84.84 E15.4074
G0 F7200 X99.658 Y84.84
G1 F1800 X100.333 Y84.84 E15.43267
G1 X101.09 Y84.84 E15.48605
G1 X101.09 Y82.266 E15.66755
G1 X101.09 Y82.174 E15.67403
G1 X101.083 Y82.12 E15.67787
G1 X101.038 Y81.797 E15.70087
G1 X101.002 Y81.539 E15.71924
G1 X100.866 Y81.231 E15.74298
G1 X100.711 Y80.882 E15.7699
G1 X100.581 Y80.725 E15.78428
G1 X100.369 Y80.469 E15.80771
G1 X100.252 Y80.327 E15.82069
G1 X100.183 Y80.28 E15.82657
G1 X99.921 Y80.101 E15.84895
G1 X99.658 Y79.922 E15.87138
G1 X99.404 Y79.838 E15.89024
G1 X99.003 Y79.704 E15.92005
G1 X98.823 Y79.687 E15.9328
G1 X98.552 Y79.66 E15.95201
G1 X98.458 Y79.66 E15.95863
G1 X81.531 Y79.66 E17.15218
G1 X81.424 Y79.66 E17.15973
G1 X81.039 Y79.713 E17.18713
G1 X80.789 Y79.748 E17.20493
G1 X80.481 Y79.884 E17.22867
G1 X80.132 Y80.039 E17.2556
G1 X79.975 Y80.169 E17.26997
G1 X79.719 Y80.381 E17.29341
G1 X79.577 Y80.498 E17.30638
G1 X79.53 Y80.567 E17.31227
G1 X79.351 Y80.829 E17.33464
G1 X79.172 Y81.092 E17.35707
G1 X79.088 Y81.346 E17.37594
G1 X78.954 Y81.747 E17.40575
G1 X78.937 Y81.927 E17.4185
G1 X78.91 Y82.198 E17.4377
G1 X78.91 Y82.292 E17.44433
G1 X78.91 Y84.84 E17.62399
G1 X79.716 Y84.84 E17.68082
G1 X80.132 Y84.84 E17.70033
G0 F7200 X80.581 Y84.84
G1 F2400 E12.70033
G1 F600 Z1.32
G0 F7200 X79.41 Y90.66 Z1.32
;TYPE:WALL-OUTER
G1 F600 Z0.32
G1 F2400 E17.70112 ;Adjusted e by 0.00079mm
G1 F1800 X79.41 Y92.624 E17.83961
G1 X79.441 Y93.139 E17.87599
G1 X79.624 Y93.684 E17.91653
G1 X79.95 Y94.162 E17.95732
G1 X80.397 Y94.532 E17.99824
G1 X80.927 Y94.766 E18.03909
G1 X81.459 Y94.84 E18.07696
G1 X98.541 Y94.84 E19.28144
G1 X99.073 Y94.766 E19.31931
G1 X99.603 Y94.532 E19.36016
G1 X100.05 Y94.162 E19.40108
G1 X100.376 Y93.684 E19.44188
G1 X100.554 Y93.149 E19.48163
G1 X100.59 Y92.778 E19.50792
G1 X100.59 Y90.66 E19.65726
G1 X79.41 Y90.66 E21.15069
G0 F7200 X79.41 Y90.86
G0 X78.86 Y90.86
G0 X79.41 Y95.66
G1 E21.15141 ;Adjusted e by 0.00072mm
G1 F1800 X79.41 Y97.624 E21.2899
G1 X79.441 Y98.139 E21.32628
G1 X79.624 Y98.684 E21.36681
G1 X79.95 Y99.162 E21.40761
G1 X80.397 Y99.532 E21.44853
G1 X80.927 Y99.766 E21.48938
G1 X81.459 Y99.84 E21.52725
G1 X98.541 Y99.84 E22.73173
G1 X99.073 Y99.766 E22.7696
G1 X99.603 Y99.532 E22.81045
G1 X100.05 Y99.162 E22.85137
G1 X100.376 Y98.684 E22.89216
G1 X100.554 Y98.149 E22.93192
G1 X100.59 Y97.778 E22.9582
G1 X100.59 Y95.66 E23.10755
G1 X79.41 Y95.66 E24.60098
G0 F7200 X79.41 Y95.86
G0 X79.716 Y95.16
;TYPE:WALL-INNER
G1 F1800 X78.91 Y95.16 E24.65781
G1 X78.91 Y97.639 E24.83261
G1 X78.914 Y97.707 E24.83741
G1 X78.925 Y97.893 E24.85055
G1 X78.946 Y98.235 E24.87471
G1 X79.026 Y98.473 E24.89242
G1 X79.139 Y98.81 E24.91748
G1 X79.172 Y98.909 E24.92484
G1 X79.245 Y99.017 E24.93403
G1 X79.438 Y99.299 E24.95812
G1 X79.577 Y99.502 E24.97547
G1 X79.856 Y99.733 E25.00101
G1 X80.132 Y99.961 E25.02626
G1 X80.336 Y100.051 E25.04198
G1 X80.632 Y100.182 E25.0648
G1 X80.789 Y100.252 E25.07692
G1 X80.874 Y100.263 E25.08297
G1 X81.195 Y100.308 E25.10582
G1 X81.424 Y100.34 E25.12213
G1 X81.542 Y100.34 E25.13045
G1 X98.469 Y100.34 E26.32399
G1 X98.576 Y100.34 E26.33154
G1 X98.961 Y100.287 E26.35894
G1 X99.211 Y100.252 E26.37674
G1 X99.519 Y100.116 E26.40048
G1 X99.868 Y99.961 E26.42741
G1 X100.025 Y99.831 E26.44178
G1 X100.281 Y99.619 E26.46522
G1 X100.423 Y99.502 E26.47819
G1 X100.47 Y99.433 E26.48408
G1 X100.649 Y99.171 E26.50645
G1 X100.828 Y98.908 E26.52888
G1 X100.912 Y98.654 E26.54775
G1 X101.046 Y98.253 E26.57756
G1 X101.063 Y98.073 E26.59031
G1 X101.09 Y97.802 E26.60951
G1 X101.09 Y97.708 E26.61614
G1 X101.09 Y95.16 E26.7958
G1 X100.284 Y95.16 E26.85264
G1 X99.868 Y95.16 E26.88197
G1 X99.419 Y95.16 E26.91363
G0 F7200 X99.868 Y94.961
G1 F1800 X100.188 Y94.696 E26.93309
G1 X100.423 Y94.502 E26.95458
G1 X100.828 Y93.908 E27.00527
G1 X101.013 Y93.354 E27.04645
G1 X101.046 Y93.253 E27.05395
G1 X101.09 Y92.802 E27.0859
G1 X101.09 Y90.16 E27.27219
G1 X78.91 Y90.16 E28.27512
G1 X78.91 Y92.639 E28.44992
G1 X78.946 Y93.235 E28.49202
G1 X78.987 Y93.359 E28.50123
G1 X79.172 Y93.909 E28.54214
G1 X79.577 Y94.502 E28.59278
G1 X79.812 Y94.696 E28.61427
G1 X80.132 Y94.961 E28.64356
G1 X80.581 Y95.16 E28.67819
G0 F7200 X80.132 Y95.16
G1 F1800 X79.716 Y95.16 E28.6977
G0 F7200 X78.49 Y97.733
G1 E28.69787 ;Adjusted e by 0.00017mm
G1 F1800 X78.49 Y97.639 E28.70376
G1 X78.49 Y95.16 E28.85089
G1 X78.49 Y93.366 E28.97738
G1 X78.49 Y93.235 E28.98621
G1 X78.49 Y92.639 E29.02305
G1 X78.49 Y90.16 E29.17018
G1 X78.49 Y89.84 E29.19274
G1 X78.49 Y87.198 E29.34954
G1 X78.49 Y86.747 E29.37768
G1 X78.49 Y86.64 E29.38494
G1 X78.49 Y84.84 E29.51186
G1 X78.49 Y82.292 E29.66308
G1 X78.497 Y82.173 E29.6704
G1 X78.515 Y81.886 E29.6876
G1 X78.55 Y81.678 E29.70038
G1 X78.57 Y81.567 E29.70702
G1 X78.677 Y81.21 E29.72954
G1 X78.805 Y80.913 E29.74936
G1 X78.993 Y80.586 E29.77238
G1 X79.184 Y80.331 E29.79166
G1 X79.286 Y80.223 E29.80035
G1 X79.447 Y80.053 E29.81461
G1 X79.701 Y79.839 E29.8347
G1 X79.909 Y79.702 E29.84985
G1 X79.998 Y79.643 E29.85738
G1 X80.305 Y79.489 E29.87796
G1 X80.639 Y79.368 E29.89925
G1 X80.695 Y79.355 E29.9033
G1 X80.979 Y79.287 E29.92094
G1 X81.33 Y79.246 E29.94229
G1 X81.411 Y79.244 E29.94801
G1 X81.531 Y79.24 E29.95525
G1 X98.458 Y79.24 E30.95984
G1 X98.577 Y79.247 E30.96716
G1 X98.864 Y79.265 E30.98435
G1 X99.072 Y79.3 E30.99713
G1 X99.183 Y79.32 E31.00378
G1 X99.54 Y79.427 E31.02629
G1 X99.837 Y79.555 E31.04611
G1 X100.164 Y79.743 E31.06913
G1 X100.419 Y79.934 E31.08841
G1 X100.527 Y80.036 E31.09711
G1 X100.697 Y80.197 E31.11136
G1 X100.911 Y80.451 E31.13145
G1 X101.048 Y80.659 E31.1466
G1 X101.107 Y80.748 E31.15413
G1 X101.261 Y81.055 E31.17471
G1 X101.382 Y81.389 E31.196
G1 X101.395 Y81.445 E31.20006
G1 X101.465 Y81.737 E31.2182
G1 X101.503 Y82.061 E31.23798
G1 X101.506 Y82.159 E31.24428
G1 X101.51 Y82.266 E31.25078
G1 X101.51 Y84.84 E31.40354
G1 X101.51 Y86.602 E31.52778
G1 X101.51 Y87.174 E31.56489
G1 X101.51 Y89.84 E31.72311
G1 X101.51 Y90.16 E31.74568
G1 X101.51 Y92.802 E31.90247
G1 X101.51 Y93.253 E31.93061
G1 X101.51 Y93.36 E31.93788
G1 X101.51 Y95.16 E32.0648
G1 X101.51 Y97.708 E32.21602
G1 X101.503 Y97.827 E32.22334
G1 X101.485 Y98.114 E32.24054
G1 X101.45 Y98.322 E32.25331
G1 X101.43 Y98.433 E32.25996
G1 X101.323 Y98.79 E32.28247
G1 X101.195 Y99.087 E32.30229
G1 X101.007 Y99.414 E32.32531
G1 X100.816 Y99.669 E32.3446
G1 X100.714 Y99.777 E32.35329
G1 X100.553 Y99.947 E32.36755
G1 X100.299 Y100.161 E32.38763
G1 X100.091 Y100.298 E32.40278
G1 X100.002 Y100.357 E32.41031
G1 X99.695 Y100.511 E32.43089
G1 X99.361 Y100.632 E32.45219
G1 X99.305 Y100.645 E32.45624
G1 X99.021 Y100.713 E32.47388
G1 X98.67 Y100.754 E32.49523
G1 X98.589 Y100.756 E32.50094
G1 X98.469 Y100.76 E32.50818
G1 X81.542 Y100.76 E33.51277
G1 X81.399 Y100.752 E33.52137
G1 X81.136 Y100.735 E33.53744
G1 X80.817 Y100.68 E33.557
G1 X80.674 Y100.638 E33.56576
G1 X80.46 Y100.573 E33.57947
G1 X80.163 Y100.445 E33.59908
G1 X79.931 Y100.312 E33.61534
G1 X79.836 Y100.257 E33.62173
G1 X79.581 Y100.066 E33.64084
G1 X79.303 Y99.803 E33.66375
G1 X79.269 Y99.763 E33.66676
G1 X79.083 Y99.542 E33.68424
G1 X78.896 Y99.256 E33.70487
G1 X78.813 Y99.091 E33.71627
G1 X78.739 Y98.945 E33.72636
G1 X78.618 Y98.611 E33.74777
G1 X78.551 Y98.33 E33.76526
G1 X78.537 Y98.271 E33.76876
G1 X78.496 Y97.919 E33.78992
G1 X78.49 Y97.733 E33.80123
G0 F7200 X78.99 Y94.66
G1 E33.80145 ;Adjusted e by 0.00022mm
G1 F900 X78.99 Y94.529 E33.81069
G0 F7200 X78.99 Y94.66
G1 F2400 E28.81069
G1 F600 Z1.32
G0 F7200 X78.99 Y85.472 Z1.32
G1 F600 Z0.32
G1 F2400 E33.81214 ;Adjusted e by 0.00145mm
G1 F900 X78.99 Y85.34 E33.82145
G1 X79.08 Y85.34 E33.82779
G0 F7200 X78.99 Y85.472
G1 F2400 E28.82779
G1 F600 Z1.32
G0 F7200 X100.912 Y85.34 Z1.32
G1 F600 Z0.32
G1 F2400 E33.8318 ;Adjusted e by 0.00401mm
G1 F900 X101.01 Y85.34 E33.83871
G1 X101.01 Y85.459 E33.8471
G0 F7200 X100.912 Y85.34
G1 F2400 E28.8471
G1 F600 Z1.32
G0 F7200 X100.92 Y94.66 Z1.32
G1 F600 Z0.32
G1 F2400 E33.84857 ;Adjusted e by 0.00147mm
G1 F900 X101.01 Y94.528 E33.85984
G0 F7200 X100.92 Y94.66
G0 X99.014 Y95.234
;TYPE:SKIN
G1 E33.85987 ;Adjusted e by 3e-05mm
G1 F1800 X80.985 Y95.234 E34.80314
G1 F2400 E29.80314
G1 F600 Z1.32
G0 F7200 X80.985 Y84.766 Z1.32
G1 F600 Z0.32
G1 F2400 E34.80484 ;Adjusted e by 0.0017mm
G1 F1800 X99.011 Y84.762 E35.74032
G1 F2400 E30.74032
G1 F600 Z1.32
;MESH:Object 2
G0 F7200 X106.99 Y82.279 Z1.32
;TYPE:WALL-OUTER
G1 F600 Z0.32
G1 F2400 E35.7416 ;Adjusted e by 0.00128mm
G1 F1800 X107.017 Y81.831 E35.77325
G1 X107.084 Y81.449 E35.80059
G1 X107.206 Y81.039 E35.83076
G1 X107.358 Y80.687 E35.85779
G1 X107.573 Y80.315 E35.88809
G1 X107.812 Y79.994 E35.91631
G1 X108.09 Y79.698 E35.94494
G1 X108.4 Y79.438 E35.97347
G1 X108.754 Y79.206 E36.00331
G1 X109.102 Y79.031 E36.03078
G1 X109.494 Y78.889 E36.06018
G1 X109.898 Y78.793 E36.08946
G1 X110.292 Y78.747 E36.11743
G1 X110.515 Y78.74 E36.13316
G1 X127.471 Y78.74 E37.32875
G1 X127.919 Y78.767 E37.3604
G1 X128.301 Y78.834 E37.38774
G1 X128.711 Y78.956 E37.41791
G1 X129.063 Y79.108 E37.44494
G1 X129.441 Y79.326 E37.47571
G1 X129.741 Y79.55 E37.50211
G1 X130.058 Y79.85 E37.53289
G1 X130.316 Y80.156 E37.56111
G1 X130.541 Y80.498 E37.58997
G1 X130.719 Y80.852 E37.61791
G1 X130.861 Y81.244 E37.64731
G1 X130.957 Y81.648 E37.67659
G1 X131.003 Y82.032 E37.70386
G1 X131.01 Y82.25 E37.71924
G1 X131.01 Y97.721 E38.81012
G1 X130.983 Y98.169 E38.84177
G1 X130.916 Y98.551 E38.86912
G1 X130.794 Y98.961 E38.89928
G1 X130.642 Y99.313 E38.92631
G1 X130.424 Y99.691 E38.95708
G1 X130.2 Y99.991 E38.98348
G1 X129.9 Y100.308 E39.01426
G1 X129.594 Y100.566 E39.04248
G1 X129.252 Y100.791 E39.07134
G1 X128.898 Y100.969 E39.09928
G1 X128.506 Y101.111 E39.12868
G1 X128.102 Y101.207 E39.15796
G1 X127.708 Y101.253 E39.18593
G1 X127.485 Y101.26 E39.20166
G1 X110.529 Y101.26 E40.39726
G1 X110.081 Y101.233 E40.4289
G1 X109.699 Y101.166 E40.45625
G1 X109.289 Y101.044 E40.48641
G1 X108.937 Y100.892 E40.51345
G1 X108.559 Y100.674 E40.54421
G1 X108.259 Y100.45 E40.57061
G1 X107.942 Y100.15 E40.60139
G1 X107.681 Y99.84 E40.62996
G1 X107.459 Y99.502 E40.65848
G1 X107.281 Y99.148 E40.68642
G1 X107.139 Y98.756 E40.71581
G1 X107.043 Y98.352 E40.74509
G1 X106.997 Y97.958 E40.77306
G1 X106.99 Y97.75 E40.78774
G1 X106.99 Y82.279 E41.87862
G0 F7200 X107.002 Y82.079
G0 X107.552 Y82.112
G0 X108.41 Y82.222
G1 F1800 X108.41 Y84.34 E42.02797
G1 X129.59 Y84.34 E43.5214
G1 X129.59 Y82.209 E43.67166
G1 X129.516 Y81.676 E43.7096
G1 X129.282 Y81.146 E43.75045
G1 X128.912 Y80.7 E43.79131
G1 X128.434 Y80.374 E43.83211
G1 X127.899 Y80.196 E43.87187
G1 X127.528 Y80.16 E43.89815
G1 X110.459 Y80.16 E45.10171
G1 X109.927 Y80.234 E45.13958
G1 X109.397 Y80.468 E45.18044
G1 X108.95 Y80.838 E45.22135
G1 X108.624 Y81.316 E45.26215
G1 X108.446 Y81.851 E45.3019
G1 X108.41 Y82.222 E45.32819
G0 F7200 X108.41 Y82.422
G0 X107.86 Y82.422
G0 X109.397 Y85.468
G1 E45.32863 ;Adjusted e by 0.00044mm
G1 F1800 X108.95 Y85.838 E45.36954
G1 X108.624 Y86.316 E45.41034
G1 X108.446 Y86.851 E45.4501
G1 X108.41 Y87.222 E45.47638
