;FLAVOR:Marlin
;TIME:4744
;Filament used: 9.99552m
;Layer height: 0.32
;MINX:77.75
;MINY:56.831
;MINZ:0.32
;MAXX:220.278
;MAXY:243.169
;MAXZ:17.96
;EOFFSETPROCESSED
;Generated with Cura_SteamEngine mb-master-20200328
M82 ;absolute extrusion mode
;
; Crashspace Printer Farm MP10 (C. Nicks Start Code + John Gwinner Probe Code)
;______________________________________________
;Sliced at: Sat 25-04-2020 02:40:10
;Layer Height: 0.32
;Line Width: 0.5
;Flow: 104
;Z-Hop: True
;______________________________________________
;
M140 S60 ; set bed temp
M104 S180.0 T0 ; set extruder park temp to warm but not ooze during bed probing ;Adjusted temp by 20
M190 S60 ; wait for bed temp
; Try to grab the ooze off the nozzle here before probing around
G28 ; home all axis
G29 P1; probes mesh
G29 P3; fill in mesh that can't be reached is good
G29 S0 ; save mesh
G29 F 10.0 ;prints linear above this height
G29 A ; use UBL
M104 S280.0 T0 ; set extruder temp ;Adjusted temp by 20
G92 E0;(Reset the extruder to 0)
G0 X0 Y30 Z2 F1500; (set into park)
M109 S280.0 T0 ; wait for extruder temp ;Adjusted temp by 20
G92 E0
G1 E7 F300; (Unretract from last ending code, plus add some for ooze)
;PRIME
G0 X0 Y30 Z0.2 F1500; (Knock off ooze)
G0 X2 Y30 Z0.4 F1500; (Knock off ooze)
G0 X3 Y30 Z1.0 F1500; (Knock off ooze)
G0 X5 Y30 Z0.32 F1000; (Lower into prime)
G91
G1 X5 Y+20 F1000 E5  ;PRIME
G1 X+0.5 ;PRIME
G1 Y-20 F1000 E5  ;PRIME
G90
G92 E0
G0 X0 Y20 F1500; (Knock off ooze)
G0 X0 Y20 Z0.2 F1500; (Knock off ooze)
G0 X2 Y20 Z0.4 F1500; (Knock off ooze)
G0 X3 Y20 Z1.0 F1500; (Knock off ooze)
G92 E0
;AND GO!!!!
G92 E0
G92 E0
G1 F2400 E-5
;LAYER_COUNT:53
;LAYER:0
M107
G1 F600 Z1.32
;MESH:Object 1
G0 F7200 X79.1 Y79.692 Z1.32
;TYPE:WALL-OUTER
G1 F600 Z0.32
G1 F2400 E0.0
G1 F1800 X79.406 Y79.434 E0.02769
G1 X79.748 Y79.209 E0.05601
G1 X80.102 Y79.031 E0.08342
G1 X80.494 Y78.889 E0.11227
G1 X80.898 Y78.793 E0.14099
G1 X81.292 Y78.747 E0.16844
G1 X81.515 Y78.74 E0.18387
G1 X98.471 Y78.74 E1.35691
G1 X98.919 Y78.767 E1.38795
G1 X99.301 Y78.834 E1.41479
G1 X99.711 Y78.956 E1.44438
G1 X100.063 Y79.108 E1.4709
G1 X100.441 Y79.326 E1.50109
G1 X100.741 Y79.55 E1.52699
G1 X101.058 Y79.85 E1.55719
G1 X101.316 Y80.156 E1.58488
G1 X101.541 Y80.498 E1.6132
G1 X101.719 Y80.852 E1.64061
G1 X101.861 Y81.244 E1.66945
G1 X101.957 Y81.648 E1.69818
G1 X102.003 Y82.032 E1.72494
G1 X102.01 Y82.25 E1.74003
G1 X102.01 Y97.721 E2.81033
G1 X101.983 Y98.169 E2.84138
G1 X101.916 Y98.551 E2.86821
G1 X101.794 Y98.961 E2.8978
G1 X101.642 Y99.313 E2.92432
G1 X101.424 Y99.691 E2.95451
G1 X101.2 Y99.991 E2.98041
G1 X100.9 Y100.308 E3.01061
G1 X100.594 Y100.566 E3.0383
G1 X100.252 Y100.791 E3.06662
G1 X99.898 Y100.969 E3.09403
G1 X99.506 Y101.111 E3.12287
G1 X99.102 Y101.207 E3.1516
G1 X98.708 Y101.253 E3.17904
G1 X98.485 Y101.26 E3.19448
G1 X81.529 Y101.26 E4.36751
G1 X81.081 Y101.233 E4.39856
G1 X80.699 Y101.166 E4.42539
G1 X80.289 Y101.044 E4.45499
G1 X79.937 Y100.892 E4.48151
G1 X79.559 Y100.674 E4.5117
G1 X79.259 Y100.45 E4.5376
G1 X78.942 Y100.15 E4.56779
G1 X78.681 Y99.84 E4.59583
G1 X78.459 Y99.502 E4.62381
G1 X78.281 Y99.148 E4.65122
G1 X78.139 Y98.756 E4.68006
G1 X78.043 Y98.352 E4.70879
G1 X77.997 Y97.958 E4.73623
G1 X77.99 Y97.75 E4.75063
G1 X77.99 Y82.279 E5.82093
G1 X78.017 Y81.831 E5.85198
G1 X78.084 Y81.449 E5.87881
G1 X78.206 Y81.039 E5.9084
G1 X78.358 Y80.687 E5.93493
G1 X78.576 Y80.309 E5.96511
G1 X78.8 Y80.009 E5.99102
G1 X79.1 Y79.692 E6.02121
G0 F7200 X79.253 Y79.563
G0 X79.607 Y79.983
G0 X79.95 Y80.838
G1 F1800 X79.624 Y81.316 E6.06124
G1 X79.446 Y81.851 E6.10024
G1 X79.41 Y82.222 E6.12603
G1 X79.41 Y84.34 E6.27256
G1 X100.59 Y84.34 E7.73781
G1 X100.59 Y82.209 E7.88524
G1 X100.516 Y81.677 E7.9224
G1 X100.282 Y81.147 E7.96248
G1 X99.912 Y80.7 E8.00262
G1 X99.434 Y80.374 E8.04265
G1 X98.899 Y80.196 E8.08165
G1 X98.528 Y80.16 E8.10744
G1 X81.459 Y80.16 E9.28829
G1 X80.927 Y80.234 E9.32545
G1 X80.397 Y80.468 E9.36553
G1 X79.95 Y80.838 E9.40567
G0 F7200 X79.838 Y81.003
G0 X79.384 Y80.692
G0 X80.927 Y85.234
G1 E9.40638 ;Adjusted e by 0.00071mm
G1 F1800 X80.397 Y85.468 E9.44647
G1 X79.95 Y85.838 E9.48661
G1 X79.624 Y86.316 E9.52664
G1 X79.446 Y86.851 E9.56564
G1 X79.41 Y87.222 E9.59143
G1 X79.41 Y89.34 E9.73795
G1 X100.59 Y89.34 E11.20321
G1 X100.59 Y87.209 E11.35063
G1 X100.516 Y86.677 E11.38779
G1 X100.282 Y86.147 E11.42787
G1 X99.912 Y85.7 E11.46802
G1 X99.434 Y85.374 E11.50804
G1 X98.899 Y85.196 E11.54705
G1 X98.528 Y85.16 E11.57284
G1 X81.459 Y85.16 E12.75369
G1 X80.927 Y85.234 E12.79085
G0 F7200 X80.744 Y85.314
G0 X80.581 Y84.84
;TYPE:WALL-INNER
G1 F1800 X80.132 Y85.039 E12.82482
G1 X79.812 Y85.304 E12.85357
G1 X79.577 Y85.498 E12.87465
G1 X79.172 Y86.092 E12.92439
G1 X78.987 Y86.646 E12.96479
G1 X78.954 Y86.747 E12.97214
G1 X78.91 Y87.198 E13.00349
G1 X78.91 Y89.84 E13.18627
G1 X101.09 Y89.84 E14.72071
G1 X101.09 Y87.174 E14.90514
G1 X101.012 Y86.608 E14.94467
G1 X101.002 Y86.539 E14.94949
G1 X100.711 Y85.882 E14.9992
G1 X100.252 Y85.327 E15.04903
G1 X100.216 Y85.302 E15.05206
G1 X99.658 Y84.922 E15.09876
G1 X99.412 Y84.84 E15.1167
G0 F7200 X99.658 Y84.84
G1 F1800 X100.333 Y84.84 E15.1415
G1 X101.09 Y84.84 E15.19387
G1 X101.09 Y82.266 E15.37195
G1 X101.09 Y82.174 E15.37831
G1 X101.083 Y82.12 E15.38208
G1 X101.038 Y81.797 E15.40464
G1 X101.002 Y81.539 E15.42266
G1 X100.866 Y81.231 E15.44595
G1 X100.711 Y80.882 E15.47237
G1 X100.581 Y80.725 E15.48647
G1 X100.369 Y80.469 E15.50947
G1 X100.252 Y80.327 E15.5222
G1 X100.183 Y80.28 E15.52797
G1 X99.921 Y80.101 E15.54992
G1 X99.658 Y79.922 E15.57193
G1 X99.404 Y79.838 E15.59044
G1 X99.003 Y79.704 E15.61969
G1 X98.823 Y79.687 E15.6322
G1 X98.552 Y79.66 E15.65104
G1 X98.458 Y79.66 E15.65754
G1 X81.531 Y79.66 E16.82857
G1 X81.424 Y79.66 E16.83597
G1 X81.039 Y79.713 E16.86286
G1 X80.789 Y79.748 E16.88032
G1 X80.481 Y79.884 E16.90361
G1 X80.132 Y80.039 E16.93003
G1 X79.975 Y80.169 E16.94413
G1 X79.719 Y80.381 E16.96713
G1 X79.577 Y80.498 E16.97986
G1 X79.53 Y80.567 E16.98563
G1 X79.351 Y80.829 E17.00759
G1 X79.172 Y81.092 E17.02959
G1 X79.088 Y81.346 E17.0481
G1 X78.954 Y81.747 E17.07735
G1 X78.937 Y81.927 E17.08986
G1 X78.91 Y82.198 E17.1087
G1 X78.91 Y82.292 E17.1152
G1 X78.91 Y84.84 E17.29148
G1 X79.716 Y84.84 E17.34724
G1 X80.132 Y84.84 E17.36638
G0 F7200 X80.581 Y84.84
G1 F2400 E12.36638
G1 F600 Z1.32
G0 F7200 X79.41 Y90.66 Z1.32
;TYPE:WALL-OUTER
G1 F600 Z0.32
G1 F2400 E17.36717 ;Adjusted e by 0.00079mm
G1 F1800 X79.41 Y92.624 E17.50304
G1 X79.441 Y93.139 E17.53873
G1 X79.624 Y93.684 E17.57851
G1 X79.95 Y94.162 E17.61853
G1 X80.397 Y94.532 E17.65868
G1 X80.927 Y94.766 E17.69876
G1 X81.459 Y94.84 E17.73592
G1 X98.541 Y94.84 E18.91767
G1 X99.073 Y94.766 E18.95483
G1 X99.603 Y94.532 E18.99491
G1 X100.05 Y94.162 E19.03505
G1 X100.376 Y93.684 E19.07508
G1 X100.554 Y93.149 E19.11408
G1 X100.59 Y92.778 E19.13987
G1 X100.59 Y90.66 E19.2864
G1 X79.41 Y90.66 E20.75165
G0 F7200 X79.41 Y90.86
G0 X78.86 Y90.86
G0 X79.41 Y95.66
G1 E20.75237 ;Adjusted e by 0.00072mm
G1 F1800 X79.41 Y97.624 E20.88824
G1 X79.441 Y98.139 E20.92394
G1 X79.624 Y98.684 E20.96371
G1 X79.95 Y99.162 E21.00374
G1 X80.397 Y99.532 E21.04388
G1 X80.927 Y99.766 E21.08396
G1 X81.459 Y99.84 E21.12112
G1 X98.541 Y99.84 E22.30287
G1 X99.073 Y99.766 E22.34003
G1 X99.603 Y99.532 E22.38011
G1 X100.05 Y99.162 E22.42025
G1 X100.376 Y98.684 E22.46028
G1 X100.554 Y98.149 E22.49929
G1 X100.59 Y97.778 E22.52507
G1 X100.59 Y95.66 E22.6716
G1 X79.41 Y95.66 E24.13685
G0 F7200 X79.41 Y95.86
G0 X79.716 Y95.16
;TYPE:WALL-INNER
G1 F1800 X78.91 Y95.16 E24.19261
G1 X78.91 Y97.639 E24.36411
G1 X78.914 Y97.707 E24.36883
G1 X78.925 Y97.893 E24.38172
G1 X78.946 Y98.235 E24.40542
G1 X79.026 Y98.473 E24.42279
G1 X79.139 Y98.81 E24.44738
G1 X79.172 Y98.909 E24.4546
G1 X79.245 Y99.017 E24.46362
G1 X79.438 Y99.299 E24.48726
G1 X79.577 Y99.502 E24.50428
G1 X79.856 Y99.733 E24.52934
G1 X80.132 Y99.961 E24.5541
G1 X80.336 Y100.051 E24.56953
G1 X80.632 Y100.182 E24.59192
G1 X80.789 Y100.252 E24.60382
G1 X80.874 Y100.263 E24.60974
G1 X81.195 Y100.308 E24.63217
G1 X81.424 Y100.34 E24.64817
G1 X81.542 Y100.34 E24.65633
G1 X98.469 Y100.34 E25.82736
G1 X98.576 Y100.34 E25.83476
G1 X98.961 Y100.287 E25.86165
G1 X99.211 Y100.252 E25.87911
G1 X99.519 Y100.116 E25.9024
G1 X99.868 Y99.961 E25.92882
G1 X100.025 Y99.831 E25.94292
G1 X100.281 Y99.619 E25.96592
G1 X100.423 Y99.502 E25.97864
G1 X100.47 Y99.433 E25.98442
G1 X100.649 Y99.171 E26.00637
G1 X100.828 Y98.908 E26.02838
G1 X100.912 Y98.654 E26.04689
G1 X101.046 Y98.253 E26.07614
G1 X101.063 Y98.073 E26.08865
G1 X101.09 Y97.802 E26.10749
G1 X101.09 Y97.708 E26.11399
G1 X101.09 Y95.16 E26.29026
G1 X100.284 Y95.16 E26.34602
G1 X99.868 Y95.16 E26.3748
G1 X99.419 Y95.16 E26.40587
G0 F7200 X99.868 Y94.961
G1 F1800 X100.188 Y94.696 E26.42496
G1 X100.423 Y94.502 E26.44604
G1 X100.828 Y93.908 E26.49578
G1 X101.013 Y93.354 E26.53619
G1 X101.046 Y93.253 E26.54354
G1 X101.09 Y92.802 E26.57489
G1 X101.09 Y90.16 E26.75766
G1 X78.91 Y90.16 E27.74167
G1 X78.91 Y92.639 E27.91317
G1 X78.946 Y93.235 E27.95448
G1 X78.987 Y93.359 E27.96351
G1 X79.172 Y93.909 E28.00366
G1 X79.577 Y94.502 E28.05333
G1 X79.812 Y94.696 E28.07442
G1 X80.132 Y94.961 E28.10316
G1 X80.581 Y95.16 E28.13714
G0 F7200 X80.132 Y95.16
G1 F1800 X79.716 Y95.16 E28.15628
G0 F7200 X78.49 Y97.733
G1 E28.15645 ;Adjusted e by 0.00017mm
G1 F1800 X78.49 Y97.639 E28.16223
G1 X78.49 Y95.16 E28.30657
G1 X78.49 Y93.366 E28.43069
G1 X78.49 Y93.235 E28.43934
G1 X78.49 Y92.639 E28.47549
G1 X78.49 Y90.16 E28.61984
G1 X78.49 Y89.84 E28.64198
G1 X78.49 Y87.198 E28.79582
G1 X78.49 Y86.747 E28.82342
G1 X78.49 Y86.64 E28.83056
G1 X78.49 Y84.84 E28.95508
G1 X78.49 Y82.292 E29.10345
G1 X78.497 Y82.173 E29.11063
G1 X78.515 Y81.886 E29.1275
G1 X78.55 Y81.678 E29.14004
G1 X78.57 Y81.567 E29.14656
G1 X78.677 Y81.21 E29.16865
G1 X78.805 Y80.913 E29.18809
G1 X78.993 Y80.586 E29.21068
G1 X79.184 Y80.331 E29.2296
G1 X79.286 Y80.223 E29.23813
G1 X79.447 Y80.053 E29.25211
G1 X79.701 Y79.839 E29.27182
G1 X79.909 Y79.702 E29.28669
G1 X79.998 Y79.643 E29.29408
G1 X80.305 Y79.489 E29.31427
G1 X80.639 Y79.368 E29.33516
G1 X80.695 Y79.355 E29.33914
G1 X80.979 Y79.287 E29.35644
G1 X81.33 Y79.246 E29.37739
G1 X81.411 Y79.244 E29.383
G1 X81.531 Y79.24 E29.3901
G1 X98.458 Y79.24 E30.37573
G1 X98.577 Y79.247 E30.38292
G1 X98.864 Y79.265 E30.39979
G1 X99.072 Y79.3 E30.41233
G1 X99.183 Y79.32 E30.41885
G1 X99.54 Y79.427 E30.44093
G1 X99.837 Y79.555 E30.46038
G1 X100.164 Y79.743 E30.48297
G1 X100.419 Y79.934 E30.50189
G1 X100.527 Y80.036 E30.51041
G1 X100.697 Y80.197 E30.5244
G1 X100.911 Y80.451 E30.54411
G1 X101.048 Y80.659 E30.55898
G1 X101.107 Y80.748 E30.56636
G1 X101.261 Y81.055 E30.58655
G1 X101.382 Y81.389 E30.60745
G1 X101.395 Y81.445 E30.61142
G1 X101.465 Y81.737 E30.62922
G1 X101.503 Y82.061 E30.64863
G1 X101.506 Y82.159 E30.65481
G1 X101.51 Y82.266 E30.66119
G1 X101.51 Y84.84 E30.81107
G1 X101.51 Y86.602 E30.93297
G1 X101.51 Y87.174 E30.96937
G1 X101.51 Y89.84 E31.12461
G1 X101.51 Y90.16 E31.14675
G1 X101.51 Y92.802 E31.30059
G1 X101.51 Y93.253 E31.32819
G1 X101.51 Y93.36 E31.33532
G1 X101.51 Y95.16 E31.45985
G1 X101.51 Y97.708 E31.60821
G1 X101.503 Y97.827 E31.6154
G1 X101.485 Y98.114 E31.63227
G1 X101.45 Y98.322 E31.64481
G1 X101.43 Y98.433 E31.65133
G1 X101.323 Y98.79 E31.67341
G1 X101.195 Y99.087 E31.69286
G1 X101.007 Y99.414 E31.71545
G1 X100.816 Y99.669 E31.73437
G1 X100.714 Y99.777 E31.74289
G1 X100.553 Y99.947 E31.75688
G1 X100.299 Y100.161 E31.77659
G1 X100.091 Y100.298 E31.79146
G1 X100.002 Y100.357 E31.79884
G1 X99.695 Y100.511 E31.81903
G1 X99.361 Y100.632 E31.83993
G1 X99.305 Y100.645 E31.8439
G1 X99.021 Y100.713 E31.86121
G1 X98.67 Y100.754 E31.88216
G1 X98.589 Y100.756 E31.88776
G1 X98.469 Y100.76 E31.89487
G1 X81.542 Y100.76 E32.8805
G1 X81.399 Y100.752 E32.88894
G1 X81.136 Y100.735 E32.9047
G1 X80.817 Y100.68 E32.9239
G1 X80.674 Y100.638 E32.93249
G1 X80.46 Y100.573 E32.94594
G1 X80.163 Y100.445 E32.96518
G1 X79.931 Y100.312 E32.98114
G1 X79.836 Y100.257 E32.98741
G1 X79.581 Y100.066 E33.00616
G1 X79.303 Y99.803 E33.02863
G1 X79.269 Y99.763 E33.03159
G1 X79.083 Y99.542 E33.04873
G1 X78.896 Y99.256 E33.06897
G1 X78.813 Y99.091 E33.08016
G1 X78.739 Y98.945 E33.09006
G1 X78.618 Y98.611 E33.11106
G1 X78.551 Y98.33 E33.12822
G1 X78.537 Y98.271 E33.13166
G1 X78.496 Y97.919 E33.15242
G1 X78.49 Y97.733 E33.16352
G0 F7200 X78.99 Y94.66
G1 E33.16374 ;Adjusted e by 0.00022mm
G1 F900 X78.99 Y94.529 E33.1728
G0 F7200 X78.99 Y94.66
G1 F2400 E28.1728
G1 F600 Z1.32
G0 F7200 X78.99 Y85.472 Z1.32
G1 F600 Z0.32
G1 F2400 E33.17425 ;Adjusted e by 0.00145mm
G1 F900 X78.99 Y85.34 E33.18338
G1 X79.08 Y85.34 E33.18961
G0 F7200 X78.99 Y85.472
G1 F2400 E28.18961
G1 F600 Z1.32
G0 F7200 X100.912 Y85.34 Z1.32
G1 F600 Z0.32
G1 F2400 E33.19362 ;Adjusted e by 0.00401mm
G1 F900 X101.01 Y85.34 E33.2004
G1 X101.01 Y85.459 E33.20863
G0 F7200 X100.912 Y85.34
G1 F2400 E28.20863
G1 F600 Z1.32
G0 F7200 X100.92 Y94.66 Z1.32
G1 F600 Z0.32
G1 F2400 E33.2101 ;Adjusted e by 0.00147mm
G1 F900 X101.01 Y94.528 E33.22115
G0 F7200 X100.92 Y94.66
G0 X99.014 Y95.234
;TYPE:SKIN
G1 E33.22118 ;Adjusted e by 3e-05mm
G1 F1800 X80.985 Y95.234 E34.14665
G1 F2400 E29.14665
G1 F600 Z1.32
G0 F7200 X80.985 Y84.766 Z1.32
G1 F600 Z0.32
G1 F2400 E34.14835 ;Adjusted e by 0.0017mm
G1 F1800 X99.011 Y84.762 E35.06619
G1 F2400 E30.06619
G1 F600 Z1.32
;MESH:Object 2
G0 F7200 X106.99 Y82.279 Z1.32
;TYPE:WALL-OUTER
G1 F600 Z0.32
G1 F2400 E35.06747 ;Adjusted e by 0.00128mm
G1 F1800 X107.017 Y81.831 E35.09852
G1 X107.084 Y81.449 E35.12535
G1 X107.206 Y81.039 E35.15494
G1 X107.358 Y80.687 E35.18147
G1 X107.573 Y80.315 E35.21119
G1 X107.812 Y79.994 E35.23888
G1 X108.09 Y79.698 E35.26697
G1 X108.4 Y79.438 E35.29496
G1 X108.754 Y79.206 E35.32424
G1 X109.102 Y79.031 E35.35119
G1 X109.494 Y78.889 E35.38003
G1 X109.898 Y78.793 E35.40876
G1 X110.292 Y78.747 E35.4362
G1 X110.515 Y78.74 E35.45164
G1 X127.471 Y78.74 E36.62467
G1 X127.919 Y78.767 E36.65572
G1 X128.301 Y78.834 E36.68255
G1 X128.711 Y78.956 E36.71215
G1 X129.063 Y79.108 E36.73867
G1 X129.441 Y79.326 E36.76886
G1 X129.741 Y79.55 E36.79476
G1 X130.058 Y79.85 E36.82495
G1 X130.316 Y80.156 E36.85264
G1 X130.541 Y80.498 E36.88097
G1 X130.719 Y80.852 E36.90838
G1 X130.861 Y81.244 E36.93722
G1 X130.957 Y81.648 E36.96595
G1 X131.003 Y82.032 E36.9927
G1 X131.01 Y82.25 E37.00779
G1 X131.01 Y97.721 E38.07809
G1 X130.983 Y98.169 E38.10914
G1 X130.916 Y98.551 E38.13597
G1 X130.794 Y98.961 E38.16557
G1 X130.642 Y99.313 E38.19209
G1 X130.424 Y99.691 E38.22228
G1 X130.2 Y99.991 E38.24818
G1 X129.9 Y100.308 E38.27837
G1 X129.594 Y100.566 E38.30606
G1 X129.252 Y100.791 E38.33439
G1 X128.898 Y100.969 E38.3618
G1 X128.506 Y101.111 E38.39064
G1 X128.102 Y101.207 E38.41937
G1 X127.708 Y101.253 E38.44681
G1 X127.485 Y101.26 E38.46225
G1 X110.529 Y101.26 E39.63528
G1 X110.081 Y101.233 E39.66633
G1 X109.699 Y101.166 E39.69316
G1 X109.289 Y101.044 E39.72275
G1 X108.937 Y100.892 E39.74928
G1 X108.559 Y100.674 E39.77947
G1 X108.259 Y100.45 E39.80537
G1 X107.942 Y100.15 E39.83556
G1 X107.681 Y99.84 E39.8636
G1 X107.459 Y99.502 E39.89157
G1 X107.281 Y99.148 E39.91898
G1 X107.139 Y98.756 E39.94783
G1 X107.043 Y98.352 E39.97656
G1 X106.997 Y97.958 E40.004
G1 X106.99 Y97.75 E40.0184
G1 X106.99 Y82.279 E41.0887
G0 F7200 X107.002 Y82.079
G0 X107.552 Y82.112
G0 X108.41 Y82.222
G1 F1800 X108.41 Y84.34 E41.23522
G1 X129.59 Y84.34 E42.70048
G1 X129.59 Y82.209 E42.8479
G1 X129.516 Y81.676 E42.88513
G1 X129.282 Y81.146 E42.92521
G1 X128.912 Y80.7 E42.9653
G1 X128.434 Y80.374 E43.00533
G1 X127.899 Y80.196 E43.04433
G1 X127.528 Y80.16 E43.07012
G1 X110.459 Y80.16 E44.25097
G1 X109.927 Y80.234 E44.28813
G1 X109.397 Y80.468 E44.32821
G1 X108.95 Y80.838 E44.36835
G1 X108.624 Y81.316 E44.40838
G1 X108.446 Y81.851 E44.44739
G1 X108.41 Y82.222 E44.47318
G0 F7200 X108.41 Y82.422
G0 X107.86 Y82.422
G0 X109.397 Y85.468
G1 E44.47362 ;Adjusted e by 0.00044mm
G1 F1800 X108.95 Y85.838 E44.51376
G1 X108.624 Y86.316 E44.55379
G1 X108.446 Y86.851 E44.59279
G1 X108.41 Y87.222 E44.61858
