;FLAVOR:Marlin
;TIME:4597
;Filament used: 10.2643m
;Layer height: 0.32
;MINX:77.75
;MINY:56.831
;MINZ:0.32
;MAXX:220.278
;MAXY:243.169
;MAXZ:16.96
;EOFFSETPROCESSED
;Generated with Cura_SteamEngine mb-master-20200328
M82 ;absolute extrusion mode
;
; Crashspace Printer Farm MP10 (C. Nicks Start Code + John Gwinner Probe Code)
;______________________________________________
;Sliced at: Sat 25-04-2020 12:07:06
;Layer Height: 0.32
;Line Width: 0.5
;Flow: 108
;Z-Hop: False
;______________________________________________
;
M140 S60 ; set bed temp
M104 S180.0 T0 ; set extruder park temp to warm but not ooze during bed probing ;Adjusted temp by 20
M190 S60 ; wait for bed temp
; Try to grab the ooze off the nozzle here before probing around
G28 ; home all axis
G29 P1; probes mesh
G29 P3; fill in mesh that can't be reached is good
G29 S0 ; save mesh
G29 F 10.0 ;prints linear above this height
G29 A ; use UBL
M104 S280.0 T0 ; set extruder temp ;Adjusted temp by 20
G92 E0;(Reset the extruder to 0)
G0 X0 Y30 Z2 F1500; (set into park)
M109 S280.0 T0 ; wait for extruder temp ;Adjusted temp by 20
G92 E0
G1 E7 F300; (Unretract from last ending code, plus add some for ooze)
;PRIME
G0 X0 Y30 Z0.2 F1500; (Knock off ooze)
G0 X2 Y30 Z0.4 F1500; (Knock off ooze)
G0 X3 Y30 Z1.0 F1500; (Knock off ooze)
G0 X5 Y30 Z0.32 F1000; (Lower into prime)
G91
G1 X5 Y+20 F1000 E5  ;PRIME
G1 X+0.5 ;PRIME
G1 Y-20 F1000 E5  ;PRIME
G90
G92 E0
G0 X0 Y20 F1500; (Knock off ooze)
G0 X0 Y20 Z0.2 F1500; (Knock off ooze)
G0 X2 Y20 Z0.4 F1500; (Knock off ooze)
G0 X3 Y20 Z1.0 F1500; (Knock off ooze)
G92 E0
;AND GO!!!!
G92 E0
G92 E0
G1 F2400 E-5
;LAYER_COUNT:53
;LAYER:0
M107
G1 F600 Z1.32
;MESH:Object 1
G0 F7200 X79.1 Y79.692 Z1.32
;TYPE:WALL-OUTER
G1 F600 Z0.32
G1 F2400 E0.0
G1 F1800 X79.406 Y79.434 E0.02875
G1 X79.748 Y79.209 E0.05817
G1 X80.102 Y79.031 E0.08663
G1 X80.494 Y78.889 E0.11658
G1 X80.898 Y78.793 E0.14642
G1 X81.292 Y78.747 E0.17491
G1 X81.515 Y78.74 E0.19094
G1 X98.471 Y78.74 E1.40909
G1 X98.919 Y78.767 E1.44134
G1 X99.301 Y78.834 E1.4692
G1 X99.711 Y78.956 E1.49993
G1 X100.063 Y79.108 E1.52748
G1 X100.441 Y79.326 E1.55883
G1 X100.741 Y79.55 E1.58572
G1 X101.058 Y79.85 E1.61708
G1 X101.316 Y80.156 E1.64583
G1 X101.541 Y80.498 E1.67524
G1 X101.719 Y80.852 E1.70371
G1 X101.861 Y81.244 E1.73366
G1 X101.957 Y81.648 E1.7635
G1 X102.003 Y82.032 E1.79128
G1 X102.01 Y82.25 E1.80695
G1 X102.01 Y97.721 E2.91842
G1 X101.983 Y98.169 E2.95066
G1 X101.916 Y98.551 E2.97852
G1 X101.794 Y98.961 E3.00925
G1 X101.642 Y99.313 E3.0368
G1 X101.424 Y99.691 E3.06815
G1 X101.2 Y99.991 E3.09504
G1 X100.9 Y100.308 E3.1264
G1 X100.594 Y100.566 E3.15515
G1 X100.252 Y100.791 E3.18457
G1 X99.898 Y100.969 E3.21303
G1 X99.506 Y101.111 E3.24298
G1 X99.102 Y101.207 E3.27282
G1 X98.708 Y101.253 E3.30131
G1 X98.485 Y101.26 E3.31734
G1 X81.529 Y101.26 E4.53549
G1 X81.081 Y101.233 E4.56774
G1 X80.699 Y101.166 E4.5956
G1 X80.289 Y101.044 E4.62633
G1 X79.937 Y100.892 E4.65388
G1 X79.559 Y100.674 E4.68523
G1 X79.259 Y100.45 E4.71212
G1 X78.942 Y100.15 E4.74348
G1 X78.681 Y99.84 E4.77259
G1 X78.459 Y99.502 E4.80164
G1 X78.281 Y99.148 E4.83011
G1 X78.139 Y98.756 E4.86006
G1 X78.043 Y98.352 E4.8899
G1 X77.997 Y97.958 E4.91839
G1 X77.99 Y97.75 E4.93334
G1 X77.99 Y82.279 E6.04481
G1 X78.017 Y81.831 E6.07705
G1 X78.084 Y81.449 E6.10492
G1 X78.206 Y81.039 E6.13565
G1 X78.358 Y80.687 E6.16319
G1 X78.576 Y80.309 E6.19454
G1 X78.8 Y80.009 E6.22144
G1 X79.1 Y79.692 E6.2528
G0 F7200 X79.253 Y79.563
G0 X79.607 Y79.983
G0 X79.95 Y80.838
G1 F1800 X79.624 Y81.316 E6.29436
G1 X79.446 Y81.851 E6.33487
G1 X79.41 Y82.222 E6.36165
G1 X79.41 Y84.34 E6.51381
G1 X100.59 Y84.34 E8.03542
G1 X100.59 Y82.209 E8.18851
G1 X100.516 Y81.677 E8.2271
G1 X100.282 Y81.147 E8.26872
G1 X99.912 Y80.7 E8.31041
G1 X99.434 Y80.374 E8.35198
G1 X98.899 Y80.196 E8.39249
G1 X98.528 Y80.16 E8.41926
G1 X81.459 Y80.16 E9.64553
G1 X80.927 Y80.234 E9.68412
G1 X80.397 Y80.468 E9.72574
G1 X79.95 Y80.838 E9.76743
G0 F7200 X79.838 Y81.003
G0 X79.384 Y80.692
G0 X80.927 Y85.234
G1 E9.76814 ;Adjusted e by 0.00071mm
G1 F1800 X80.397 Y85.468 E9.80976
G1 X79.95 Y85.838 E9.85145
G1 X79.624 Y86.316 E9.89302
G1 X79.446 Y86.851 E9.93352
G1 X79.41 Y87.222 E9.9603
G1 X79.41 Y89.34 E10.11246
G1 X100.59 Y89.34 E11.63408
G1 X100.59 Y87.209 E11.78717
G1 X100.516 Y86.677 E11.82576
G1 X100.282 Y86.147 E11.86738
G1 X99.912 Y85.7 E11.90907
G1 X99.434 Y85.374 E11.95063
G1 X98.899 Y85.196 E11.99114
G1 X98.528 Y85.16 E12.01792
G1 X81.459 Y85.16 E13.24419
G1 X80.927 Y85.234 E13.28278
G0 F7200 X80.744 Y85.314
G0 X80.581 Y84.84
;TYPE:WALL-INNER
G1 F1800 X80.132 Y85.039 E13.31806
G1 X79.812 Y85.304 E13.34791
G1 X79.577 Y85.498 E13.3698
G1 X79.172 Y86.092 E13.42145
G1 X78.987 Y86.646 E13.46341
G1 X78.954 Y86.747 E13.47105
G1 X78.91 Y87.198 E13.5036
G1 X78.91 Y89.84 E13.69341
G1 X101.09 Y89.84 E15.28686
G1 X101.09 Y87.174 E15.47839
G1 X101.012 Y86.608 E15.51944
G1 X101.002 Y86.539 E15.52445
G1 X100.711 Y85.882 E15.57607
G1 X100.252 Y85.327 E15.62781
G1 X100.216 Y85.302 E15.63096
G1 X99.658 Y84.922 E15.67946
G1 X99.412 Y84.84 E15.69809
G0 F7200 X99.658 Y84.84
G1 F1800 X100.333 Y84.84 E15.72384
G1 X101.09 Y84.84 E15.77823
G1 X101.09 Y82.266 E15.96315
G1 X101.09 Y82.174 E15.96976
G1 X101.083 Y82.12 E15.97367
G1 X101.038 Y81.797 E15.9971
G1 X101.002 Y81.539 E16.01581
G1 X100.866 Y81.231 E16.04
G1 X100.711 Y80.882 E16.06743
G1 X100.581 Y80.725 E16.08208
G1 X100.369 Y80.469 E16.10596
G1 X100.252 Y80.327 E16.11918
G1 X100.183 Y80.28 E16.12517
G1 X99.921 Y80.101 E16.14797
G1 X99.658 Y79.922 E16.17083
G1 X99.404 Y79.838 E16.19005
G1 X99.003 Y79.704 E16.22042
G1 X98.823 Y79.687 E16.23341
G1 X98.552 Y79.66 E16.25297
G1 X98.458 Y79.66 E16.25973
G1 X81.531 Y79.66 E17.4758
G1 X81.424 Y79.66 E17.48348
G1 X81.039 Y79.713 E17.5114
G1 X80.789 Y79.748 E17.52954
G1 X80.481 Y79.884 E17.55373
G1 X80.132 Y80.039 E17.58116
G1 X79.975 Y80.169 E17.5958
G1 X79.719 Y80.381 E17.61968
G1 X79.577 Y80.498 E17.6329
G1 X79.53 Y80.567 E17.6389
G1 X79.351 Y80.829 E17.6617
G1 X79.172 Y81.092 E17.68455
G1 X79.088 Y81.346 E17.70377
G1 X78.954 Y81.747 E17.73415
G1 X78.937 Y81.927 E17.74713
G1 X78.91 Y82.198 E17.7667
G1 X78.91 Y82.292 E17.77345
G1 X78.91 Y84.84 E17.95651
G1 X79.716 Y84.84 E18.01441
G1 X80.132 Y84.84 E18.03429
G0 F7200 X80.581 Y84.84
G1 F2400 E13.03429
G0 F7200 X79.41 Y90.66
;TYPE:WALL-OUTER
G1 F2400 E18.03508 ;Adjusted e by 0.00079mm
G1 F1800 X79.41 Y92.624 E18.17618
G1 X79.441 Y93.139 E18.21324
G1 X79.624 Y93.684 E18.25454
G1 X79.95 Y94.162 E18.29611
G1 X80.397 Y94.532 E18.3378
G1 X80.927 Y94.766 E18.37942
G1 X81.459 Y94.84 E18.41801
G1 X98.541 Y94.84 E19.64521
G1 X99.073 Y94.766 E19.6838
G1 X99.603 Y94.532 E19.72542
G1 X100.05 Y94.162 E19.76711
G1 X100.376 Y93.684 E19.80868
G1 X100.554 Y93.149 E19.84918
G1 X100.59 Y92.778 E19.87596
G1 X100.59 Y90.66 E20.02812
G1 X79.41 Y90.66 E21.54973
G0 F7200 X79.41 Y90.86
G0 X78.86 Y90.86
G0 X79.41 Y95.66
G1 E21.55045 ;Adjusted e by 0.00072mm
G1 F1800 X79.41 Y97.624 E21.69155
G1 X79.441 Y98.139 E21.72862
G1 X79.624 Y98.684 E21.76992
G1 X79.95 Y99.162 E21.81149
G1 X80.397 Y99.532 E21.85317
G1 X80.927 Y99.766 E21.8948
G1 X81.459 Y99.84 E21.93338
G1 X98.541 Y99.84 E23.16059
G1 X99.073 Y99.766 E23.19917
G1 X99.603 Y99.532 E23.2408
G1 X100.05 Y99.162 E23.28248
G1 X100.376 Y98.684 E23.32405
G1 X100.554 Y98.149 E23.36456
G1 X100.59 Y97.778 E23.39134
G1 X100.59 Y95.66 E23.5435
G1 X79.41 Y95.66 E25.06511
G0 F7200 X79.41 Y95.86
G0 X79.716 Y95.16
;TYPE:WALL-INNER
G1 F1800 X78.91 Y95.16 E25.12301
G1 X78.91 Y97.639 E25.30111
G1 X78.914 Y97.707 E25.306
G1 X78.925 Y97.893 E25.31939
G1 X78.946 Y98.235 E25.344
G1 X79.026 Y98.473 E25.36204
G1 X79.139 Y98.81 E25.38758
G1 X79.172 Y98.909 E25.39508
G1 X79.245 Y99.017 E25.40444
G1 X79.438 Y99.299 E25.42899
G1 X79.577 Y99.502 E25.44667
G1 X79.856 Y99.733 E25.47269
G1 X80.132 Y99.961 E25.49841
G1 X80.336 Y100.051 E25.51443
G1 X80.632 Y100.182 E25.53768
G1 X80.789 Y100.252 E25.55003
G1 X80.874 Y100.263 E25.55619
G1 X81.195 Y100.308 E25.57947
G1 X81.424 Y100.34 E25.59609
G1 X81.542 Y100.34 E25.60456
G1 X98.469 Y100.34 E26.82063
G1 X98.576 Y100.34 E26.82832
G1 X98.961 Y100.287 E26.85624
G1 X99.211 Y100.252 E26.87437
G1 X99.519 Y100.116 E26.89856
G1 X99.868 Y99.961 E26.926
G1 X100.025 Y99.831 E26.94064
G1 X100.281 Y99.619 E26.96452
G1 X100.423 Y99.502 E26.97774
G1 X100.47 Y99.433 E26.98374
G1 X100.649 Y99.171 E27.00653
G1 X100.828 Y98.908 E27.02939
G1 X100.912 Y98.654 E27.04861
G1 X101.046 Y98.253 E27.07898
G1 X101.063 Y98.073 E27.09197
G1 X101.09 Y97.802 E27.11154
G1 X101.09 Y97.708 E27.11829
G1 X101.09 Y95.16 E27.30134
G1 X100.284 Y95.16 E27.35925
G1 X99.868 Y95.16 E27.38913
G1 X99.419 Y95.16 E27.42139
G0 F7200 X99.868 Y94.961
G1 F1800 X100.188 Y94.696 E27.44122
G1 X100.423 Y94.502 E27.46311
G1 X100.828 Y93.908 E27.51476
G1 X101.013 Y93.354 E27.55672
G1 X101.046 Y93.253 E27.56436
G1 X101.09 Y92.802 E27.59691
G1 X101.09 Y90.16 E27.78672
G1 X78.91 Y90.16 E28.80857
G1 X78.91 Y92.639 E28.98667
G1 X78.946 Y93.235 E29.02956
G1 X78.987 Y93.359 E29.03895
G1 X79.172 Y93.909 E29.08063
G1 X79.577 Y94.502 E29.13222
G1 X79.812 Y94.696 E29.15412
G1 X80.132 Y94.961 E29.18397
G1 X80.581 Y95.16 E29.21925
G0 F7200 X80.132 Y95.16
G1 F1800 X79.716 Y95.16 E29.23913
G0 F7200 X78.49 Y97.733
G1 E29.2393 ;Adjusted e by 0.00017mm
G1 F1800 X78.49 Y97.639 E29.2453
G1 X78.49 Y95.16 E29.3952
G1 X78.49 Y93.366 E29.52408
G1 X78.49 Y93.235 E29.53307
G1 X78.49 Y92.639 E29.57061
G1 X78.49 Y90.16 E29.72051
G1 X78.49 Y89.84 E29.7435
G1 X78.49 Y87.198 E29.90326
G1 X78.49 Y86.747 E29.93193
G1 X78.49 Y86.64 E29.93933
G1 X78.49 Y84.84 E30.06865
G1 X78.49 Y82.292 E30.22272
G1 X78.497 Y82.173 E30.23018
G1 X78.515 Y81.886 E30.2477
G1 X78.55 Y81.678 E30.26072
G1 X78.57 Y81.567 E30.26749
G1 X78.677 Y81.21 E30.29043
G1 X78.805 Y80.913 E30.31062
G1 X78.993 Y80.586 E30.33408
G1 X79.184 Y80.331 E30.35372
G1 X79.286 Y80.223 E30.36258
G1 X79.447 Y80.053 E30.3771
G1 X79.701 Y79.839 E30.39757
G1 X79.909 Y79.702 E30.41301
G1 X79.998 Y79.643 E30.42068
G1 X80.305 Y79.489 E30.44165
G1 X80.639 Y79.368 E30.46334
G1 X80.695 Y79.355 E30.46747
G1 X80.979 Y79.287 E30.48544
G1 X81.33 Y79.246 E30.5072
G1 X81.411 Y79.244 E30.51302
G1 X81.531 Y79.24 E30.5204
G1 X98.458 Y79.24 E31.54394
G1 X98.577 Y79.247 E31.5514
G1 X98.864 Y79.265 E31.56892
G1 X99.072 Y79.3 E31.58194
G1 X99.183 Y79.32 E31.58871
G1 X99.54 Y79.427 E31.61165
G1 X99.837 Y79.555 E31.63184
G1 X100.164 Y79.743 E31.6553
G1 X100.419 Y79.934 E31.67494
G1 X100.527 Y80.036 E31.6838
G1 X100.697 Y80.197 E31.69833
G1 X100.911 Y80.451 E31.71879
G1 X101.048 Y80.659 E31.73423
G1 X101.107 Y80.748 E31.7419
G1 X101.261 Y81.055 E31.76287
G1 X101.382 Y81.389 E31.78456
G1 X101.395 Y81.445 E31.78869
G1 X101.465 Y81.737 E31.80717
G1 X101.503 Y82.061 E31.82733
G1 X101.506 Y82.159 E31.83375
G1 X101.51 Y82.266 E31.84037
G1 X101.51 Y84.84 E31.99602
G1 X101.51 Y86.602 E32.1226
G1 X101.51 Y87.174 E32.16041
G1 X101.51 Y89.84 E32.32162
G1 X101.51 Y90.16 E32.34461
G1 X101.51 Y92.802 E32.50436
G1 X101.51 Y93.253 E32.53303
G1 X101.51 Y93.36 E32.54043
G1 X101.51 Y95.16 E32.66975
G1 X101.51 Y97.708 E32.82382
G1 X101.503 Y97.827 E32.83128
G1 X101.485 Y98.114 E32.8488
G1 X101.45 Y98.322 E32.86182
G1 X101.43 Y98.433 E32.86859
G1 X101.323 Y98.79 E32.89153
G1 X101.195 Y99.087 E32.91172
G1 X101.007 Y99.414 E32.93518
G1 X100.816 Y99.669 E32.95483
G1 X100.714 Y99.777 E32.96368
G1 X100.553 Y99.947 E32.97821
G1 X100.299 Y100.161 E32.99867
G1 X100.091 Y100.298 E33.01411
G1 X100.002 Y100.357 E33.02178
G1 X99.695 Y100.511 E33.04275
G1 X99.361 Y100.632 E33.06445
G1 X99.305 Y100.645 E33.06858
G1 X99.021 Y100.713 E33.08654
G1 X98.67 Y100.754 E33.1083
G1 X98.589 Y100.756 E33.11412
G1 X98.469 Y100.76 E33.1215
G1 X81.542 Y100.76 E34.14504
G1 X81.399 Y100.752 E34.15381
G1 X81.136 Y100.735 E34.17018
G1 X80.817 Y100.68 E34.19011
G1 X80.674 Y100.638 E34.19903
G1 X80.46 Y100.573 E34.213
G1 X80.163 Y100.445 E34.23298
G1 X79.931 Y100.312 E34.24955
G1 X79.836 Y100.257 E34.25606
G1 X79.581 Y100.066 E34.27553
G1 X79.303 Y99.803 E34.29887
G1 X79.269 Y99.763 E34.30194
G1 X79.083 Y99.542 E34.31974
G1 X78.896 Y99.256 E34.34076
G1 X78.813 Y99.091 E34.35238
G1 X78.739 Y98.945 E34.36266
G1 X78.618 Y98.611 E34.38447
G1 X78.551 Y98.33 E34.40229
G1 X78.537 Y98.271 E34.40586
G1 X78.496 Y97.919 E34.42742
G1 X78.49 Y97.733 E34.43894
G0 F7200 X78.99 Y94.66
G1 E34.43916 ;Adjusted e by 0.00022mm
G1 F900 X78.99 Y94.529 E34.44858
G0 F7200 X78.99 Y94.66
G1 F2400 E29.44858
G0 F7200 X78.99 Y85.472
G1 F2400 E34.45003 ;Adjusted e by 0.00145mm
G1 F900 X78.99 Y85.34 E34.45951
G1 X79.08 Y85.34 E34.46597
G0 F7200 X78.99 Y85.472
G1 F2400 E29.46597
G0 F7200 X100.912 Y85.34
G1 F2400 E34.46998 ;Adjusted e by 0.00401mm
G1 F900 X101.01 Y85.34 E34.47703
G1 X101.01 Y85.459 E34.48557
G0 F7200 X100.912 Y85.34
G1 F2400 E29.48557
G0 F7200 X100.92 Y94.66
G1 F2400 E34.48704 ;Adjusted e by 0.00147mm
G1 F900 X101.01 Y94.528 E34.49852
G0 F7200 X100.92 Y94.66
G0 X99.014 Y95.234
;TYPE:SKIN
G1 E34.49855 ;Adjusted e by 3e-05mm
G1 F1800 X80.985 Y95.234 E35.45962
G1 F2400 E30.45962
G0 F7200 X80.985 Y84.766
G1 F2400 E35.46132 ;Adjusted e by 0.0017mm
G1 F1800 X99.011 Y84.762 E36.41445
G1 F2400 E31.41445
;MESH:Object 2
G0 F7200 X106.99 Y82.279
;TYPE:WALL-OUTER
G1 F2400 E36.41573 ;Adjusted e by 0.00128mm
G1 F1800 X107.017 Y81.831 E36.44798
G1 X107.084 Y81.449 E36.47584
G1 X107.206 Y81.039 E36.50657
G1 X107.358 Y80.687 E36.53412
G1 X107.573 Y80.315 E36.56499
G1 X107.812 Y79.994 E36.59374
G1 X108.09 Y79.698 E36.62291
G1 X108.4 Y79.438 E36.65198
G1 X108.754 Y79.206 E36.68238
G1 X109.102 Y79.031 E36.71037
G1 X109.494 Y78.889 E36.74032
G1 X109.898 Y78.793 E36.77015
G1 X110.292 Y78.747 E36.79865
G1 X110.515 Y78.74 E36.81468
G1 X127.471 Y78.74 E38.03283
G1 X127.919 Y78.767 E38.06507
G1 X128.301 Y78.834 E38.09294
G1 X128.711 Y78.956 E38.12367
G1 X129.063 Y79.108 E38.15121
G1 X129.441 Y79.326 E38.18256
G1 X129.741 Y79.55 E38.20946
G1 X130.058 Y79.85 E38.24082
G1 X130.316 Y80.156 E38.26957
G1 X130.541 Y80.498 E38.29898
G1 X130.719 Y80.852 E38.32745
G1 X130.861 Y81.244 E38.3574
G1 X130.957 Y81.648 E38.38723
G1 X131.003 Y82.032 E38.41502
G1 X131.01 Y82.25 E38.43069
G1 X131.01 Y97.721 E39.54215
G1 X130.983 Y98.169 E39.5744
G1 X130.916 Y98.551 E39.60226
G1 X130.794 Y98.961 E39.63299
G1 X130.642 Y99.313 E39.66054
G1 X130.424 Y99.691 E39.69188
G1 X130.2 Y99.991 E39.71878
G1 X129.9 Y100.308 E39.75014
G1 X129.594 Y100.566 E39.77889
G1 X129.252 Y100.791 E39.8083
G1 X128.898 Y100.969 E39.83677
G1 X128.506 Y101.111 E39.86672
G1 X128.102 Y101.207 E39.89655
G1 X127.708 Y101.253 E39.92505
G1 X127.485 Y101.26 E39.94108
G1 X110.529 Y101.26 E41.15923
G1 X110.081 Y101.233 E41.19147
G1 X109.699 Y101.166 E41.21934
G1 X109.289 Y101.044 E41.25007
G1 X108.937 Y100.892 E41.27761
G1 X108.559 Y100.674 E41.30896
G1 X108.259 Y100.45 E41.33586
G1 X107.942 Y100.15 E41.36722
G1 X107.681 Y99.84 E41.39633
G1 X107.459 Y99.502 E41.42538
G1 X107.281 Y99.148 E41.45385
G1 X107.139 Y98.756 E41.4838
G1 X107.043 Y98.352 E41.51363
G1 X106.997 Y97.958 E41.54213
G1 X106.99 Y97.75 E41.55708
G1 X106.99 Y82.279 E42.66855
G0 F7200 X107.002 Y82.079
G0 X107.552 Y82.112
G0 X108.41 Y82.222
G1 F1800 X108.41 Y84.34 E42.82071
G1 X129.59 Y84.34 E44.34232
G1 X129.59 Y82.209 E44.49542
G1 X129.516 Y81.676 E44.53407
G1 X129.282 Y81.146 E44.5757
G1 X128.912 Y80.7 E44.61733
G1 X128.434 Y80.374 E44.6589
G1 X127.899 Y80.196 E44.6994
G1 X127.528 Y80.16 E44.72618
G1 X110.459 Y80.16 E45.95245
G1 X109.927 Y80.234 E45.99104
G1 X109.397 Y80.468 E46.03266
G1 X108.95 Y80.838 E46.07435
G1 X108.624 Y81.316 E46.11591
G1 X108.446 Y81.851 E46.15642
G1 X108.41 Y82.222 E46.1832
G0 F7200 X108.41 Y82.422
G0 X107.86 Y82.422
G0 X109.397 Y85.468
G1 E46.18364 ;Adjusted e by 0.00044mm
G1 F1800 X108.95 Y85.838 E46.22533
G1 X108.624 Y86.316 E46.26689
G1 X108.446 Y86.851 E46.3074
G1 X108.41 Y87.222 E46.33418
G1 X108.41 Y89.34 E46.48634
G1 X129.59 Y89.34 E48.00795
G1 X129.59 Y87.209 E48.16105
G1 X129.516 Y86.676 E48.19971
G1 X129.282 Y86.146 E48.24133
G1 X128.912 Y85.7 E48.28296
G1 X128.434 Y85.374 E48.32453
