;FLAVOR:Marlin
;TIME:4894
;Filament used: 10.6932m
;Layer height: 0.32
;MINX:73.99
;MINY:53.089
;MINZ:0.32
;MAXX:224.026
;MAXY:246.917
;MAXZ:16.96
;EOFFSETPROCESSED
;Generated with Cura_SteamEngine mb-master-20200424
M82 ;absolute extrusion mode
;
; Crashspace Printer Farm MP10 (C. Nicks Start Code + John Gwinner Probe Code)
;______________________________________________
;Sliced at: Sun 26-04-2020 01:29:44
;Layer Height: 0.32
;Line Width: 0.5
;Flow: 110
;Z-Hop: False
;______________________________________________
;
M140 S60 ; set bed temp
M104 S180.0 T0 ; set extruder park temp to warm but not ooze during bed probing ;Adjusted temp by 20
M190 S60 ; wait for bed temp
; Try to grab the ooze off the nozzle here before probing around
G28 ; home all axis
G29 P1; probes mesh
G29 P3; fill in mesh that can't be reached is good
G29 S0 ; save mesh
G29 F 10.0 ;prints linear above this height
G29 A ; use UBL
M104 S280.0 T0 ; set extruder temp ;Adjusted temp by 20
G92 E0;(Reset the extruder to 0)
G0 X0 Y30 Z2 F1500; (set into park)
M109 S280.0 T0 ; wait for extruder temp ;Adjusted temp by 20
G92 E0
G1 E7 F300; (Unretract from last ending code, plus add some for ooze)
;PRIME
G0 X0 Y30 Z0.2 F1500; (Knock off ooze)
G0 X2 Y30 Z0.4 F1500; (Knock off ooze)
G0 X3 Y30 Z1.0 F1500; (Knock off ooze)
G0 X5 Y30 Z0.32 F1000; (Lower into prime)
G91
G1 X5 Y+20 F1000 E5  ;PRIME
G1 X+0.5 ;PRIME
G1 Y-20 F1000 E5  ;PRIME
G90
G92 E0
G0 X0 Y20 F1500; (Knock off ooze)
G0 X0 Y20 Z0.2 F1500; (Knock off ooze)
G0 X2 Y20 Z0.4 F1500; (Knock off ooze)
G0 X3 Y20 Z1.0 F1500; (Knock off ooze)
G92 E0
;AND GO!!!!
G92 E0
G92 E0
G1 F2400 E-5
;LAYER_COUNT:53
;LAYER:0
M107
G1 F600 Z1.32
G0 F7200 X77.248 Y57.335 Z1.32
;TYPE:SKIRT
G1 F600 Z0.32
G1 F2400 E0.0
G1 F1200 X77.59 Y56.872 E0.04296
G1 X78.007 Y56.39 E0.09053
G1 X78.452 Y55.955 E0.13698
G1 X78.905 Y55.58 E0.18087
G1 X79.362 Y55.256 E0.22268
G1 X80.169 Y54.806 E0.29164
G1 X80.733 Y54.558 E0.33763
G1 X81.341 Y54.351 E0.38556
G1 X81.963 Y54.197 E0.43339
G1 X82.52 Y54.103 E0.47555
G1 X83.2 Y54.048 E0.52646
G1 X83.879 Y54.03 E0.57716
G1 X95.93 Y54.028 E1.4766
G1 X96.556 Y54.038 E1.52332
G1 X97.301 Y54.074 E1.57899
G1 X98.033 Y54.174 E1.63413
G1 X98.535 Y54.283 E1.67247
G1 X101.268 Y54.858 E1.88092
G1 X103.91 Y55.335 E2.08129
G1 X106.635 Y55.748 E2.287
G1 X109.334 Y56.08 E2.48996
G1 X112.021 Y56.334 E2.6914
G1 X114.735 Y56.512 E2.8944
G1 X118.012 Y56.626 E3.13913
G1 X120.279 Y56.668 E3.30835
G1 X130.651 Y56.83 E4.08257
G1 X133.536 Y56.828 E4.29789
G1 X136.22 Y56.748 E4.49831
G1 X138.975 Y56.588 E4.70427
G1 X141.68 Y56.354 E4.90692
G1 X144.36 Y56.045 E5.10827
G1 X147.085 Y55.653 E5.31374
G1 X149.744 Y55.193 E5.51515
G1 X152.432 Y54.65 E5.71982
G1 X155.043 Y54.045 E5.91986
G1 X157.36 Y53.443 E6.09853
G1 X158.179 Y53.22 E6.16188
G1 X158.716 Y53.115 E6.20272
G1 X159.249 Y53.089 E6.24255
G1 X160.24 Y53.111 E6.31653
G1 X163.38 Y53.241 E6.55109
G1 X164.146 Y53.284 E6.60835
G1 X164.689 Y53.354 E6.64921
G1 X165.377 Y53.566 E6.70294
G1 X166.141 Y53.884 E6.76471
G1 X167.321 Y54.395 E6.86068
G1 X169.836 Y55.402 E7.06288
G1 X172.385 Y56.34 E7.26559
G1 X174.96 Y57.204 E7.46831
G1 X177.593 Y58.007 E7.67376
G1 X180.182 Y58.717 E7.87413
G1 X182.869 Y59.373 E8.08057
G1 X184.585 Y59.748 E8.21166
G1 X185.417 Y59.923 E8.27512
G1 X186.544 Y60.177 E8.36134
G1 X187.667 Y60.452 E8.44764
G1 X188.553 Y60.685 E8.51601
G1 X189.663 Y60.999 E8.60211
G1 X190.714 Y61.323 E8.68419
G1 X191.617 Y61.62 E8.75514
G1 X192.684 Y61.999 E8.83965
G1 X193.482 Y62.302 E8.90336
G1 X194.492 Y62.715 E8.9848
G1 X195.389 Y63.108 E9.05789
G1 X196.209 Y63.492 E9.12547
G1 X197.148 Y63.963 E9.20388
G1 X197.959 Y64.398 E9.27257
G1 X198.843 Y64.904 E9.34859
G1 X199.515 Y65.314 E9.40734
G1 X200.403 Y65.892 E9.48642
G1 X201.198 Y66.445 E9.5587
G1 X201.863 Y66.937 E9.62044
G1 X202.694 Y67.591 E9.69937
G1 X203.358 Y68.147 E9.764
G1 X204.059 Y68.771 E9.83405
G1 X204.804 Y69.477 E9.91065
G1 X205.477 Y70.156 E9.98201
G1 X206.042 Y70.757 E10.04357
G1 X206.817 Y71.638 E10.13115
G1 X207.35 Y72.281 E10.19348
G1 X208.053 Y73.178 E10.27854
G1 X208.553 Y73.855 E10.34136
G1 X209.243 Y74.844 E10.43136
G1 X209.76 Y75.63 E10.50158
G1 X210.372 Y76.62 E10.58844
G1 X210.893 Y77.509 E10.66535
G1 X211.394 Y78.415 E10.74262
G1 X211.998 Y79.569 E10.83983
G1 X212.489 Y80.564 E10.92265
G1 X213.01 Y81.679 E11.0145
G1 X213.276 Y82.268 E11.06274
G1 X214.112 Y84.083 E11.21188
G1 X215.303 Y86.507 E11.41346
G1 X216.573 Y88.917 E11.61678
G1 X217.928 Y91.322 E11.8228
G1 X219.302 Y93.606 E12.02174
G1 X220.8 Y95.945 E12.22905
G1 X222.463 Y98.379 E12.44906
G1 X222.738 Y98.852 E12.4899
G1 X222.941 Y99.36 E12.53073
G1 X223.256 Y100.751 E12.63717
G1 X223.831 Y103.741 E12.86442
G1 X223.969 Y104.516 E12.92318
G1 X224.025 Y105.061 E12.96407
G1 X223.978 Y105.779 E13.01777
G1 X223.612 Y108.015 E13.18688
G1 X223.234 Y110.67 E13.38703
G1 X222.923 Y113.405 E13.59248
G1 X222.695 Y116.083 E13.79308
G1 X222.538 Y118.84 E13.99918
G1 X222.462 Y121.52 E14.19928
G1 X222.462 Y124.246 E14.40274
G1 X222.54 Y127.003 E14.60859
G1 X222.695 Y129.743 E14.81342
G1 X222.778 Y130.947 E14.9035
G1 X222.951 Y133.786 E15.11578
G1 X223.093 Y136.554 E15.32264
G1 X223.207 Y139.304 E15.52807
G1 X223.293 Y141.966 E15.72685
G1 X223.355 Y144.77 E15.93618
G1 X223.391 Y147.739 E16.15779
G1 X223.398 Y150.155 E16.33811
G1 X223.39 Y152.5 E16.51314
G1 X223.354 Y155.34 E16.72512
G1 X223.29 Y158.148 E16.93475
G1 X223.2 Y160.876 E17.13847
G1 X223.094 Y163.451 E17.33082
G1 X222.947 Y166.287 E17.54277
G1 X222.783 Y168.98 E17.74413
G1 X222.683 Y170.417 E17.85165
G1 X222.533 Y173.114 E18.05325
G1 X222.459 Y175.869 E18.25894
G1 X222.462 Y178.593 E18.46225
G1 X222.541 Y181.279 E18.66281
G1 X222.7 Y184.035 E18.86885
G1 X222.932 Y186.739 E19.07141
G1 X223.24 Y189.419 E19.27275
G1 X223.63 Y192.138 E19.47776
G1 X223.87 Y193.53 E19.58318
G1 X223.981 Y194.229 E19.63601
G1 X224.026 Y194.775 E19.6769
G1 X223.976 Y195.42 E19.72518
G1 X223.889 Y195.949 E19.76519
G1 X223.277 Y199.148 E20.00828
G1 X223.06 Y200.223 E20.09014
G1 X222.912 Y200.75 E20.13099
G1 X222.69 Y201.25 E20.17182
G1 X222.103 Y202.157 E20.25246
G1 X221.358 Y203.227 E20.34977
G1 X219.833 Y205.552 E20.55729
G1 X218.431 Y207.83 E20.75693
G1 X217.044 Y210.231 E20.96388
G1 X215.767 Y212.591 E21.16416
G1 X214.548 Y215.012 E21.36646
G1 X213.144 Y218.024 E21.61449
G1 X212.593 Y219.219 E21.7127
G1 X212.146 Y220.138 E21.78898
G1 X211.498 Y221.393 E21.89439
G1 X211.071 Y222.175 E21.96089
G1 X210.447 Y223.255 E22.05399
G1 X209.935 Y224.094 E22.12735
G1 X209.362 Y224.979 E22.20603
G1 X208.743 Y225.88 E22.28762
G1 X208.168 Y226.669 E22.36049
G1 X207.587 Y227.423 E22.43153
G1 X206.901 Y228.262 E22.51242
G1 X206.274 Y228.982 E22.58368
G1 X205.639 Y229.673 E22.65372
G1 X204.945 Y230.381 E22.72771
G1 X204.292 Y231.01 E22.79538
G1 X203.52 Y231.709 E22.87311
G1 X202.869 Y232.263 E22.93691
G1 X202.188 Y232.809 E23.00206
G1 X201.324 Y233.461 E23.08284
G1 X200.616 Y233.962 E23.14758
G1 X199.812 Y234.494 E23.21953
G1 X198.962 Y235.023 E23.29426
G1 X198.26 Y235.431 E23.35486
G1 X197.26 Y235.977 E23.43989
G1 X196.545 Y236.342 E23.49981
G1 X195.563 Y236.811 E23.58103
G1 X194.686 Y237.201 E23.65267
G1 X193.793 Y237.572 E23.72484
G1 X192.747 Y237.976 E23.80853
G1 X191.958 Y238.26 E23.87112
G1 X190.892 Y238.618 E23.95504
G1 X189.857 Y238.941 E24.03597
G1 X188.996 Y239.19 E24.10286
G1 X187.888 Y239.489 E24.18852
G1 X186.776 Y239.765 E24.27403
G1 X185.662 Y240.02 E24.35932
G1 X184.312 Y240.309 E24.46236
G1 X182.497 Y240.712 E24.60113
G1 X179.869 Y241.363 E24.8032
G1 X177.225 Y242.098 E25.00802
G1 X174.652 Y242.892 E25.20899
G1 X172.037 Y243.78 E25.41511
G1 X169.499 Y244.724 E25.61722
G1 X166.971 Y245.746 E25.82073
G1 X165.487 Y246.388 E25.94141
G1 X164.97 Y246.568 E25.98227
G1 X164.339 Y246.688 E26.03021
G1 X163.656 Y246.744 E26.08135
G1 X160.055 Y246.895 E26.35035
G1 X159.313 Y246.917 E26.40576
G1 X158.766 Y246.894 E26.44662
G1 X158.262 Y246.8 E26.48488
G1 X157.577 Y246.623 E26.53769
G1 X156.205 Y246.246 E26.64389
G1 X153.569 Y245.602 E26.84641
G1 X150.884 Y245.024 E27.0514
G1 X148.225 Y244.534 E27.2532
G1 X145.54 Y244.114 E27.45603
G1 X142.846 Y243.771 E27.65872
G1 X140.135 Y243.504 E27.86204
G1 X137.417 Y243.313 E28.0654
G1 X134.7 Y243.199 E28.26836
G1 X131.952 Y243.162 E28.47348
G1 X130.553 Y243.174 E28.5779
G1 X117.987 Y243.373 E29.51589
G1 X115.214 Y243.463 E29.72296
G1 X112.497 Y243.629 E29.92613
G1 X109.782 Y243.872 E30.12957
G1 X107.084 Y244.19 E30.33233
G1 X104.388 Y244.586 E30.53571
G1 X101.732 Y245.053 E30.73699
G1 X98.718 Y245.675 E30.96668
G1 X98.138 Y245.802 E31.01099
G1 X97.431 Y245.912 E31.06439
G1 X96.905 Y245.95 E31.10375
G1 X96.301 Y245.97 E31.14886
G1 X84.358 Y245.97 E32.04023
G1 X83.545 Y245.958 E32.10092
G1 X82.655 Y245.911 E32.16744
G1 X82.128 Y245.838 E32.20715
G1 X81.379 Y245.657 E32.26466
G1 X80.863 Y245.488 E32.30518
G1 X80.32 Y245.261 E32.34911
G1 X79.719 Y244.953 E32.39951
G1 X79.163 Y244.604 E32.44851
G1 X78.679 Y244.237 E32.49384
G1 X78.247 Y243.853 E32.53698
G1 X77.61 Y243.151 E32.60773
G1 X77.015 Y242.287 E32.68603
G1 X76.694 Y241.692 E32.73649
G1 X76.442 Y241.114 E32.78355
G1 X76.27 Y240.606 E32.82358
G1 X76.13 Y240.062 E32.8655
G1 X76.03 Y239.502 E32.90796
G1 X75.975 Y238.985 E32.94676
G1 X75.975 Y237.974 E33.02222
G1 X76.043 Y237.33 E33.07055
G1 X76.163 Y236.704 E33.11813
G1 X76.325 Y236.131 E33.16257
G1 X76.526 Y235.587 E33.20585
G1 X76.943 Y234.751 E33.27558
G1 X77.269 Y234.229 E33.32151
G1 X77.627 Y233.747 E33.36633
G1 X78.197 Y233.095 E33.43096
G1 X79.996 Y231.01 E33.6365
G1 X81.709 Y228.907 E33.83894
G1 X83.377 Y226.739 E34.0431
G1 X84.978 Y224.528 E34.24684
G1 X86.504 Y222.292 E34.44888
G1 X87.965 Y220.016 E34.65074
G1 X89.391 Y217.649 E34.85698
G1 X90.709 Y215.316 E35.05698
G1 X92.003 Y212.863 E35.26397
G1 X93.187 Y210.46 E35.46391
G1 X94.321 Y207.98 E35.66744
G1 X95.385 Y205.47 E35.87091
G1 X96.379 Y202.927 E36.07469
G1 X97.3 Y200.358 E36.27838
G1 X98.138 Y197.797 E36.47949
G1 X98.917 Y195.164 E36.68443
G1 X99.614 Y192.536 E36.88736
G1 X100.243 Y189.871 E37.09172
G1 X100.788 Y187.214 E37.29416
G1 X101.261 Y184.534 E37.49728
G1 X101.656 Y181.85 E37.69976
G1 X101.977 Y179.146 E37.90299
G1 X102.22 Y176.435 E38.10614
G1 X102.388 Y173.713 E38.30968
G1 X102.478 Y170.994 E38.51273
G1 X102.492 Y168.271 E38.71596
G1 X102.428 Y165.554 E38.9188
G1 X102.287 Y162.83 E39.12238
G1 X102.069 Y160.112 E39.3259
G1 X101.776 Y157.413 E39.52852
G1 X101.405 Y154.714 E39.73186
G1 X100.959 Y152.031 E39.93485
G1 X100.435 Y149.355 E40.13837
G1 X99.845 Y146.734 E40.33889
G1 X99.166 Y144.066 E40.54436
G1 X98.416 Y141.437 E40.74841
G1 X97.606 Y138.879 E40.94867
G1 X96.705 Y136.281 E41.1539
G1 X95.736 Y133.731 E41.3575
G1 X94.694 Y131.206 E41.56137
G1 X93.597 Y128.745 E41.76247
G1 X92.403 Y126.257 E41.96844
G1 X91.169 Y123.863 E42.16946
G1 X89.843 Y121.461 E42.37424
G1 X88.481 Y119.149 E42.57451
G1 X87.015 Y116.815 E42.78023
G1 X85.514 Y114.568 E42.98191
G1 X83.922 Y112.328 E43.18702
G1 X82.297 Y110.17 E43.38864
G1 X80.602 Y108.048 E43.59134
G1 X78.831 Y105.955 E43.79597
G1 X77.019 Y103.933 E43.99861
G1 X76.481 Y103.365 E44.057
G1 X75.887 Y102.717 E44.12261
G1 X75.348 Y102.017 E44.18855
G1 X74.891 Y101.279 E44.25334
G1 X74.666 Y100.813 E44.29196
G1 X74.383 Y100.089 E44.34998
G1 X74.151 Y99.159 E44.42152
G1 X74.063 Y98.574 E44.46567
G1 X74.011 Y98.013 E44.50772
G1 X73.99 Y97.04 E44.58036
G1 X73.99 Y82.911 E45.63489
G1 X74 Y82.236 E45.68527
G1 X74.039 Y81.603 E45.7326
G1 X74.123 Y80.905 E45.78508
G1 X74.289 Y80.023 E45.85206
G1 X74.755 Y77.344 E46.05501
G1 X75.144 Y74.657 E46.25765
G1 X75.458 Y71.949 E46.46112
G1 X75.698 Y69.205 E46.6667
G1 X75.857 Y66.508 E46.86834
G1 X75.939 Y63.806 E47.0701
G1 X75.938 Y62.54 E47.16459
G1 X75.955 Y61.263 E47.25991
G1 X76.055 Y60.317 E47.33091
G1 X76.156 Y59.819 E47.36883
G1 X76.301 Y59.292 E47.40963
G1 X76.486 Y58.773 E47.45075
G1 X76.708 Y58.27 E47.49178
G1 X76.961 Y57.793 E47.53208
G1 X77.248 Y57.335 E47.57242
G0 F7200 X77.672 Y57.6
G1 F1200 X78.385 Y56.718 E47.65707
G1 X78.771 Y56.34 E47.69739
G1 X79.224 Y55.965 E47.74129
G1 X80.002 Y55.455 E47.81072
G1 X80.934 Y55.016 E47.88761
G1 X81.461 Y54.836 E47.92917
G1 X82.083 Y54.682 E47.977
G1 X82.924 Y54.568 E48.04034
G1 X83.59 Y54.534 E48.09011
G1 X95.93 Y54.528 E49.01112
G1 X96.532 Y54.538 E49.05605
G1 X97.277 Y54.574 E49.11172
G1 X97.945 Y54.666 E49.16205
G1 X98.475 Y54.782 E49.20254
G1 X101.147 Y55.344 E49.40633
G1 X103.851 Y55.833 E49.61142
G1 X106.535 Y56.239 E49.81402
G1 X109.261 Y56.575 E50.01902
G1 X112.009 Y56.834 E50.22503
G1 X114.72 Y57.012 E50.4278
G1 X117.992 Y57.126 E50.67216
G1 X120.271 Y57.168 E50.84228
G1 X130.644 Y57.33 E51.61657
G1 X133.517 Y57.328 E51.831
G1 X136.264 Y57.246 E52.03612
G1 X139.011 Y57.087 E52.24148
G1 X141.714 Y56.853 E52.44398
G1 X144.449 Y56.537 E52.64946
G1 X147.17 Y56.146 E52.85463
G1 X149.823 Y55.687 E53.05559
G1 X152.539 Y55.138 E53.2624
G1 X155.164 Y54.53 E53.4635
G1 X157.506 Y53.922 E53.64409
G1 X158.311 Y53.703 E53.70636
G1 X158.811 Y53.607 E53.74436
G1 X160.229 Y53.611 E53.85019
G1 X163.36 Y53.741 E54.08408
G1 X164.118 Y53.783 E54.14074
G1 X164.623 Y53.851 E54.17877
G1 X165.185 Y54.028 E54.22275
G1 X165.949 Y54.346 E54.28451
G1 X167.129 Y54.856 E54.38045
G1 X169.645 Y55.864 E54.58275
G1 X172.232 Y56.816 E54.78849
G1 X174.802 Y57.679 E54.99083
G1 X177.452 Y58.486 E55.19758
G1 X180.077 Y59.206 E55.40073
G1 X182.765 Y59.863 E55.60726
G1 X184.478 Y60.237 E55.73812
G1 X185.315 Y60.413 E55.80196
G1 X186.434 Y60.665 E55.88757
G1 X187.548 Y60.938 E55.97317
G1 X188.426 Y61.169 E56.04093
G1 X189.526 Y61.48 E56.12625
G1 X190.566 Y61.8 E56.20746
G1 X191.46 Y62.095 E56.27773
G1 X192.517 Y62.47 E56.36143
G1 X193.304 Y62.769 E56.42427
G1 X194.302 Y63.177 E56.50474
G1 X195.188 Y63.566 E56.57696
G1 X195.996 Y63.945 E56.64357
G1 X196.923 Y64.41 E56.72097
G1 X197.722 Y64.838 E56.78863
G1 X198.593 Y65.338 E56.86358
G1 X199.254 Y65.741 E56.92136
G1 X200.13 Y66.311 E56.99937
G1 X200.911 Y66.855 E57.0704
G1 X201.565 Y67.338 E57.13108
G1 X202.384 Y67.983 E57.20889
G1 X203.036 Y68.53 E57.27241
G1 X203.726 Y69.144 E57.34135
G1 X204.459 Y69.839 E57.41674
G1 X205.122 Y70.507 E57.48698
G1 X205.676 Y71.099 E57.5475
G1 X206.442 Y71.968 E57.63395
G1 X206.964 Y72.599 E57.69508
G1 X207.659 Y73.486 E57.77918
G1 X208.151 Y74.152 E57.84098
G1 X208.833 Y75.13 E57.92997
G1 X209.342 Y75.904 E57.99911
G1 X209.947 Y76.883 E58.085
G1 X210.461 Y77.761 E58.16094
G1 X210.956 Y78.656 E58.23727
G1 X211.555 Y79.8 E58.33365
G1 X212.041 Y80.784 E58.41556
G1 X212.557 Y81.89 E58.50665
G1 X212.822 Y82.478 E58.55479
G1 X213.657 Y84.29 E58.7037
G1 X214.866 Y86.75 E58.90828
G1 X216.134 Y89.159 E59.11146
G1 X217.48 Y91.547 E59.31605
G1 X218.885 Y93.882 E59.51944
G1 X220.367 Y96.196 E59.72453
G1 X222.051 Y98.661 E59.94735
G1 X222.304 Y99.103 E59.98536
G1 X222.546 Y99.817 E60.04162
G1 X222.767 Y100.855 E60.12083
G1 X223.34 Y103.835 E60.34732
G1 X223.477 Y104.604 E60.40562
G1 X223.526 Y105.111 E60.44364
G1 X223.484 Y105.698 E60.48756
G1 X223.118 Y107.934 E60.65667
G1 X222.737 Y110.609 E60.85833
G1 X222.427 Y113.342 E61.06362
G1 X222.196 Y116.049 E61.26639
G1 X222.04 Y118.798 E61.4719
G1 X221.962 Y121.545 E61.677
G1 X221.962 Y124.26 E61.87964
G1 X222.04 Y127.01 E62.08497
G1 X222.199 Y129.817 E62.29481
G1 X222.279 Y130.981 E62.38189
G1 X222.452 Y133.817 E62.59395
G1 X222.594 Y136.58 E62.80044
G1 X222.707 Y139.325 E63.00549
G1 X222.793 Y141.982 E63.2039
G1 X222.855 Y144.781 E63.41286
G1 X222.891 Y147.745 E63.63409
G1 X222.898 Y150.156 E63.81404
G1 X222.89 Y152.498 E63.98884
G1 X222.854 Y155.334 E64.20052
G1 X222.79 Y158.137 E64.40978
G1 X222.7 Y160.86 E64.61313
G1 X222.594 Y163.43 E64.8051
G1 X222.448 Y166.261 E65.01668
G1 X222.284 Y168.95 E65.21775
G1 X222.184 Y170.382 E65.32488
G1 X222.033 Y173.108 E65.52865
G1 X221.959 Y175.856 E65.73383
G1 X221.962 Y178.573 E65.93661
G1 X222.043 Y181.323 E66.14195
G1 X222.201 Y184.071 E66.34739
G1 X222.433 Y186.769 E66.5495
G1 X222.748 Y189.511 E66.75549
G1 X223.132 Y192.189 E66.95741
G1 X223.378 Y193.615 E67.06542
G1 X223.487 Y194.307 E67.1177
G1 X223.526 Y194.815 E67.15573
