;FLAVOR:Marlin
;TIME:4744
;Filament used: 9.86114m
;Layer height: 0.32
;MINX:77.75
;MINY:56.831
;MINZ:0.32
;MAXX:220.278
;MAXY:243.169
;MAXZ:17.96
;EOFFSETPROCESSED
;Generated with Cura_SteamEngine mb-master-20200328
M82 ;absolute extrusion mode
;
; Crashspace Printer Farm MP10 (C. Nicks Start Code + John Gwinner Probe Code)
;______________________________________________
;Sliced at: Sat 25-04-2020 02:40:10
;Layer Height: 0.32
;Line Width: 0.5
;Flow: 102
;Z-Hop: True
;______________________________________________
;
M140 S60 ; set bed temp
M104 S180.0 T0 ; set extruder park temp to warm but not ooze during bed probing ;Adjusted temp by 20
M190 S60 ; wait for bed temp
; Try to grab the ooze off the nozzle here before probing around
G28 ; home all axis
G29 P1; probes mesh
G29 P3; fill in mesh that can't be reached is good
G29 S0 ; save mesh
G29 F 10.0 ;prints linear above this height
G29 A ; use UBL
M104 S280.0 T0 ; set extruder temp ;Adjusted temp by 20
G92 E0;(Reset the extruder to 0)
G0 X0 Y30 Z2 F1500; (set into park)
M109 S280.0 T0 ; wait for extruder temp ;Adjusted temp by 20
G92 E0
G1 E7 F300; (Unretract from last ending code, plus add some for ooze)
;PRIME
G0 X0 Y30 Z0.2 F1500; (Knock off ooze)
G0 X2 Y30 Z0.4 F1500; (Knock off ooze)
G0 X3 Y30 Z1.0 F1500; (Knock off ooze)
G0 X5 Y30 Z0.32 F1000; (Lower into prime)
G91
G1 X5 Y+20 F1000 E5  ;PRIME
G1 X+0.5 ;PRIME
G1 Y-20 F1000 E5  ;PRIME
G90
G92 E0
G0 X0 Y20 F1500; (Knock off ooze)
G0 X0 Y20 Z0.2 F1500; (Knock off ooze)
G0 X2 Y20 Z0.4 F1500; (Knock off ooze)
G0 X3 Y20 Z1.0 F1500; (Knock off ooze)
G92 E0
;AND GO!!!!
G92 E0
G92 E0
G1 F2400 E-5
;LAYER_COUNT:53
;LAYER:0
M107
G1 F600 Z1.32
;MESH:Object 1
G0 F7200 X79.1 Y79.692 Z1.32
;TYPE:WALL-OUTER
G1 F600 Z0.32
G1 F2400 E0.0
G1 F1800 X79.406 Y79.434 E0.02716
G1 X79.748 Y79.209 E0.05493
G1 X80.102 Y79.031 E0.08182
G1 X80.494 Y78.889 E0.11011
G1 X80.898 Y78.793 E0.13828
G1 X81.292 Y78.747 E0.1652
G1 X81.515 Y78.74 E0.18033
G1 X98.471 Y78.74 E1.33081
G1 X98.919 Y78.767 E1.36126
G1 X99.301 Y78.834 E1.38758
G1 X99.711 Y78.956 E1.4166
G1 X100.063 Y79.108 E1.44262
G1 X100.441 Y79.326 E1.47222
G1 X100.741 Y79.55 E1.49763
G1 X101.058 Y79.85 E1.52724
G1 X101.316 Y80.156 E1.5544
G1 X101.541 Y80.498 E1.58217
G1 X101.719 Y80.852 E1.60906
G1 X101.861 Y81.244 E1.63735
G1 X101.957 Y81.648 E1.66552
G1 X102.003 Y82.032 E1.69176
G1 X102.01 Y82.25 E1.70656
G1 X102.01 Y97.721 E2.75628
G1 X101.983 Y98.169 E2.78673
G1 X101.916 Y98.551 E2.81305
G1 X101.794 Y98.961 E2.84207
G1 X101.642 Y99.313 E2.86809
G1 X101.424 Y99.691 E2.89769
G1 X101.2 Y99.991 E2.9231
G1 X100.9 Y100.308 E2.95271
G1 X100.594 Y100.566 E2.97987
G1 X100.252 Y100.791 E3.00764
G1 X99.898 Y100.969 E3.03453
G1 X99.506 Y101.111 E3.06282
G1 X99.102 Y101.207 E3.09099
G1 X98.708 Y101.253 E3.11791
G1 X98.485 Y101.26 E3.13305
G1 X81.529 Y101.26 E4.28352
G1 X81.081 Y101.233 E4.31397
G1 X80.699 Y101.166 E4.34029
G1 X80.289 Y101.044 E4.36931
G1 X79.937 Y100.892 E4.39533
G1 X79.559 Y100.674 E4.42494
G1 X79.259 Y100.45 E4.45034
G1 X78.942 Y100.15 E4.47995
G1 X78.681 Y99.84 E4.50745
G1 X78.459 Y99.502 E4.53489
G1 X78.281 Y99.148 E4.56177
G1 X78.139 Y98.756 E4.59006
G1 X78.043 Y98.352 E4.61823
G1 X77.997 Y97.958 E4.64515
G1 X77.99 Y97.75 E4.65927
G1 X77.99 Y82.279 E5.70899
G1 X78.017 Y81.831 E5.73944
G1 X78.084 Y81.449 E5.76575
G1 X78.206 Y81.039 E5.79478
G1 X78.358 Y80.687 E5.82079
G1 X78.576 Y80.309 E5.8504
G1 X78.8 Y80.009 E5.8758
G1 X79.1 Y79.692 E5.90542
G0 F7200 X79.253 Y79.563
G0 X79.607 Y79.983
G0 X79.95 Y80.838
G1 F1800 X79.624 Y81.316 E5.94468
G1 X79.446 Y81.851 E5.98293
G1 X79.41 Y82.222 E6.00822
G1 X79.41 Y84.34 E6.15193
G1 X100.59 Y84.34 E7.58901
G1 X100.59 Y82.209 E7.7336
G1 X100.516 Y81.677 E7.77004
G1 X100.282 Y81.147 E7.80935
G1 X99.912 Y80.7 E7.84872
G1 X99.434 Y80.374 E7.88798
G1 X98.899 Y80.196 E7.92624
G1 X98.528 Y80.16 E7.95153
G1 X81.459 Y80.16 E9.10967
G1 X80.927 Y80.234 E9.14611
G1 X80.397 Y80.468 E9.18542
G1 X79.95 Y80.838 E9.2248
G0 F7200 X79.838 Y81.003
G0 X79.384 Y80.692
G0 X80.927 Y85.234
G1 E9.22551 ;Adjusted e by 0.00071mm
G1 F1800 X80.397 Y85.468 E9.26482
G1 X79.95 Y85.838 E9.30419
G1 X79.624 Y86.316 E9.34344
G1 X79.446 Y86.851 E9.3817
G1 X79.41 Y87.222 E9.40699
G1 X79.41 Y89.34 E9.5507
G1 X100.59 Y89.34 E10.98778
G1 X100.59 Y87.209 E11.13237
G1 X100.516 Y86.677 E11.16881
G1 X100.282 Y86.147 E11.20812
G1 X99.912 Y85.7 E11.24749
G1 X99.434 Y85.374 E11.28675
G1 X98.899 Y85.196 E11.32501
G1 X98.528 Y85.16 E11.3503
G1 X81.459 Y85.16 E12.50844
G1 X80.927 Y85.234 E12.54488
G0 F7200 X80.744 Y85.314
G0 X80.581 Y84.84
;TYPE:WALL-INNER
G1 F1800 X80.132 Y85.039 E12.57821
G1 X79.812 Y85.304 E12.6064
G1 X79.577 Y85.498 E12.62707
G1 X79.172 Y86.092 E12.67585
G1 X78.987 Y86.646 E12.71548
G1 X78.954 Y86.747 E12.72269
G1 X78.91 Y87.198 E12.75344
G1 X78.91 Y89.84 E12.9327
G1 X101.09 Y89.84 E14.43763
G1 X101.09 Y87.174 E14.61852
G1 X101.012 Y86.608 E14.65729
G1 X101.002 Y86.539 E14.66202
G1 X100.711 Y85.882 E14.71077
G1 X100.252 Y85.327 E14.75964
G1 X100.216 Y85.302 E14.76261
G1 X99.658 Y84.922 E14.80842
G1 X99.412 Y84.84 E14.82601
G0 F7200 X99.658 Y84.84
G1 F1800 X100.333 Y84.84 E14.85033
G1 X101.09 Y84.84 E14.9017
G1 X101.09 Y82.266 E15.07634
G1 X101.09 Y82.174 E15.08259
G1 X101.083 Y82.12 E15.08628
G1 X101.038 Y81.797 E15.10841
G1 X101.002 Y81.539 E15.12608
G1 X100.866 Y81.231 E15.14893
G1 X100.711 Y80.882 E15.17484
G1 X100.581 Y80.725 E15.18867
G1 X100.369 Y80.469 E15.21122
G1 X100.252 Y80.327 E15.22371
G1 X100.183 Y80.28 E15.22937
G1 X99.921 Y80.101 E15.2509
G1 X99.658 Y79.922 E15.27249
G1 X99.404 Y79.838 E15.29064
G1 X99.003 Y79.704 E15.31932
G1 X98.823 Y79.687 E15.33159
G1 X98.552 Y79.66 E15.35007
G1 X98.458 Y79.66 E15.35645
G1 X81.531 Y79.66 E16.50496
G1 X81.424 Y79.66 E16.51222
G1 X81.039 Y79.713 E16.53859
G1 X80.789 Y79.748 E16.55571
G1 X80.481 Y79.884 E16.57856
G1 X80.132 Y80.039 E16.60447
G1 X79.975 Y80.169 E16.6183
G1 X79.719 Y80.381 E16.64085
G1 X79.577 Y80.498 E16.65334
G1 X79.53 Y80.567 E16.659
G1 X79.351 Y80.829 E16.68053
G1 X79.172 Y81.092 E16.70212
G1 X79.088 Y81.346 E16.72027
G1 X78.954 Y81.747 E16.74895
G1 X78.937 Y81.927 E16.76122
G1 X78.91 Y82.198 E16.7797
G1 X78.91 Y82.292 E16.78608
G1 X78.91 Y84.84 E16.95896
G1 X79.716 Y84.84 E17.01365
G1 X80.132 Y84.84 E17.03242
G0 F7200 X80.581 Y84.84
G1 F2400 E12.03242
G1 F600 Z1.32
G0 F7200 X79.41 Y90.66 Z1.32
;TYPE:WALL-OUTER
G1 F600 Z0.32
G1 F2400 E17.03321 ;Adjusted e by 0.00079mm
G1 F1800 X79.41 Y92.624 E17.16647
G1 X79.441 Y93.139 E17.20148
G1 X79.624 Y93.684 E17.24049
G1 X79.95 Y94.162 E17.27974
G1 X80.397 Y94.532 E17.31912
G1 X80.927 Y94.766 E17.35843
G1 X81.459 Y94.84 E17.39487
G1 X98.541 Y94.84 E18.55389
G1 X99.073 Y94.766 E18.59034
G1 X99.603 Y94.532 E18.62965
G1 X100.05 Y94.162 E18.66902
G1 X100.376 Y93.684 E18.70828
G1 X100.554 Y93.149 E18.74653
G1 X100.59 Y92.778 E18.77182
G1 X100.59 Y90.66 E18.91553
G1 X79.41 Y90.66 E20.35261
G0 F7200 X79.41 Y90.86
G0 X78.86 Y90.86
G0 X79.41 Y95.66
G1 E20.35333 ;Adjusted e by 0.00072mm
G1 F1800 X79.41 Y97.624 E20.48659
G1 X79.441 Y98.139 E20.5216
G1 X79.624 Y98.684 E20.5606
G1 X79.95 Y99.162 E20.59986
G1 X80.397 Y99.532 E20.63923
G1 X80.927 Y99.766 E20.67854
G1 X81.459 Y99.84 E20.71499
G1 X98.541 Y99.84 E21.87401
G1 X99.073 Y99.766 E21.91045
G1 X99.603 Y99.532 E21.94976
G1 X100.05 Y99.162 E21.98914
G1 X100.376 Y98.684 E22.02839
G1 X100.554 Y98.149 E22.06665
G1 X100.59 Y97.778 E22.09194
G1 X100.59 Y95.66 E22.23565
G1 X79.41 Y95.66 E23.67273
G0 F7200 X79.41 Y95.86
G0 X79.716 Y95.16
;TYPE:WALL-INNER
G1 F1800 X78.91 Y95.16 E23.72741
G1 X78.91 Y97.639 E23.89562
G1 X78.914 Y97.707 E23.90024
G1 X78.925 Y97.893 E23.91288
G1 X78.946 Y98.235 E23.93613
G1 X79.026 Y98.473 E23.95316
G1 X79.139 Y98.81 E23.97728
G1 X79.172 Y98.909 E23.98436
G1 X79.245 Y99.017 E23.99321
G1 X79.438 Y99.299 E24.01639
G1 X79.577 Y99.502 E24.03309
G1 X79.856 Y99.733 E24.05766
G1 X80.132 Y99.961 E24.08195
G1 X80.336 Y100.051 E24.09708
G1 X80.632 Y100.182 E24.11904
G1 X80.789 Y100.252 E24.13071
G1 X80.874 Y100.263 E24.13652
G1 X81.195 Y100.308 E24.15852
G1 X81.424 Y100.34 E24.1742
G1 X81.542 Y100.34 E24.18221
G1 X98.469 Y100.34 E25.33072
G1 X98.576 Y100.34 E25.33798
G1 X98.961 Y100.287 E25.36435
G1 X99.211 Y100.252 E25.38148
G1 X99.519 Y100.116 E25.40432
G1 X99.868 Y99.961 E25.43023
G1 X100.025 Y99.831 E25.44406
G1 X100.281 Y99.619 E25.46661
G1 X100.423 Y99.502 E25.4791
G1 X100.47 Y99.433 E25.48476
G1 X100.649 Y99.171 E25.50629
G1 X100.828 Y98.908 E25.52788
G1 X100.912 Y98.654 E25.54603
G1 X101.046 Y98.253 E25.57472
G1 X101.063 Y98.073 E25.58698
G1 X101.09 Y97.802 E25.60546
G1 X101.09 Y97.708 E25.61184
G1 X101.09 Y95.16 E25.78472
G1 X100.284 Y95.16 E25.83941
G1 X99.868 Y95.16 E25.86764
G1 X99.419 Y95.16 E25.8981
G0 F7200 X99.868 Y94.961
G1 F1800 X100.188 Y94.696 E25.91683
G1 X100.423 Y94.502 E25.93751
G1 X100.828 Y93.908 E25.98629
G1 X101.013 Y93.354 E26.02592
G1 X101.046 Y93.253 E26.03313
G1 X101.09 Y92.802 E26.06387
G1 X101.09 Y90.16 E26.24313
G1 X78.91 Y90.16 E27.20822
G1 X78.91 Y92.639 E27.37642
G1 X78.946 Y93.235 E27.41693
G1 X78.987 Y93.359 E27.42579
G1 X79.172 Y93.909 E27.46517
G1 X79.577 Y94.502 E27.51389
G1 X79.812 Y94.696 E27.53457
G1 X80.132 Y94.961 E27.56276
G1 X80.581 Y95.16 E27.59608
G0 F7200 X80.132 Y95.16
G1 F1800 X79.716 Y95.16 E27.61485
G0 F7200 X78.49 Y97.733
G1 E27.61502 ;Adjusted e by 0.00017mm
G1 F1800 X78.49 Y97.639 E27.62069
G1 X78.49 Y95.16 E27.76226
G1 X78.49 Y93.366 E27.88399
G1 X78.49 Y93.235 E27.89248
G1 X78.49 Y92.639 E27.92793
G1 X78.49 Y90.16 E28.06951
G1 X78.49 Y89.84 E28.09122
G1 X78.49 Y87.198 E28.2421
G1 X78.49 Y86.747 E28.26917
G1 X78.49 Y86.64 E28.27617
G1 X78.49 Y84.84 E28.3983
G1 X78.49 Y82.292 E28.54381
G1 X78.497 Y82.173 E28.55086
G1 X78.515 Y81.886 E28.5674
G1 X78.55 Y81.678 E28.5797
G1 X78.57 Y81.567 E28.58609
G1 X78.677 Y81.21 E28.60776
G1 X78.805 Y80.913 E28.62683
G1 X78.993 Y80.586 E28.64898
G1 X79.184 Y80.331 E28.66754
G1 X79.286 Y80.223 E28.6759
G1 X79.447 Y80.053 E28.68962
G1 X79.701 Y79.839 E28.70895
G1 X79.909 Y79.702 E28.72353
G1 X79.998 Y79.643 E28.73077
G1 X80.305 Y79.489 E28.75058
G1 X80.639 Y79.368 E28.77107
G1 X80.695 Y79.355 E28.77497
G1 X80.979 Y79.287 E28.79194
G1 X81.33 Y79.246 E28.81249
G1 X81.411 Y79.244 E28.81798
G1 X81.531 Y79.24 E28.82495
G1 X98.458 Y79.24 E29.79163
G1 X98.577 Y79.247 E29.79868
G1 X98.864 Y79.265 E29.81522
G1 X99.072 Y79.3 E29.82752
G1 X99.183 Y79.32 E29.83391
G1 X99.54 Y79.427 E29.85558
G1 X99.837 Y79.555 E29.87465
G1 X100.164 Y79.743 E29.8968
G1 X100.419 Y79.934 E29.91536
G1 X100.527 Y80.036 E29.92372
G1 X100.697 Y80.197 E29.93744
G1 X100.911 Y80.451 E29.95677
G1 X101.048 Y80.659 E29.97135
G1 X101.107 Y80.748 E29.97859
G1 X101.261 Y81.055 E29.9984
G1 X101.382 Y81.389 E30.01889
G1 X101.395 Y81.445 E30.02279
G1 X101.465 Y81.737 E30.04024
G1 X101.503 Y82.061 E30.05928
G1 X101.506 Y82.159 E30.06535
G1 X101.51 Y82.266 E30.0716
G1 X101.51 Y84.84 E30.21859
G1 X101.51 Y86.602 E30.33815
G1 X101.51 Y87.174 E30.37385
G1 X101.51 Y89.84 E30.5261
G1 X101.51 Y90.16 E30.54782
G1 X101.51 Y92.802 E30.6987
G1 X101.51 Y93.253 E30.72577
G1 X101.51 Y93.36 E30.73277
G1 X101.51 Y95.16 E30.8549
G1 X101.51 Y97.708 E31.00041
G1 X101.503 Y97.827 E31.00745
G1 X101.485 Y98.114 E31.024
G1 X101.45 Y98.322 E31.0363
G1 X101.43 Y98.433 E31.04269
G1 X101.323 Y98.79 E31.06436
G1 X101.195 Y99.087 E31.08343
G1 X101.007 Y99.414 E31.10558
G1 X100.816 Y99.669 E31.12414
G1 X100.714 Y99.777 E31.1325
G1 X100.553 Y99.947 E31.14622
G1 X100.299 Y100.161 E31.16555
G1 X100.091 Y100.298 E31.18013
G1 X100.002 Y100.357 E31.18737
G1 X99.695 Y100.511 E31.20717
G1 X99.361 Y100.632 E31.22767
G1 X99.305 Y100.645 E31.23157
G1 X99.021 Y100.713 E31.24854
G1 X98.67 Y100.754 E31.26908
G1 X98.589 Y100.756 E31.27458
G1 X98.469 Y100.76 E31.28155
G1 X81.542 Y100.76 E32.24823
G1 X81.399 Y100.752 E32.25651
G1 X81.136 Y100.735 E32.27196
G1 X80.817 Y100.68 E32.29079
G1 X80.674 Y100.638 E32.29922
G1 X80.46 Y100.573 E32.31241
G1 X80.163 Y100.445 E32.33128
G1 X79.931 Y100.312 E32.34693
G1 X79.836 Y100.257 E32.35308
G1 X79.581 Y100.066 E32.37147
G1 X79.303 Y99.803 E32.39351
G1 X79.269 Y99.763 E32.39641
G1 X79.083 Y99.542 E32.41322
G1 X78.896 Y99.256 E32.43307
G1 X78.813 Y99.091 E32.44404
G1 X78.739 Y98.945 E32.45376
G1 X78.618 Y98.611 E32.47436
G1 X78.551 Y98.33 E32.49119
G1 X78.537 Y98.271 E32.49455
G1 X78.496 Y97.919 E32.51492
G1 X78.49 Y97.733 E32.5258
G0 F7200 X78.99 Y94.66
G1 E32.52602 ;Adjusted e by 0.00022mm
G1 F900 X78.99 Y94.529 E32.53491
G0 F7200 X78.99 Y94.66
G1 F2400 E27.53491
G1 F600 Z1.32
G0 F7200 X78.99 Y85.472 Z1.32
G1 F600 Z0.32
G1 F2400 E32.53636 ;Adjusted e by 0.00145mm
G1 F900 X78.99 Y85.34 E32.54532
G1 X79.08 Y85.34 E32.55142
G0 F7200 X78.99 Y85.472
G1 F2400 E27.55142
G1 F600 Z1.32
G0 F7200 X100.912 Y85.34 Z1.32
G1 F600 Z0.32
G1 F2400 E32.55543 ;Adjusted e by 0.00401mm
G1 F900 X101.01 Y85.34 E32.56208
G1 X101.01 Y85.459 E32.57016
G0 F7200 X100.912 Y85.34
G1 F2400 E27.57016
G1 F600 Z1.32
G0 F7200 X100.92 Y94.66 Z1.32
G1 F600 Z0.32
G1 F2400 E32.57163 ;Adjusted e by 0.00147mm
G1 F900 X101.01 Y94.528 E32.58247
G0 F7200 X100.92 Y94.66
G0 X99.014 Y95.234
;TYPE:SKIN
G1 E32.5825 ;Adjusted e by 3e-05mm
G1 F1800 X80.985 Y95.234 E33.49017
G1 F2400 E28.49017
G1 F600 Z1.32
G0 F7200 X80.985 Y84.766 Z1.32
G1 F600 Z0.32
G1 F2400 E33.49187 ;Adjusted e by 0.0017mm
G1 F1800 X99.011 Y84.762 E34.39206
G1 F2400 E29.39206
G1 F600 Z1.32
;MESH:Object 2
G0 F7200 X106.99 Y82.279 Z1.32
;TYPE:WALL-OUTER
G1 F600 Z0.32
G1 F2400 E34.39334 ;Adjusted e by 0.00128mm
G1 F1800 X107.017 Y81.831 E34.42379
G1 X107.084 Y81.449 E34.4501
G1 X107.206 Y81.039 E34.47913
G1 X107.358 Y80.687 E34.50514
G1 X107.573 Y80.315 E34.53429
G1 X107.812 Y79.994 E34.56145
G1 X108.09 Y79.698 E34.589
G1 X108.4 Y79.438 E34.61645
G1 X108.754 Y79.206 E34.64517
G1 X109.102 Y79.031 E34.6716
G1 X109.494 Y78.889 E34.69989
G1 X109.898 Y78.793 E34.72806
G1 X110.292 Y78.747 E34.75498
G1 X110.515 Y78.74 E34.77012
G1 X127.471 Y78.74 E35.92059
G1 X127.919 Y78.767 E35.95105
G1 X128.301 Y78.834 E35.97736
G1 X128.711 Y78.956 E36.00638
G1 X129.063 Y79.108 E36.0324
G1 X129.441 Y79.326 E36.06201
G1 X129.741 Y79.55 E36.08741
G1 X130.058 Y79.85 E36.11702
G1 X130.316 Y80.156 E36.14418
G1 X130.541 Y80.498 E36.17196
G1 X130.719 Y80.852 E36.19884
G1 X130.861 Y81.244 E36.22713
G1 X130.957 Y81.648 E36.25531
G1 X131.003 Y82.032 E36.28155
G1 X131.01 Y82.25 E36.29635
G1 X131.01 Y97.721 E37.34606
G1 X130.983 Y98.169 E37.37652
G1 X130.916 Y98.551 E37.40283
G1 X130.794 Y98.961 E37.43185
G1 X130.642 Y99.313 E37.45787
G1 X130.424 Y99.691 E37.48748
G1 X130.2 Y99.991 E37.51288
G1 X129.9 Y100.308 E37.54249
G1 X129.594 Y100.566 E37.56965
G1 X129.252 Y100.791 E37.59743
G1 X128.898 Y100.969 E37.62431
G1 X128.506 Y101.111 E37.6526
G1 X128.102 Y101.207 E37.68078
G1 X127.708 Y101.253 E37.70769
G1 X127.485 Y101.26 E37.72283
G1 X110.529 Y101.26 E38.8733
G1 X110.081 Y101.233 E38.90376
G1 X109.699 Y101.166 E38.93007
G1 X109.289 Y101.044 E38.9591
G1 X108.937 Y100.892 E38.98511
G1 X108.559 Y100.674 E39.01472
G1 X108.259 Y100.45 E39.04012
G1 X107.942 Y100.15 E39.06973
G1 X107.681 Y99.84 E39.09723
G1 X107.459 Y99.502 E39.12467
G1 X107.281 Y99.148 E39.15155
G1 X107.139 Y98.756 E39.17984
G1 X107.043 Y98.352 E39.20802
G1 X106.997 Y97.958 E39.23493
G1 X106.99 Y97.75 E39.24905
G1 X106.99 Y82.279 E40.29877
G0 F7200 X107.002 Y82.079
G0 X107.552 Y82.112
G0 X108.41 Y82.222
G1 F1800 X108.41 Y84.34 E40.44248
G1 X129.59 Y84.34 E41.87956
G1 X129.59 Y82.209 E42.02414
G1 X129.516 Y81.676 E42.06066
G1 X129.282 Y81.146 E42.09997
G1 X128.912 Y80.7 E42.13929
G1 X128.434 Y80.374 E42.17854
G1 X127.899 Y80.196 E42.2168
G1 X127.528 Y80.16 E42.24209
G1 X110.459 Y80.16 E43.40023
G1 X109.927 Y80.234 E43.43668
G1 X109.397 Y80.468 E43.47599
G1 X108.95 Y80.838 E43.51536
G1 X108.624 Y81.316 E43.55462
G1 X108.446 Y81.851 E43.59287
G1 X108.41 Y82.222 E43.61816
G0 F7200 X108.41 Y82.422
G0 X107.86 Y82.422
G0 X109.397 Y85.468
G1 E43.6186 ;Adjusted e by 0.00044mm
G1 F1800 X108.95 Y85.838 E43.65797
G1 X108.624 Y86.316 E43.69723
G1 X108.446 Y86.851 E43.73549
G1 X108.41 Y87.222 E43.76078
