;FLAVOR:Marlin
;TIME:4597
;Filament used: 9.77552m
;Layer height: 0.32
;MINX:77.75
;MINY:56.831
;MINZ:0.32
;MAXX:220.278
;MAXY:243.169
;MAXZ:16.96
;EOFFSETPROCESSED
;Generated with Cura_SteamEngine mb-master-20200328
M82 ;absolute extrusion mode
;
; Crashspace Printer Farm MP10 (C. Nicks Start Code + John Gwinner Probe Code)
;______________________________________________
;Sliced at: Sat 25-04-2020 02:40:10
;Layer Height: 0.32
;Line Width: 0.5
;Flow: 102
;Z-Hop: False
;______________________________________________
;
M140 S60 ; set bed temp
M104 S180.0 T0 ; set extruder park temp to warm but not ooze during bed probing ;Adjusted temp by 20
M190 S60 ; wait for bed temp
; Try to grab the ooze off the nozzle here before probing around
G28 ; home all axis
G29 P1; probes mesh
G29 P3; fill in mesh that can't be reached is good
G29 S0 ; save mesh
G29 F 10.0 ;prints linear above this height
G29 A ; use UBL
M104 S280.0 T0 ; set extruder temp ;Adjusted temp by 20
G92 E0;(Reset the extruder to 0)
G0 X0 Y30 Z2 F1500; (set into park)
M109 S280.0 T0 ; wait for extruder temp ;Adjusted temp by 20
G92 E0
G1 E7 F300; (Unretract from last ending code, plus add some for ooze)
;PRIME
G0 X0 Y30 Z0.2 F1500; (Knock off ooze)
G0 X2 Y30 Z0.4 F1500; (Knock off ooze)
G0 X3 Y30 Z1.0 F1500; (Knock off ooze)
G0 X5 Y30 Z0.32 F1000; (Lower into prime)
G91
G1 X5 Y+20 F1000 E5  ;PRIME
G1 X+0.5 ;PRIME
G1 Y-20 F1000 E5  ;PRIME
G90
G92 E0
G0 X0 Y20 F1500; (Knock off ooze)
G0 X0 Y20 Z0.2 F1500; (Knock off ooze)
G0 X2 Y20 Z0.4 F1500; (Knock off ooze)
G0 X3 Y20 Z1.0 F1500; (Knock off ooze)
G92 E0
;AND GO!!!!
G92 E0
G92 E0
G1 F2400 E-5
;LAYER_COUNT:53
;LAYER:0
M107
G1 F600 Z1.32
;MESH:Object 1
G0 F7200 X79.1 Y79.692 Z1.32
;TYPE:WALL-OUTER
G1 F600 Z0.32
G1 F2400 E0.0
G1 F1800 X79.406 Y79.434 E0.02661
G1 X79.748 Y79.209 E0.05384
G1 X80.102 Y79.031 E0.08018
G1 X80.494 Y78.889 E0.1079
G1 X80.898 Y78.793 E0.13552
G1 X81.292 Y78.747 E0.16189
G1 X81.515 Y78.74 E0.17673
G1 X98.471 Y78.74 E1.30419
G1 X98.919 Y78.767 E1.33404
G1 X99.301 Y78.834 E1.35983
G1 X99.711 Y78.956 E1.38827
G1 X100.063 Y79.108 E1.41376
G1 X100.441 Y79.326 E1.44278
G1 X100.741 Y79.55 E1.46768
G1 X101.058 Y79.85 E1.4967
G1 X101.316 Y80.156 E1.52331
G1 X101.541 Y80.498 E1.55053
G1 X101.719 Y80.852 E1.57688
G1 X101.861 Y81.244 E1.6046
G1 X101.957 Y81.648 E1.63221
G1 X102.003 Y82.032 E1.65793
G1 X102.01 Y82.25 E1.67243
G1 X102.01 Y97.721 E2.70116
G1 X101.983 Y98.169 E2.731
G1 X101.916 Y98.551 E2.75679
G1 X101.794 Y98.961 E2.78523
G1 X101.642 Y99.313 E2.81073
G1 X101.424 Y99.691 E2.83974
G1 X101.2 Y99.991 E2.86464
G1 X100.9 Y100.308 E2.89366
G1 X100.594 Y100.566 E2.92027
G1 X100.252 Y100.791 E2.94749
G1 X99.898 Y100.969 E2.97384
G1 X99.506 Y101.111 E3.00156
G1 X99.102 Y101.207 E3.02917
G1 X98.708 Y101.253 E3.05555
G1 X98.485 Y101.26 E3.07039
G1 X81.529 Y101.26 E4.19785
G1 X81.081 Y101.233 E4.22769
G1 X80.699 Y101.166 E4.25348
G1 X80.289 Y101.044 E4.28193
G1 X79.937 Y100.892 E4.30742
G1 X79.559 Y100.674 E4.33644
G1 X79.259 Y100.45 E4.36133
G1 X78.942 Y100.15 E4.39035
G1 X78.681 Y99.84 E4.4173
G1 X78.459 Y99.502 E4.44419
G1 X78.281 Y99.148 E4.47054
G1 X78.139 Y98.756 E4.49826
G1 X78.043 Y98.352 E4.52587
G1 X77.997 Y97.958 E4.55225
G1 X77.99 Y97.75 E4.56608
G1 X77.99 Y82.279 E5.59481
G1 X78.017 Y81.831 E5.62465
G1 X78.084 Y81.449 E5.65044
G1 X78.206 Y81.039 E5.67888
G1 X78.358 Y80.687 E5.70438
G1 X78.576 Y80.309 E5.73339
G1 X78.8 Y80.009 E5.75829
G1 X79.1 Y79.692 E5.78731
G0 F7200 X79.253 Y79.563
G0 X79.607 Y79.983
G0 X79.95 Y80.838
G1 F1800 X79.624 Y81.316 E5.82578
G1 X79.446 Y81.851 E5.86327
G1 X79.41 Y82.222 E5.88806
G1 X79.41 Y84.34 E6.02889
G1 X100.59 Y84.34 E7.43723
G1 X100.59 Y82.209 E7.57893
G1 X100.516 Y81.677 E7.61464
G1 X100.282 Y81.147 E7.65316
G1 X99.912 Y80.7 E7.69175
G1 X99.434 Y80.374 E7.73022
G1 X98.899 Y80.196 E7.76771
G1 X98.528 Y80.16 E7.7925
G1 X81.459 Y80.16 E8.92748
G1 X80.927 Y80.234 E8.96319
G1 X80.397 Y80.468 E9.00172
G1 X79.95 Y80.838 E9.0403
G0 F7200 X79.838 Y81.003
G0 X79.384 Y80.692
G0 X80.927 Y85.234
G1 E9.04101 ;Adjusted e by 0.00071mm
G1 F1800 X80.397 Y85.468 E9.07953
G1 X79.95 Y85.838 E9.11812
G1 X79.624 Y86.316 E9.15659
G1 X79.446 Y86.851 E9.19408
G1 X79.41 Y87.222 E9.21887
G1 X79.41 Y89.34 E9.3597
G1 X100.59 Y89.34 E10.76804
G1 X100.59 Y87.209 E10.90973
G1 X100.516 Y86.677 E10.94545
G1 X100.282 Y86.147 E10.98397
G1 X99.912 Y85.7 E11.02256
G1 X99.434 Y85.374 E11.06103
G1 X98.899 Y85.196 E11.09852
G1 X98.528 Y85.16 E11.12331
G1 X81.459 Y85.16 E12.25829
G1 X80.927 Y85.234 E12.294
G0 F7200 X80.744 Y85.314
G0 X80.581 Y84.84
;TYPE:WALL-INNER
G1 F1800 X80.132 Y85.039 E12.32666
G1 X79.812 Y85.304 E12.35428
G1 X79.577 Y85.498 E12.37455
G1 X79.172 Y86.092 E12.42235
G1 X78.987 Y86.646 E12.46119
G1 X78.954 Y86.747 E12.46825
G1 X78.91 Y87.198 E12.49838
G1 X78.91 Y89.84 E12.67406
G1 X101.09 Y89.84 E14.14889
G1 X101.09 Y87.174 E14.32616
G1 X101.012 Y86.608 E14.36415
G1 X101.002 Y86.539 E14.36879
G1 X100.711 Y85.882 E14.41657
G1 X100.252 Y85.327 E14.46446
G1 X100.216 Y85.302 E14.46737
G1 X99.658 Y84.922 E14.51226
G1 X99.412 Y84.84 E14.52951
G0 F7200 X99.658 Y84.84
G1 F1800 X100.333 Y84.84 E14.55334
G1 X101.09 Y84.84 E14.60368
G1 X101.09 Y82.266 E14.77483
G1 X101.09 Y82.174 E14.78095
G1 X101.083 Y82.12 E14.78457
G1 X101.038 Y81.797 E14.80625
G1 X101.002 Y81.539 E14.82358
G1 X100.866 Y81.231 E14.84596
G1 X100.711 Y80.882 E14.87136
G1 X100.581 Y80.725 E14.88491
G1 X100.369 Y80.469 E14.90701
G1 X100.252 Y80.327 E14.91925
G1 X100.183 Y80.28 E14.9248
G1 X99.921 Y80.101 E14.9459
G1 X99.658 Y79.922 E14.96705
G1 X99.404 Y79.838 E14.98484
G1 X99.003 Y79.704 E15.01295
G1 X98.823 Y79.687 E15.02497
G1 X98.552 Y79.66 E15.04308
G1 X98.458 Y79.66 E15.04933
G1 X81.531 Y79.66 E16.17487
G1 X81.424 Y79.66 E16.18199
G1 X81.039 Y79.713 E16.20783
G1 X80.789 Y79.748 E16.22461
G1 X80.481 Y79.884 E16.247
G1 X80.132 Y80.039 E16.27239
G1 X79.975 Y80.169 E16.28595
G1 X79.719 Y80.381 E16.30805
G1 X79.577 Y80.498 E16.32028
G1 X79.53 Y80.567 E16.32583
G1 X79.351 Y80.829 E16.34693
G1 X79.172 Y81.092 E16.36809
G1 X79.088 Y81.346 E16.38588
G1 X78.954 Y81.747 E16.41399
G1 X78.937 Y81.927 E16.42601
G1 X78.91 Y82.198 E16.44412
G1 X78.91 Y82.292 E16.45037
G1 X78.91 Y84.84 E16.6198
G1 X79.716 Y84.84 E16.67339
G1 X80.132 Y84.84 E16.69179
G0 F7200 X80.581 Y84.84
G1 F2400 E11.69179
G0 F7200 X79.41 Y90.66
;TYPE:WALL-OUTER
G1 F2400 E16.69258 ;Adjusted e by 0.00079mm
G1 F1800 X79.41 Y92.624 E16.82317
G1 X79.441 Y93.139 E16.85748
G1 X79.624 Y93.684 E16.89571
G1 X79.95 Y94.162 E16.93418
G1 X80.397 Y94.532 E16.97276
G1 X80.927 Y94.766 E17.01129
G1 X81.459 Y94.84 E17.047
G1 X98.541 Y94.84 E18.18285
G1 X99.073 Y94.766 E18.21856
G1 X99.603 Y94.532 E18.25709
G1 X100.05 Y94.162 E18.29567
G1 X100.376 Y93.684 E18.33414
G1 X100.554 Y93.149 E18.37163
G1 X100.59 Y92.778 E18.39642
G1 X100.59 Y90.66 E18.53725
G1 X79.41 Y90.66 E19.94559
G0 F7200 X79.41 Y90.86
G0 X78.86 Y90.86
G0 X79.41 Y95.66
G1 E19.94631 ;Adjusted e by 0.00072mm
G1 F1800 X79.41 Y97.624 E20.0769
G1 X79.441 Y98.139 E20.11121
G1 X79.624 Y98.684 E20.14943
G1 X79.95 Y99.162 E20.18791
G1 X80.397 Y99.532 E20.22649
G1 X80.927 Y99.766 E20.26501
G1 X81.459 Y99.84 E20.30073
G1 X98.541 Y99.84 E21.43657
G1 X99.073 Y99.766 E21.47229
G1 X99.603 Y99.532 E21.51081
G1 X100.05 Y99.162 E21.5494
G1 X100.376 Y98.684 E21.58787
G1 X100.554 Y98.149 E21.62536
G1 X100.59 Y97.778 E21.65015
G1 X100.59 Y95.66 E21.79098
G1 X79.41 Y95.66 E23.19932
G0 F7200 X79.41 Y95.86
G0 X79.716 Y95.16
;TYPE:WALL-INNER
G1 F1800 X78.91 Y95.16 E23.25291
G1 X78.91 Y97.639 E23.41775
G1 X78.914 Y97.707 E23.42228
G1 X78.925 Y97.893 E23.43467
G1 X78.946 Y98.235 E23.45745
G1 X79.026 Y98.473 E23.47415
G1 X79.139 Y98.81 E23.49778
G1 X79.172 Y98.909 E23.50472
G1 X79.245 Y99.017 E23.51339
G1 X79.438 Y99.299 E23.53611
G1 X79.577 Y99.502 E23.55247
G1 X79.856 Y99.733 E23.57655
G1 X80.132 Y99.961 E23.60036
G1 X80.336 Y100.051 E23.61518
G1 X80.632 Y100.182 E23.63671
G1 X80.789 Y100.252 E23.64814
G1 X80.874 Y100.263 E23.65384
G1 X81.195 Y100.308 E23.67539
G1 X81.424 Y100.34 E23.69077
G1 X81.542 Y100.34 E23.69861
G1 X98.469 Y100.34 E24.82415
G1 X98.576 Y100.34 E24.83126
G1 X98.961 Y100.287 E24.85711
G1 X99.211 Y100.252 E24.87389
G1 X99.519 Y100.116 E24.89628
G1 X99.868 Y99.961 E24.92167
G1 X100.025 Y99.831 E24.93522
G1 X100.281 Y99.619 E24.95733
G1 X100.423 Y99.502 E24.96956
G1 X100.47 Y99.433 E24.97511
G1 X100.649 Y99.171 E24.99621
G1 X100.828 Y98.908 E25.01737
G1 X100.912 Y98.654 E25.03515
G1 X101.046 Y98.253 E25.06327
G1 X101.063 Y98.073 E25.07529
G1 X101.09 Y97.802 E25.0934
G1 X101.09 Y97.708 E25.09965
G1 X101.09 Y95.16 E25.26907
G1 X100.284 Y95.16 E25.32267
G1 X99.868 Y95.16 E25.35033
G1 X99.419 Y95.16 E25.38019
G0 F7200 X99.868 Y94.961
G1 F1800 X100.188 Y94.696 E25.39854
G1 X100.423 Y94.502 E25.4188
G1 X100.828 Y93.908 E25.46661
G1 X101.013 Y93.354 E25.50544
G1 X101.046 Y93.253 E25.51251
G1 X101.09 Y92.802 E25.54264
G1 X101.09 Y90.16 E25.71832
G1 X78.91 Y90.16 E26.6641
G1 X78.91 Y92.639 E26.82894
G1 X78.946 Y93.235 E26.86864
G1 X78.987 Y93.359 E26.87732
G1 X79.172 Y93.909 E26.91591
G1 X79.577 Y94.502 E26.96366
G1 X79.812 Y94.696 E26.98392
G1 X80.132 Y94.961 E27.01155
G1 X80.581 Y95.16 E27.0442
G0 F7200 X80.132 Y95.16
G1 F1800 X79.716 Y95.16 E27.0626
G0 F7200 X78.49 Y97.733
G1 E27.06277 ;Adjusted e by 0.00017mm
G1 F1800 X78.49 Y97.639 E27.06832
G1 X78.49 Y95.16 E27.20707
G1 X78.49 Y93.366 E27.32636
G1 X78.49 Y93.235 E27.33468
G1 X78.49 Y92.639 E27.36942
G1 X78.49 Y90.16 E27.50816
G1 X78.49 Y89.84 E27.52944
G1 X78.49 Y87.198 E27.67731
G1 X78.49 Y86.747 E27.70384
G1 X78.49 Y86.64 E27.71069
G1 X78.49 Y84.84 E27.83038
G1 X78.49 Y82.292 E27.97298
G1 X78.497 Y82.173 E27.97989
G1 X78.515 Y81.886 E27.9961
G1 X78.55 Y81.678 E28.00815
G1 X78.57 Y81.567 E28.01442
G1 X78.677 Y81.21 E28.03565
G1 X78.805 Y80.913 E28.05434
G1 X78.993 Y80.586 E28.07605
G1 X79.184 Y80.331 E28.09423
G1 X79.286 Y80.223 E28.10243
G1 X79.447 Y80.053 E28.11588
G1 X79.701 Y79.839 E28.13482
G1 X79.909 Y79.702 E28.14911
G1 X79.998 Y79.643 E28.15621
G1 X80.305 Y79.489 E28.17561
G1 X80.639 Y79.368 E28.19569
G1 X80.695 Y79.355 E28.19952
G1 X80.979 Y79.287 E28.21615
G1 X81.33 Y79.246 E28.23628
G1 X81.411 Y79.244 E28.24167
G1 X81.531 Y79.24 E28.2485
G1 X98.458 Y79.24 E29.19585
G1 X98.577 Y79.247 E29.20275
G1 X98.864 Y79.265 E29.21897
G1 X99.072 Y79.3 E29.23102
G1 X99.183 Y79.32 E29.23728
G1 X99.54 Y79.427 E29.25851
G1 X99.837 Y79.555 E29.2772
G1 X100.164 Y79.743 E29.29891
G1 X100.419 Y79.934 E29.3171
G1 X100.527 Y80.036 E29.32529
G1 X100.697 Y80.197 E29.33874
G1 X100.911 Y80.451 E29.35768
G1 X101.048 Y80.659 E29.37197
G1 X101.107 Y80.748 E29.37907
G1 X101.261 Y81.055 E29.39848
G1 X101.382 Y81.389 E29.41856
G1 X101.395 Y81.445 E29.42238
G1 X101.465 Y81.737 E29.43949
G1 X101.503 Y82.061 E29.45814
G1 X101.506 Y82.159 E29.46409
G1 X101.51 Y82.266 E29.47021
G1 X101.51 Y84.84 E29.61427
G1 X101.51 Y86.602 E29.73143
G1 X101.51 Y87.174 E29.76642
G1 X101.51 Y89.84 E29.91563
G1 X101.51 Y90.16 E29.93691
G1 X101.51 Y92.802 E30.08477
G1 X101.51 Y93.253 E30.1113
G1 X101.51 Y93.36 E30.11816
G1 X101.51 Y95.16 E30.23785
G1 X101.51 Y97.708 E30.38045
G1 X101.503 Y97.827 E30.38735
G1 X101.485 Y98.114 E30.40357
G1 X101.45 Y98.322 E30.41562
G1 X101.43 Y98.433 E30.42189
G1 X101.323 Y98.79 E30.44312
G1 X101.195 Y99.087 E30.46181
G1 X101.007 Y99.414 E30.48352
G1 X100.816 Y99.669 E30.5017
G1 X100.714 Y99.777 E30.5099
G1 X100.553 Y99.947 E30.52334
G1 X100.299 Y100.161 E30.54228
G1 X100.091 Y100.298 E30.55657
G1 X100.002 Y100.357 E30.56367
G1 X99.695 Y100.511 E30.58308
G1 X99.361 Y100.632 E30.60316
G1 X99.305 Y100.645 E30.60698
G1 X99.021 Y100.713 E30.62361
G1 X98.67 Y100.754 E30.64375
G1 X98.589 Y100.756 E30.64914
G1 X98.469 Y100.76 E30.65597
G1 X81.542 Y100.76 E31.60331
G1 X81.399 Y100.752 E31.61142
G1 X81.136 Y100.735 E31.62657
G1 X80.817 Y100.68 E31.64502
G1 X80.674 Y100.638 E31.65328
G1 X80.46 Y100.573 E31.66621
G1 X80.163 Y100.445 E31.6847
G1 X79.931 Y100.312 E31.70004
G1 X79.836 Y100.257 E31.70606
G1 X79.581 Y100.066 E31.72409
G1 X79.303 Y99.803 E31.74569
G1 X79.269 Y99.763 E31.74853
G1 X79.083 Y99.542 E31.76501
G1 X78.896 Y99.256 E31.78446
G1 X78.813 Y99.091 E31.79521
G1 X78.739 Y98.945 E31.80473
G1 X78.618 Y98.611 E31.82492
G1 X78.551 Y98.33 E31.84141
G1 X78.537 Y98.271 E31.84471
G1 X78.496 Y97.919 E31.86467
G1 X78.49 Y97.733 E31.87533
G0 F7200 X78.99 Y94.66
G1 E31.87555 ;Adjusted e by 0.00022mm
G1 F900 X78.99 Y94.529 E31.88427
G0 F7200 X78.99 Y94.66
G1 F2400 E26.88427
G0 F7200 X78.99 Y85.472
G1 F2400 E31.88572 ;Adjusted e by 0.00145mm
G1 F900 X78.99 Y85.34 E31.89449
G1 X79.08 Y85.34 E31.90048
G0 F7200 X78.99 Y85.472
G1 F2400 E26.90048
G0 F7200 X100.912 Y85.34
G1 F2400 E31.90449 ;Adjusted e by 0.00401mm
G1 F900 X101.01 Y85.34 E31.911
G1 X101.01 Y85.459 E31.91892
G0 F7200 X100.912 Y85.34
G1 F2400 E26.91892
G0 F7200 X100.92 Y94.66
G1 F2400 E31.92039 ;Adjusted e by 0.00147mm
G1 F900 X101.01 Y94.528 E31.93101
G0 F7200 X100.92 Y94.66
G0 X99.014 Y95.234
;TYPE:SKIN
G1 E31.93104 ;Adjusted e by 3e-05mm
G1 F1800 X80.985 Y95.234 E32.82056
G1 F2400 E27.82056
G0 F7200 X80.985 Y84.766
G1 F2400 E32.82226 ;Adjusted e by 0.0017mm
G1 F1800 X99.011 Y84.762 E33.70444
G1 F2400 E28.70444
;MESH:Object 2
G0 F7200 X106.99 Y82.279
;TYPE:WALL-OUTER
G1 F2400 E33.70572 ;Adjusted e by 0.00128mm
G1 F1800 X107.017 Y81.831 E33.73556
G1 X107.084 Y81.449 E33.76135
G1 X107.206 Y81.039 E33.7898
G1 X107.358 Y80.687 E33.81529
G1 X107.573 Y80.315 E33.84386
G1 X107.812 Y79.994 E33.87047
G1 X108.09 Y79.698 E33.89747
G1 X108.4 Y79.438 E33.92438
G1 X108.754 Y79.206 E33.95252
G1 X109.102 Y79.031 E33.97842
G1 X109.494 Y78.889 E34.00614
G1 X109.898 Y78.793 E34.03375
G1 X110.292 Y78.747 E34.06013
G1 X110.515 Y78.74 E34.07497
G1 X127.471 Y78.74 E35.20243
G1 X127.919 Y78.767 E35.23228
G1 X128.301 Y78.834 E35.25806
G1 X128.711 Y78.956 E35.28651
G1 X129.063 Y79.108 E35.312
G1 X129.441 Y79.326 E35.34102
G1 X129.741 Y79.55 E35.36591
G1 X130.058 Y79.85 E35.39493
G1 X130.316 Y80.156 E35.42155
G1 X130.541 Y80.498 E35.44877
G1 X130.719 Y80.852 E35.47512
G1 X130.861 Y81.244 E35.50284
G1 X130.957 Y81.648 E35.53045
G1 X131.003 Y82.032 E35.55617
G1 X131.01 Y82.25 E35.57067
G1 X131.01 Y97.721 E36.59939
G1 X130.983 Y98.169 E36.62924
G1 X130.916 Y98.551 E36.65502
G1 X130.794 Y98.961 E36.68347
G1 X130.642 Y99.313 E36.70896
G1 X130.424 Y99.691 E36.73798
G1 X130.2 Y99.991 E36.76287
G1 X129.9 Y100.308 E36.79189
G1 X129.594 Y100.566 E36.81851
G1 X129.252 Y100.791 E36.84573
G1 X128.898 Y100.969 E36.87208
G1 X128.506 Y101.111 E36.8998
G1 X128.102 Y101.207 E36.92741
G1 X127.708 Y101.253 E36.95379
G1 X127.485 Y101.26 E36.96862
G1 X110.529 Y101.26 E38.09609
G1 X110.081 Y101.233 E38.12593
G1 X109.699 Y101.166 E38.15172
G1 X109.289 Y101.044 E38.18016
G1 X108.937 Y100.892 E38.20566
G1 X108.559 Y100.674 E38.23467
G1 X108.259 Y100.45 E38.25957
G1 X107.942 Y100.15 E38.28859
G1 X107.681 Y99.84 E38.31554
G1 X107.459 Y99.502 E38.34243
G1 X107.281 Y99.148 E38.36877
G1 X107.139 Y98.756 E38.3965
G1 X107.043 Y98.352 E38.42411
G1 X106.997 Y97.958 E38.45048
G1 X106.99 Y97.75 E38.46432
G1 X106.99 Y82.279 E39.49305
G0 F7200 X107.002 Y82.079
G0 X107.552 Y82.112
G0 X108.41 Y82.222
G1 F1800 X108.41 Y84.34 E39.63388
G1 X129.59 Y84.34 E41.04222
G1 X129.59 Y82.209 E41.18391
G1 X129.516 Y81.676 E41.21969
G1 X129.282 Y81.146 E41.25822
G1 X128.912 Y80.7 E41.29675
G1 X128.434 Y80.374 E41.33522
G1 X127.899 Y80.196 E41.37271
G1 X127.528 Y80.16 E41.3975
G1 X110.459 Y80.16 E42.53248
G1 X109.927 Y80.234 E42.56819
G1 X109.397 Y80.468 E42.60672
G1 X108.95 Y80.838 E42.6453
G1 X108.624 Y81.316 E42.68377
G1 X108.446 Y81.851 E42.72127
G1 X108.41 Y82.222 E42.74605
G0 F7200 X108.41 Y82.422
G0 X107.86 Y82.422
G0 X109.397 Y85.468
G1 E42.74649 ;Adjusted e by 0.00044mm
G1 F1800 X108.95 Y85.838 E42.78508
G1 X108.624 Y86.316 E42.82355
G1 X108.446 Y86.851 E42.86104
G1 X108.41 Y87.222 E42.88582
G1 X108.41 Y89.34 E43.02666
G1 X129.59 Y89.34 E44.43499
G1 X129.59 Y87.209 E44.57669
G1 X129.516 Y86.676 E44.61247
G1 X129.282 Y86.146 E44.651
G1 X128.912 Y85.7 E44.68953
G1 X128.434 Y85.374 E44.728
